assets/luts/Teal and Orange.cube
TITLE "Generated by Resolve"
LUT_3D_SIZE 9
0 0 0
0.000183108 0.000137331 0.00015259
0.0140383 0.00657664 0.00729381
0.0835279 0.0209506 0.0228122
0.186358 0.0260319 0.0258488
0.305989 0.0241093 0.0183871
0.463584 0.0163882 0.00207523
0.65507 0.00430304 0
0.848157 0.000762951 0
0.00680552 0.0410925 0.0431678
0.0500801 0.0636912 0.0632792
0.129305 0.0769055 0.0706188
0.234058 0.0839551 0.0688334
0.358389 0.0855726 0.0590677
0.480369 0.0845808 0.0454261
0.620493 0.0820478 0.0294041
0.777722 0.0797742 0.0134585
0.922194 0.0811322 0.00381476
0 0.164843 0.1505
0.0218357 0.177081 0.149905
0.140002 0.181903 0.13959
0.274693 0.182467 0.124453
0.408042 0.18291 0.112566
0.519829 0.185122 0.104005
0.637888 0.188174 0.0964065
0.774746 0.191531 0.088838
0.910872 0.195377 0.0814984
0 0.302419 0.253193
0 0.304311 0.241108
0.098085 0.302419 0.224475
0.24184 0.300832 0.209888
0.385214 0.300206 0.195544
0.507912 0.300084 0.183581
0.629007 0.302464 0.176074
0.767239 0.305821 0.169635
0.903395 0.309468 0.163134
0 0.424521 0.337728
0 0.423362 0.326131
0.0601205 0.420356 0.310964
0.205341 0.418906 0.297704
0.350011 0.418341 0.285924
0.479484 0.418372 0.273793
0.605966 0.418677 0.261173
0.753552 0.420249 0.252064
0.894987 0.423056 0.24538
0 0.539559 0.429465
0 0.539254 0.416297
0.0225376 0.536614 0.398627
0.168948 0.535286 0.3832
0.313939 0.534768 0.369818
0.450401 0.53489 0.358297
0.572992 0.535424 0.347234
0.723033 0.536171 0.334646
0.874372 0.537743 0.324971
0 0.651637 0.542184
0 0.651911 0.528145
0 0.64979 0.507805
0.132189 0.64863 0.488579
0.27715 0.648173 0.471214
0.419547 0.648264 0.456016
0.543145 0.648844 0.442054
0.685008 0.649973 0.429007
0.839933 0.651255 0.414664
0 0.76321 0.639124
0 0.763943 0.629618
0 0.7626 0.616205
0.0954604 0.76144 0.603006
0.240513 0.761044 0.588479
0.386313 0.761212 0.573053
0.513634 0.76173 0.557855
0.647425 0.762753 0.543069
0.801999 0.764355 0.528572
0 0.87538 0.72694
0 0.876478 0.717906
0 0.876341 0.706111
0.0597086 0.874601 0.691432
0.205081 0.874342 0.678401
0.351064 0.874601 0.666163
0.483787 0.875242 0.654704
0.61059 0.876204 0.644007
0.765087 0.877775 0.634241
0 0 0
0 0 0
0.0299687 0.0116884 0.0146792
0.108186 0.0240024 0.0307317
0.214527 0.0270695 0.034165
0.337545 0.0241398 0.0279545
0.502419 0.0155032 0.0128939
0.693172 0.00314336 0
0.882811 0.000946059 0
0.00288396 0.0510109 0.0567636
0.0572519 0.0707713 0.0775311
0.13904 0.082948 0.0869154
0.24831 0.0888838 0.0857557
0.374441 0.0896468 0.0767071
0.496971 0.0882277 0.06392
0.63978 0.0858473 0.0490883
0.794736 0.0840467 0.0347601
0.936568 0.0860761 0.0255131
0 0.174411 0.169863
0.036759 0.181857 0.170138
0.155001 0.186145 0.162951
0.287098 0.187091 0.15108
0.413352 0.18909 0.141604
0.523827 0.191669 0.132723
0.643763 0.194858 0.124544
0.781552 0.198138 0.116457
0.91873 0.201678 0.108614
0 0.30808 0.273121
0 0.306661 0.263203
0.115526 0.305745 0.251225
0.258671 0.304433 0.237064
0.399985 0.303868 0.22295
0.516304 0.305394 0.213977
0.634867 0.308705 0.207294
0.771771 0.312367 0.200366
0.90808 0.316258 0.193393
0 0.427634 0.357259
0 0.424781 0.346578
0.0798505 0.423148 0.334707
0.22211 0.42237 0.322316
0.366705 0.421927 0.310811
0.493584 0.422095 0.299077
0.620737 0.422736 0.288273
0.76347 0.425589 0.281559
0.901091 0.429328 0.276112
0 0.542321 0.454475
0 0.541039 0.442573
0.0442969 0.538979 0.426856
0.185992 0.538659 0.412161
0.331121 0.538247 0.397894
0.464912 0.538445 0.385245
0.588403 0.539055 0.373251
0.739849 0.540078 0.360906
0.887724 0.542062 0.352514
0 0.6542 0.56965
0 0.653788 0.558038
0.00827039 0.651881 0.540734
0.150317 0.651759 0.524117
0.294438 0.651606 0.506523
0.434684 0.651759 0.490105
0.557778 0.652369 0.47509
0.703166 0.65359 0.461234
0.858045 0.654688 0.446235
0 0.765682 0.660349
0 0.765866 0.652033
0 0.764385 0.639826
0.115373 0.764172 0.627909
0.257816 0.764401 0.615885
0.402838 0.764691 0.604517
0.528252 0.76527 0.592004
0.666041 0.766369 0.578653
0.82034 0.768017 0.564843
0 0.877821 0.748562
0 0.878462 0.740612
0 0.877958 0.729686
0.0809339 0.877119 0.717021
0.222644 0.877607 0.705272
0.368338 0.87805 0.693172
0.498222 0.878737 0.681682
0.628092 0.879774 0.671016
0.78349 0.881392 0.661295
0 0 0
0 0 0
0.0455329 0.0164034 0.0235447
0.139864 0.024918 0.0390631
0.24979 0.025864 0.0419471
0.37673 0.0222477 0.0365148
0.547906 0.0130007 0.022797
0.735836 0.00205997 0.00347906
0.92079 0.000793469 0
0 0.0620127 0.0742504
0.0489509 0.0808423 0.0975814
0.155154 0.0872816 0.104494
0.277623 0.0900282 0.101335
0.398825 0.0915389 0.0941024
0.519158 0.0903944 0.0827344
0.663569 0.0885481 0.0694133
0.813626 0.0881361 0.0571756
0.952056 0.0909133 0.0485695
0 0.190646 0.199344
0.0157626 0.19556 0.197833
0.156313 0.193927 0.1888
0.292912 0.193439 0.179065
0.420523 0.195087 0.168826
0.531685 0.197436 0.159594
0.65507 0.200259 0.150958
0.793667 0.203738 0.142947
0.931746 0.206836 0.134783
0 0.321553 0.29897
0 0.315084 0.285252
0.135714 0.308919 0.272923
0.275807 0.307958 0.263676
0.410544 0.308553 0.252476
0.520729 0.311666 0.245182
0.639765 0.315175 0.237629
0.777523 0.318975 0.230091
0.914839 0.322789 0.222568
0 0.436454 0.380789
0 0.429526 0.366293
0.103243 0.425498 0.355657
0.240589 0.425498 0.346777
0.383322 0.425467 0.335622
0.507408 0.425772 0.324132
0.631006 0.427924 0.316106
0.769345 0.431556 0.310353
0.905669 0.435721 0.304738
0 0.548791 0.481422
0 0.544594 0.467414
0.0686503 0.5411 0.453269
0.206531 0.541314 0.441855
0.348318 0.541711 0.428092
0.479103 0.54197 0.414343
0.604364 0.542779 0.401709
0.755184 0.544045 0.389914
0.897841 0.54725 0.383047
0 0.659266 0.594217
0 0.656794 0.58378
0.0332952 0.653864 0.569619
0.172427 0.654108 0.557244
0.312139 0.654948 0.542718
0.449683 0.655238 0.526207
0.572808 0.655879 0.510597
0.721401 0.657176 0.495705
0.875166 0.658473 0.480919
0 0.76997 0.680735
0 0.768612 0.67274
0 0.766186 0.661707
0.138567 0.766339 0.652125
0.277089 0.767407 0.641962
0.418372 0.768109 0.630457
0.542855 0.768765 0.619226
0.684504 0.76994 0.609689
0.838651 0.771649 0.598535
0 0.881636 0.769223
0 0.881086 0.761761
0 0.879347 0.751278
0.104814 0.879194 0.741176
0.243046 0.880339 0.731243
0.385519 0.881453 0.720302
0.513207 0.882216 0.708782
0.646891 0.88333 0.698131
0.801938 0.884993 0.688457
0 0 0
0.00381476 0.00314336 0.00425727
0.0571298 0.0215305 0.0340124
0.160037 0.027863 0.0506752
0.283833 0.0246281 0.0521096
0.428275 0.0176394 0.0451057
0.608789 0.00747692 0.031281
0.791196 0.000762951 0.0133822
0.968124 0 0
0 0.0731518 0.0943313
0.0411688 0.0907454 0.119814
0.150683 0.0961471 0.128771
0.29456 0.0935073 0.124071
0.434852 0.0890516 0.111788
0.557763 0.0880751 0.100053
0.701701 0.087953 0.0884108
0.842481 0.0896773 0.0784619
0.976654 0.0936904 0.0709087
0 0.207233 0.2327
0 0.211551 0.233814
0.135698 0.206638 0.223423
0.305303 0.198215 0.206332
0.442039 0.19707 0.192248
0.548135 0.201114 0.184024
0.673335 0.204334 0.175723
0.810513 0.208026 0.167926
0.947662 0.211704 0.160235
0 0.339025 0.332601
0 0.332631 0.31928
0.106828 0.324071 0.303975
0.269047 0.317556 0.291371
0.412284 0.31577 0.281529
0.526207 0.318029 0.272908
0.648981 0.32105 0.265019
0.788388 0.324392 0.257359
0.926848 0.328359 0.250187
0 0.451438 0.415854
0 0.4439 0.398596
0.096376 0.435584 0.38114
0.255863 0.430121 0.36846
0.399969 0.428855 0.360922
0.517418 0.430411 0.351217
0.636194 0.434089 0.344625
0.773983 0.438041 0.33814
0.911254 0.442237 0.331838
0 0.561013 0.518502
0 0.554711 0.500038
0.0771191 0.547509 0.480568
0.228016 0.544305 0.468406
0.368154 0.544625 0.458991
0.493553 0.545464 0.445823
0.62089 0.546456 0.432654
0.766079 0.549081 0.423224
0.903853 0.553048 0.416922
0 0.668956 0.6177
0 0.664118 0.606912
0.0493629 0.658351 0.594446
0.195605 0.656611 0.584772
0.33434 0.657435 0.575235
0.464469 0.658701 0.562142
0.588434 0.659388 0.547021
0.739452 0.660822 0.532128
0.890791 0.662318 0.518975
0 0.77792 0.703227
0 0.774365 0.693599
0.0178988 0.769726 0.682063
0.162631 0.768643 0.673961
0.300557 0.76968 0.666331
0.434592 0.771328 0.657084
0.557641 0.772229 0.645975
0.702983 0.773495 0.635813
0.857008 0.775219 0.624994
0 0.888304 0.790845
0 0.885893 0.782452
0 0.882292 0.771771
0.129351 0.881422 0.763317
0.266926 0.882536 0.755505
0.404807 0.884352 0.746654
0.528084 0.885679 0.736004
0.665843 0.886854 0.725353
0.820417 0.888594 0.715694
0 0 0
0.0102846 0.00917067 0.0139162
0.067277 0.0268864 0.0471351
0.173587 0.0320745 0.0661479
0.304906 0.027039 0.0685283
0.466728 0.0161746 0.0604257
0.664271 0.00302129 0.0447395
0.853635 0.000183108 0.0261997
1 0 0.00936904
0 0.0845197 0.116976
0.0310979 0.101091 0.144625
0.143786 0.105501 0.155474
0.289769 0.102068 0.152499
0.443381 0.0941482 0.139559
0.591592 0.0870069 0.123018
0.751461 0.0841993 0.108217
0.888167 0.0875715 0.0985885
0.996735 0.0929274 0.0915084
0 0.22266 0.265034
0 0.225834 0.268238
0.118578 0.218448 0.257542
0.289525 0.209537 0.241611
0.450019 0.202319 0.223224
0.580072 0.199985 0.207568
0.712688 0.203632 0.197757
0.843015 0.208896 0.190509
0.975052 0.213626 0.18349
0 0.355871 0.369528
0 0.349401 0.355901
0.0755169 0.339193 0.33875
0.248783 0.3299 0.323812
0.420554 0.321386 0.307683
0.544488 0.320882 0.295842
0.668132 0.32517 0.288746
0.80531 0.328756 0.281621
0.942641 0.332876 0.274922
0 0.467964 0.459815
0 0.461067 0.441947
0.0594339 0.45211 0.4215
0.2224 0.445838 0.405844
0.386267 0.440146 0.392615
0.514794 0.438682 0.382269
0.641581 0.440696 0.372702
0.782254 0.444038 0.365026
0.92134 0.44773 0.357824
0 0.576486 0.563836
0 0.570245 0.54551
0.0497597 0.561822 0.522744
0.213016 0.556008 0.504585
0.375036 0.551263 0.488853
0.510201 0.548608 0.477913
0.633844 0.551019 0.467765
0.771527 0.555093 0.46009
0.908415 0.55938 0.452537
0 0.682704 0.648356
0 0.677073 0.635508
0.036759 0.669337 0.619913
0.19791 0.664347 0.608698
0.353002 0.661311 0.600153
0.482399 0.661357 0.593225
0.604913 0.662867 0.581964
0.757092 0.664363 0.568353
0.901884 0.667201 0.559426
0 0.78999 0.73109
0 0.785077 0.719432
0.0173342 0.778164 0.705226
0.174563 0.774212 0.695048
0.322866 0.772717 0.687709
0.454887 0.773693 0.681392
0.573007 0.775631 0.672892
0.721553 0.77702 0.662837
0.875196 0.778836 0.651789
0 0.898726 0.816434
0 0.894697 0.806073
0 0.888884 0.793423
0.146304 0.885801 0.784146
0.290471 0.885252 0.77731
0.4262 0.886625 0.770825
0.54432 0.888792 0.762737
0.684657 0.890379 0.752636
0.838911 0.89218 0.743038
0 0 0
0.0155947 0.0158236 0.0262608
0.0749523 0.0322576 0.0623178
0.18378 0.0364843 0.0842603
0.319661 0.0309758 0.0889448
0.483818 0.0189059 0.0819867
0.695415 0.00161746 0.0657969
0.898573 0.000381476 0.0457008
1 0 0.0274815
0 0.0961929 0.142
0.0189517 0.11194 0.172244
0.134768 0.115282 0.184314
0.282429 0.111177 0.182864
0.439948 0.102785 0.171176
0.593851 0.0936141 0.154314
0.773571 0.0866255 0.136477
0.926253 0.0864118 0.122835
1 0.0901503 0.112978
0 0.237079 0.297292
0 0.238834 0.300755
0.100832 0.230335 0.290166
0.272587 0.221118 0.275731
0.436744 0.213489 0.25864
0.579263 0.207462 0.241291
0.741833 0.204562 0.225208
0.887404 0.206577 0.213382
0.998199 0.211933 0.205356
0 0.371466 0.410422
0 0.363943 0.394537
0.0531624 0.35201 0.373892
0.231617 0.341512 0.356344
0.405951 0.332784 0.339925
0.550958 0.326482 0.324285
0.705257 0.324559 0.310964
0.84332 0.32845 0.30251
0.973175 0.333989 0.296391
0 0.483818 0.509102
0 0.477195 0.490318
0.0246738 0.467811 0.467582
0.193194 0.460227 0.449332
0.367742 0.452003 0.431632
0.522255 0.444419 0.412436
0.661646 0.44419 0.399145
0.799496 0.448493 0.391348
0.937209 0.452277 0.383703
0 0.592371 0.605341
0 0.586526 0.59234
0.0110323 0.578164 0.572259
0.176593 0.571908 0.554269
0.33994 0.566781 0.537743
0.48986 0.561593 0.521828
0.624643 0.560479 0.510155
0.774441 0.562005 0.497902
0.91545 0.565469 0.48838
0 0.698116 0.683375
0 0.692699 0.670527
0.00177005 0.68481 0.654353
0.167849 0.678859 0.640772
0.33077 0.674159 0.62887
0.480034 0.670054 0.617929
0.622583 0.666621 0.609293
0.770031 0.668772 0.602762
0.90721 0.673091 0.59704
0 0.804639 0.76405
0 0.799512 0.751675
0 0.791974 0.736095
0.157412 0.786206 0.722988
0.318608 0.781949 0.712047
0.46659 0.778866 0.703014
0.593698 0.778241 0.69688
0.740291 0.780514 0.689937
0.892836 0.782376 0.679057
0 0.91223 0.847059
0 0.90753 0.835431
0 0.900618 0.820935
0.141268 0.895277 0.808713
0.298131 0.891936 0.799298
0.443595 0.890394 0.792203
0.564782 0.891188 0.786618
0.704372 0.893706 0.779751
0.857527 0.895735 0.770443
0 0 0
0.0190127 0.0228122 0.0411078
0.081239 0.0382696 0.0805371
0.192248 0.0416114 0.105165
0.331167 0.0352026 0.112184
0.49276 0.0233921 0.106996
0.707454 0.00550851 0.0924544
0.919539 0.000198367 0.0720073
1 4.57771e-05 0.0524147
0 0.108049 0.168109
0.00363165 0.123262 0.201511
0.123964 0.125399 0.215259
0.273365 0.120623 0.215015
0.433799 0.112032 0.204349
0.585916 0.102815 0.18819
0.769406 0.0947585 0.170184
0.937331 0.0913558 0.153948
1 0.0913252 0.140291
0 0.25095 0.331106
0 0.251514 0.33373
0.0825818 0.242267 0.322393
0.255131 0.232822 0.308141
0.422705 0.224857 0.291798
0.566476 0.218372 0.275654
0.737285 0.213077 0.25951
0.905074 0.210239 0.244144
1 0.211032 0.23122
0 0.38555 0.454444
0 0.376944 0.43592
0.0342412 0.363973 0.411978
0.214496 0.35314 0.391821
0.390433 0.34435 0.373816
0.537835 0.337591 0.357244
0.703761 0.332189 0.34165
0.871183 0.329702 0.327794
0.99968 0.332006 0.317678
0 0.498695 0.558984
0 0.491936 0.540841
0 0.481941 0.517006
0.172076 0.472602 0.495048
0.35082 0.463432 0.473838
0.508431 0.455589 0.453376
0.669291 0.449897 0.434333
0.834821 0.44831 0.41828
0.973114 0.452323 0.40856
0 0.607492 0.641962
0 0.601938 0.629236
0 0.593866 0.613413
0.143877 0.586648 0.59968
0.311589 0.580346 0.585229
0.474479 0.572992 0.56788
0.633021 0.566033 0.547616
0.791623 0.566049 0.532357
0.930678 0.570245 0.523033
0 0.713619 0.720317
0 0.708461 0.707866
0 0.701167 0.692546
0.130831 0.694469 0.678019
0.294011 0.689479 0.665843
0.450233 0.685069 0.654582
0.59379 0.680247 0.643549
0.75378 0.679408 0.635462
0.906401 0.680629 0.626688
0 0.820188 0.800046
0 0.815274 0.787808
0 0.80853 0.773068
0.122393 0.801694 0.758221
0.285389 0.796902 0.746105
0.442512 0.792844 0.734981
0.581643 0.789181 0.724514
0.750805 0.786099 0.715572
0.904692 0.787015 0.708659
0 0.927337 0.881544
0 0.922652 0.869612
0 0.91635 0.855543
0.11368 0.909438 0.840681
0.27631 0.904814 0.828962
0.434134 0.901045 0.818509
0.570901 0.897978 0.809339
0.728237 0.896712 0.803006
0.876371 0.899245 0.797864
0.000732433 0.00364691 0.00579843
0.0203098 0.0301976 0.0584878
0.0853285 0.0446784 0.101427
0.198276 0.0471962 0.128573
0.340978 0.0402838 0.138003
0.498405 0.0282292 0.134417
0.71107 0.0107576 0.122103
0.924392 0 0.102785
1 0.000167849 0.0828565
0 0.120134 0.19556
0 0.134676 0.230945
0.111513 0.13579 0.246342
0.262592 0.130419 0.248234
0.425498 0.121706 0.238972
0.576089 0.112627 0.223224
0.756237 0.105058 0.2056
0.930327 0.100313 0.188617
1 0.0971542 0.172641
0 0.264652 0.36875
0 0.264134 0.369345
0.0639658 0.254246 0.355703
0.237598 0.244541 0.340276
0.408347 0.236225 0.323949
0.553109 0.229557 0.308263
0.722728 0.223804 0.292836
0.898634 0.219074 0.277607
1 0.216236 0.262989
0 0.398337 0.50135
0 0.388922 0.480018
0.0160067 0.375769 0.453468
0.19736 0.364782 0.430915
0.373587 0.355947 0.411322
0.524376 0.348821 0.393042
0.688151 0.343053 0.375921
0.865965 0.338308 0.359991
0.999573 0.335897 0.345922
0 0.51252 0.601526
0 0.505333 0.587427
0 0.494865 0.56553
0.153994 0.484199 0.542199
0.333669 0.474845 0.519738
0.49366 0.466941 0.498161
0.652644 0.460853 0.477348
0.832624 0.455985 0.457786
0.9944 0.453834 0.440558
0 0.621805 0.679149
0 0.61619 0.666575
0 0.608774 0.651743
0.117327 0.599817 0.635279
0.290898 0.592096 0.621073
0.460349 0.583993 0.606973
0.615305 0.576928 0.591592
0.798428 0.571801 0.57319
0.964385 0.570474 0.556146
0 0.728664 0.75787
0 0.723629 0.745724
0 0.71725 0.731807
0.0965133 0.7093 0.715877
0.261982 0.703609 0.703182
0.426734 0.698024 0.691066
0.577432 0.691234 0.677974
0.762631 0.684916 0.663279
0.921355 0.68513 0.652522
0 0.83566 0.837461
0 0.830945 0.825544
0 0.82504 0.812009
0.0849165 0.817411 0.79617
0.248524 0.812299 0.783749
0.410681 0.808011 0.772473
0.551446 0.803952 0.761761
0.720668 0.799405 0.751354
0.882765 0.798856 0.743435
0 0.942931 0.918639
0 0.938445 0.906493
0 0.932815 0.893217
0.0766155 0.925307 0.877394
0.240299 0.920363 0.865003
0.403235 0.916304 0.853803
0.543572 0.912688 0.843259
0.704356 0.909529 0.833478
0.87715 0.906905 0.825147
0 0.0117342 0.0207218
0.0191501 0.0381628 0.078996
0.0871443 0.051545 0.125048
0.201999 0.0532387 0.154437
0.348058 0.0459297 0.166125
0.502831 0.0339818 0.163836
0.711986 0.0170748 0.153582
0.921981 0.00115969 0.135973
1 0 0.116625
0 0.132555 0.225116
0 0.146258 0.261387
0.0975967 0.146456 0.277363
0.250202 0.140566 0.280507
0.415717 0.131716 0.272786
0.565133 0.122881 0.258549
0.741115 0.115816 0.241718
0.91722 0.110628 0.224491
1 0.106325 0.207767
0 0.278294 0.410468
0 0.276753 0.40882
0.0450446 0.26627 0.392294
0.220249 0.256229 0.373999
0.393515 0.247669 0.356786
0.53962 0.240803 0.340658
0.706859 0.234806 0.325231
0.884703 0.229664 0.310262
1 0.225391 0.295659
0 0.410254 0.548699
0 0.400488 0.526864
0 0.387472 0.498634
0.180102 0.37641 0.473426
0.356573 0.367529 0.452186
0.510658 0.360082 0.432395
0.671611 0.354131 0.413748
0.851164 0.349004 0.396307
1 0.344762 0.379873
0 0.525399 0.636698
0 0.517723 0.622782
0 0.507378 0.60621
0.13666 0.495552 0.586526
0.31635 0.486198 0.565652
0.479179 0.478325 0.544854
0.635294 0.47187 0.523751
0.816861 0.466728 0.503105
0.99472 0.462455 0.483024
0 0.635447 0.716121
0 0.629526 0.703487
0 0.621897 0.688838
0.0953841 0.611719 0.671046
0.272953 0.603159 0.655726
0.445777 0.59498 0.640497
0.598444 0.58793 0.625772
0.781796 0.582422 0.611337
0.961563 0.578088 0.597086
0 0.743191 0.795483
0 0.738125 0.78352
0 0.731868 0.770062
0.0663462 0.723125 0.753445
0.236286 0.71632 0.739818
0.409003 0.709438 0.726497
0.562585 0.702022 0.712337
0.744762 0.695628 0.697871
0.927581 0.690898 0.683452
0 0.850706 0.875364
0 0.846113 0.863706
0 0.840528 0.850767
0.0493477 0.832563 0.834669
0.215442 0.826871 0.821744
0.381689 0.821897 0.81001
0.529702 0.816663 0.798413
0.702007 0.810346 0.785901
0.891661 0.80441 0.771511
0 0.958373 0.95642
0 0.954055 0.944961
0 0.948821 0.93228
0.038529 0.941176 0.915984
0.204074 0.935836 0.903181
0.368093 0.931533 0.891814
0.513588 0.927672 0.881132
0.668544 0.92401 0.871
0.849668 0.919646 0.861112
