assets/luts/Teal and Orange.cube
TITLE "Generated by Resolve"
LUT_3D_SIZE 5
0 0 0
0.0140383 0.00657664 0.00729381
0.186358 0.0260319 0.0258488
0.463584 0.0163882 0.00207523
0.848157 0.000762951 0
0 0.164843 0.1505
0.140002 0.181903 0.13959
0.408042 0.18291 0.112566
0.637888 0.188174 0.0964065
0.910872 0.195377 0.0814984
0 0.424521 0.337728
0.0601205 0.420356 0.310964
0.350011 0.418341 0.285924
0.605966 0.418677 0.261173
0.894987 0.423056 0.24538
0 0.651637 0.542184
0 0.64979 0.507805
0.27715 0.648173 0.471214
0.543145 0.648844 0.442054
0.839933 0.651255 0.414664
0 0.87538 0.72694
0 0.876341 0.706111
0.205081 0.874342 0.678401
0.483787 0.875242 0.654704
0.765087 0.877775 0.634241
0 0 0
0.0455329 0.0164034 0.0235447
0.24979 0.025864 0.0419471
0.547906 0.0130007 0.022797
0.92079 0.000793469 0
0 0.190646 0.199344
0.156313 0.193927 0.1888
0.420523 0.195087 0.168826
0.65507 0.200259 0.150958
0.931746 0.206836 0.134783
0 0.436454 0.380789
0.103243 0.425498 0.355657
0.383322 0.425467 0.335622
0.631006 0.427924 0.316106
0.905669 0.435721 0.304738
0 0.659266 0.594217
0.0332952 0.653864 0.569619
0.312139 0.654948 0.542718
0.572808 0.655879 0.510597
0.875166 0.658473 0.480919
0 0.881636 0.769223
0 0.879347 0.751278
0.243046 0.880339 0.731243
0.513207 0.882216 0.708782
0.801938 0.884993 0.688457
0 0 0
0.067277 0.0268864 0.0471351
0.304906 0.027039 0.0685283
0.664271 0.00302129 0.0447395
1 0 0.00936904
0 0.22266 0.265034
0.118578 0.218448 0.257542
0.450019 0.202319 0.223224
0.712688 0.203632 0.197757
0.975052 0.213626 0.18349
0 0.467964 0.459815
0.0594339 0.45211 0.4215
0.386267 0.440146 0.392615
0.641581 0.440696 0.372702
0.92134 0.44773 0.357824
0 0.682704 0.648356
0.036759 0.669337 0.619913
0.353002 0.661311 0.600153
0.604913 0.662867 0.581964
0.901884 0.667201 0.559426
0 0.898726 0.816434
0 0.888884 0.793423
0.290471 0.885252 0.77731
0.54432 0.888792 0.762737
0.838911 0.89218 0.743038
0 0 0
0.081239 0.0382696 0.0805371
0.331167 0.0352026 0.112184
0.707454 0.00550851 0.0924544
1 4.57771e-05 0.0524147
0 0.25095 0.331106
0.0825818 0.242267 0.322393
0.422705 0.224857 0.291798
0.737285 0.213077 0.25951
1 0.211032 0.23122
0 0.498695 0.558984
0 0.481941 0.517006
0.35082 0.463432 0.473838
0.669291 0.449897 0.434333
0.973114 0.452323 0.40856
0 0.713619 0.720317
0 0.701167 0.692546
0.294011 0.689479 0.665843
0.59379 0.680247 0.643549
0.906401 0.680629 0.626688
0 0.927337 0.881544
0 0.91635 0.855543
0.27631 0.904814 0.828962
0.570901 0.897978 0.809339
0.876371 0.899245 0.797864
0 0.0117342 0.0207218
0.0871443 0.051545 0.125048
0.348058 0.0459297 0.166125
0.711986 0.0170748 0.153582
1 0 0.116625
0 0.278294 0.410468
0.0450446 0.26627 0.392294
0.393515 0.247669 0.356786
0.706859 0.234806 0.325231
1 0.225391 0.295659
0 0.525399 0.636698
0 0.507378 0.60621
0.31635 0.486198 0.565652
0.635294 0.47187 0.523751
0.99472 0.462455 0.483024
0 0.743191 0.795483
0 0.731868 0.770062
0.236286 0.71632 0.739818
0.562585 0.702022 0.712337
0.927581 0.690898 0.683452
0 0.958373 0.95642
0 0.948821 0.93228
0.204074 0.935836 0.903181
0.513588 0.927672 0.881132
0.849668 0.919646 0.861112
