assets/luts/Teal and Orange.cube
TITLE "Generated by Resolve"
LUT_3D_SIZE 33
0 0 0
0 0 0
0 0 0
0 0 0
0.000183108 0.000137331 0.00015259
0.00111391 0.000762951 0.000839246
0.0031281 0.00189212 0.00210575
0.00660716 0.00347906 0.00386053
0.0140383 0.00657664 0.00729381
0.0274357 0.0108949 0.0121004
0.0437018 0.0148623 0.0164492
0.0626383 0.0182803 0.0200961
0.0835279 0.0209506 0.0228122
0.107286 0.0231632 0.0248417
0.132631 0.0246738 0.0259556
0.159518 0.0256352 0.0263066
0.186358 0.0260319 0.0258488
0.214908 0.0261234 0.0248264
0.243549 0.025742 0.0231785
0.274281 0.0251164 0.0210575
0.305989 0.0241093 0.0183871
0.339818 0.0228275 0.0152285
0.376593 0.0211948 0.01149
0.417594 0.0190585 0.00706493
0.463584 0.0163882 0.00207523
0.510704 0.0135653 0.000366217
0.558068 0.0104982 0
0.606256 0.00749218 0
0.65507 0.00430304 0
0.703746 0.00148013 0
0.752026 0.000503548 0
0.800427 0.00077821 0
0.848157 0.000762951 0
0 0 0
0 0 0
7.62951e-05 9.15541e-05 0.000106813
0.000640879 0.000640879 0.000701915
0.00352483 0.00289921 0.00320439
0.0106661 0.00738537 0.00819409
0.0211795 0.0127565 0.0141604
0.0334325 0.0175174 0.019379
0.0479744 0.0218814 0.0240482
0.0645762 0.0256504 0.027924
0.0839094 0.0288243 0.0310063
0.105684 0.0314641 0.0333257
0.129915 0.0335699 0.0348821
0.15639 0.035172 0.0357214
0.184268 0.0361639 0.0357061
0.213275 0.0367132 0.0350195
0.242237 0.0368963 0.033753
0.271702 0.0366827 0.0318914
0.301167 0.0361486 0.0295415
0.332265 0.0353399 0.0267491
0.36437 0.0343023 0.0235752
0.398535 0.0331731 0.0200504
0.434775 0.0316014 0.0159915
0.475151 0.0297398 0.0113985
0.520195 0.0274662 0.00622568
0.565713 0.0250248 0.00143435
0.611704 0.0224918 0.000228885
0.657938 0.019913 0
0.704234 0.0173342 0
0.75053 0.0148775 0
0.796262 0.0123598 0
0.841245 0.0100862 0
0.88574 0.00805676 0
0 0 0
0.00122072 0.00151064 0.00163272
0.00689708 0.00810254 0.00892653
0.0144045 0.014313 0.0157931
0.0236667 0.0200961 0.0221256
0.0347143 0.025391 0.0277867
0.0477607 0.0302281 0.0327764
0.0627756 0.0344396 0.0369726
0.0799878 0.0382239 0.0404822
0.0991226 0.0413367 0.043122
0.120592 0.0440833 0.0451514
0.144854 0.0462196 0.0463417
0.171283 0.0478676 0.0467689
0.199664 0.0491035 0.0465553
0.229191 0.0497749 0.0455634
0.259358 0.0501106 0.0440375
0.289433 0.0501106 0.0420233
0.319356 0.0497902 0.0395666
0.349462 0.0493172 0.0367437
0.381003 0.0486152 0.0335393
0.41323 0.0478218 0.0300755
0.446647 0.0467689 0.026276
0.482368 0.0455177 0.0220951
0.521813 0.0439918 0.0174716
0.564874 0.0421912 0.0124361
0.60882 0.0402991 0.00723278
0.652888 0.0383459 0.00277714
0.696941 0.0364385 0.000610361
0.74081 0.0345769 3.0518e-05
0.784298 0.0328374 0
0.82739 0.0313115 0
0.869627 0.0298161 0
0.910918 0.0285801 0
0.00637827 0.0162966 0.0177005
0.0117342 0.0232242 0.0251316
0.0190127 0.0295262 0.0317235
0.028687 0.0354009 0.0376745
0.0406653 0.0406653 0.0428168
0.0547494 0.0452735 0.0471199
0.0705425 0.049485 0.0508278
0.0881361 0.0531624 0.0537575
0.107683 0.0564431 0.0560616
0.129076 0.0591592 0.0575723
0.152575 0.0614939 0.0584726
0.178256 0.0633249 0.0586862
0.206195 0.064744 0.0581521
0.235737 0.0655833 0.0568856
0.26659 0.0662089 0.0551461
0.297749 0.0665904 0.0529793
0.328511 0.0665599 0.0503548
0.358755 0.0663462 0.0475013
0.388846 0.0658274 0.0442359
0.42002 0.0653544 0.0407721
0.451789 0.064683 0.0370794
0.484306 0.0638895 0.0331579
0.518822 0.0629587 0.0290074
0.557137 0.0619974 0.0245823
0.598032 0.0606241 0.0198062
0.640269 0.0592813 0.0149691
0.682002 0.0579843 0.0102541
0.72372 0.0568399 0.00619516
0.764813 0.0555734 0.00241093
0.805341 0.0548409 0.000564584
0.845136 0.0540322 0
0.884077 0.0534371 0
0.922057 0.0533303 0
0.00680552 0.0410925 0.0431678
0.0137484 0.047715 0.0496529
0.0235142 0.0536812 0.0551461
0.035462 0.0589609 0.059617
0.0500801 0.0636912 0.0632792
0.0670787 0.0677958 0.0661479
0.0863355 0.0712749 0.0681621
0.107179 0.0742962 0.0696727
0.129305 0.0769055 0.0706188
0.15285 0.0792554 0.0710613
0.178042 0.0811627 0.0708934
0.205295 0.0828717 0.070222
0.234058 0.0839551 0.0688334
0.264439 0.0847486 0.0669718
0.295995 0.0853742 0.0647288
0.327596 0.0855573 0.0619669
0.358389 0.0855726 0.0590677
0.388891 0.0856031 0.0560311
0.418967 0.0852674 0.0525978
0.449195 0.0849317 0.049073
0.480369 0.0845808 0.0454261
0.512001 0.084184 0.0416571
0.545052 0.0835126 0.0377966
0.581399 0.0828107 0.0336614
0.620493 0.0820478 0.0294041
0.660639 0.0813916 0.0252384
0.700114 0.0806287 0.0210727
0.739376 0.0802014 0.0171817
0.777722 0.0797742 0.0134585
0.815229 0.0798657 0.0106661
0.851926 0.0800336 0.00820935
0.887388 0.0804761 0.00588998
0.922194 0.0811322 0.00381476
0 0.0687724 0.0696422
0.00729381 0.0749371 0.0749676
0.0199741 0.080293 0.0790112
0.0345769 0.0849928 0.0820935
0.051957 0.089128 0.0843214
0.0716869 0.092668 0.0857099
0.0935378 0.0956436 0.0865034
0.117494 0.0980087 0.0862593
0.142885 0.100038 0.0858167
0.169162 0.101732 0.085069
0.196536 0.103304 0.0840467
0.225116 0.104524 0.0825513
0.255009 0.105425 0.0806287
0.286122 0.106126 0.0783246
0.317845 0.106676 0.0757458
0.349966 0.106981 0.0728313
0.38056 0.107149 0.069749
0.410666 0.107134 0.0665293
0.440269 0.106966 0.0631266
0.469963 0.10692 0.0597543
0.500252 0.106752 0.05626
0.530648 0.106554 0.0527199
0.562341 0.106432 0.0493324
0.596796 0.106294 0.0457465
0.63415 0.106035 0.0421149
0.671946 0.105867 0.0386358
0.709163 0.105959 0.0354009
0.745525 0.106157 0.0324407
0.781247 0.106554 0.0298009
0.81622 0.107134 0.0275731
0.850767 0.107851 0.025391
0.885069 0.108507 0.0233616
0.919127 0.109575 0.021622
0 0.09897 0.0965896
0 0.10457 0.100633
0.00929274 0.109239 0.103243
0.0268406 0.113268 0.104921
0.0470436 0.116777 0.105791
0.069398 0.119722 0.105913
0.0937972 0.122133 0.105364
0.119936 0.124102 0.104417
0.147631 0.125628 0.102495
0.176928 0.126665 0.100237
0.206729 0.127596 0.0980697
0.237461 0.128313 0.0957961
0.269001 0.128969 0.0933852
0.300862 0.129717 0.0909285
0.333013 0.130159 0.0881971
0.365042 0.130449 0.0852827
0.395789 0.130632 0.0822614
0.425544 0.13077 0.0791485
0.454429 0.13109 0.0762036
0.483391 0.131075 0.0730144
0.512596 0.131273 0.0699474
0.542046 0.131395 0.0668498
0.572198 0.131655 0.0638743
0.604318 0.131945 0.0609751
0.639918 0.132326 0.0581979
0.675547 0.132631 0.0554971
0.710521 0.133181 0.0531319
0.745144 0.133959 0.0509957
0.779599 0.134829 0.0489967
0.813794 0.1355 0.0469215
0.847898 0.136324 0.0449378
0.882078 0.137285 0.0430762
0.916228 0.13814 0.0410925
0 0.131182 0.123629
0 0.13611 0.12639
0 0.140154 0.127794
0.0138552 0.143435 0.128069
0.0364996 0.146242 0.127672
0.0614939 0.148592 0.126635
0.0882124 0.150469 0.125048
0.116548 0.151934 0.123033
0.146105 0.153079 0.120745
0.176883 0.153903 0.117708
0.209003 0.154345 0.114168
0.241917 0.154574 0.110887
0.27538 0.154894 0.107866
0.308614 0.155154 0.104952
0.341802 0.155489 0.102113
0.373922 0.155642 0.0992294
0.404669 0.156069 0.0965286
0.434028 0.156146 0.0936294
0.462379 0.156466 0.0909438
0.490578 0.157031 0.0884413
0.518746 0.157397 0.085832
0.546914 0.157946 0.0834211
0.57583 0.15845 0.0810407
0.606394 0.159258 0.0789044
0.639918 0.159777 0.0766461
0.674464 0.160647 0.0747082
0.708736 0.161425 0.0727092
0.742855 0.162325 0.0708019
0.77702 0.163027 0.0687572
0.811185 0.163973 0.066865
0.845121 0.165042 0.0650797
0.879286 0.165789 0.0630503
0.913359 0.166659 0.0611276
0 0.164843 0.1505
0 0.169039 0.152056
0 0.172473 0.152422
0 0.174914 0.151354
0.0218357 0.177081 0.149905
0.0493782 0.17882 0.147875
0.0783246 0.180194 0.145418
0.108598 0.181201 0.142626
0.140002 0.181903 0.13959
0.172198 0.182422 0.136416
0.205066 0.182727 0.132738
0.239445 0.182681 0.128435
0.274693 0.182467 0.124453
0.309667 0.182452 0.121035
0.344015 0.182589 0.118013
0.377005 0.182574 0.115099
0.408042 0.18291 0.112566
0.437232 0.183276 0.110185
0.465293 0.183688 0.107912
0.492454 0.184497 0.105989
0.519829 0.185122 0.104005
0.547204 0.18558 0.101869
0.575235 0.186542 0.100145
0.605188 0.187304 0.0982528
0.637888 0.188174 0.0964065
0.672267 0.18909 0.0945907
0.706447 0.189883 0.0926833
0.740566 0.190707 0.0907912
0.774746 0.191531 0.088838
0.80885 0.192508 0.0870222
0.842847 0.193606 0.0852674
0.876951 0.194369 0.0833143
0.910872 0.195377 0.0814984
0 0.19939 0.177035
0 0.202869 0.177493
0 0.205631 0.176913
0 0.20734 0.174792
0.004654 0.208835 0.172396
0.0345159 0.21001 0.169574
0.0655985 0.210864 0.166415
0.097673 0.211444 0.163027
0.130617 0.211795 0.159503
0.164248 0.211933 0.155917
0.198169 0.212009 0.15227
0.2327 0.211856 0.148333
0.268452 0.211734 0.143954
0.304692 0.211398 0.139803
0.340368 0.211093 0.136263
0.374594 0.21117 0.133425
0.406165 0.211292 0.130922
0.435615 0.211704 0.128847
0.463722 0.212146 0.126864
0.490929 0.212741 0.125032
0.518318 0.213352 0.123217
0.54551 0.214099 0.121431
0.573404 0.215106 0.11986
0.603449 0.215763 0.117998
0.636103 0.216556 0.116167
0.670436 0.217487 0.114458
0.704555 0.218311 0.112581
0.738582 0.219272 0.110857
0.772686 0.220233 0.109087
0.806714 0.221241 0.107332
0.840726 0.22211 0.105501
0.874708 0.223011 0.10367
0.908721 0.224048 0.101915
0 0.234165 0.203082
0 0.236896 0.202579
0 0.239017 0.201175
0 0.240131 0.198352
0 0.240925 0.195102
0.0184634 0.241581 0.191684
0.0515297 0.241947 0.187991
0.0852522 0.24213 0.184176
0.11957 0.242145 0.180331
0.15433 0.242023 0.176516
0.189319 0.24184 0.172778
0.224247 0.241642 0.169146
0.259892 0.241352 0.165393
0.296223 0.241199 0.161349
0.332448 0.240925 0.157504
0.367681 0.240726 0.154177
0.40058 0.240787 0.151461
0.431357 0.240757 0.148852
0.460212 0.241108 0.146715
0.488167 0.241489 0.144701
0.515999 0.241993 0.142794
0.543603 0.242649 0.141054
0.571313 0.243442 0.139391
0.601358 0.244236 0.137697
0.634531 0.244938 0.135897
0.668544 0.246006 0.134356
0.702708 0.246845 0.132631
0.736873 0.247715 0.130861
0.770794 0.248707 0.129229
0.804776 0.249714 0.127535
0.83888 0.250614 0.125765
0.872694 0.251774 0.124178
0.906752 0.252583 0.122362
0 0.26865 0.228717
0 0.270665 0.22742
0 0.272145 0.22533
0 0.272892 0.222202
0 0.272877 0.218021
0.00276188 0.273014 0.214115
0.0375372 0.272953 0.210056
0.0727703 0.272755 0.205982
0.108278 0.27248 0.201984
0.143984 0.272114 0.198108
0.179751 0.271733 0.19443
0.215244 0.271382 0.190936
0.250874 0.271138 0.187564
0.286976 0.270863 0.18407
0.32311 0.27068 0.180194
0.359106 0.270481 0.176333
0.39353 0.270359 0.172915
0.42533 0.270115 0.169787
0.455299 0.270359 0.1673
0.484123 0.270634 0.165026
0.512505 0.271046 0.163012
0.540703 0.271473 0.161028
0.569162 0.27216 0.159274
0.598917 0.272755 0.157504
0.631983 0.273594 0.155871
0.66659 0.274449 0.154253
0.700893 0.275319 0.152605
0.735012 0.276326 0.151064
0.76907 0.277226 0.149401
0.80322 0.278126 0.147707
0.837125 0.279042 0.146029
0.871077 0.280095 0.144427
0.905013 0.281041 0.142733
0 0.302419 0.253193
0 0.303746 0.251392
0 0.304616 0.24892
0 0.304921 0.245624
0 0.304311 0.241108
0 0.303944 0.236927
0.0249485 0.303517 0.232715
0.0615396 0.302968 0.228519
0.098085 0.302419 0.224475
0.134386 0.301915 0.220584
0.170443 0.301488 0.216861
0.206149 0.301122 0.213321
0.24184 0.300832 0.209888
0.277821 0.300649 0.206546
0.31397 0.30042 0.203143
0.349981 0.300298 0.19939
0.385214 0.300206 0.195544
0.417838 0.300023 0.192004
0.449027 0.299962 0.188876
0.478477 0.300008 0.186145
0.507912 0.300084 0.183581
0.536721 0.300542 0.181491
0.565774 0.300999 0.179507
0.59617 0.30161 0.177707
0.629007 0.302464 0.176074
0.664088 0.303105 0.174319
0.698634 0.303868 0.172656
0.733074 0.304768 0.171084
0.767239 0.305821 0.169635
0.801389 0.306615 0.167941
0.835431 0.307561 0.166369
0.869291 0.308751 0.16495
0.903395 0.309468 0.163134
0 0.335088 0.275929
0 0.33576 0.273747
0 0.33608 0.271061
0 0.335912 0.267781
0 0.334874 0.263371
0 0.33402 0.259205
0.0147707 0.333333 0.255192
0.0518502 0.332677 0.251179
0.0885786 0.332113 0.247242
0.124971 0.33164 0.243412
0.161135 0.331212 0.239689
0.197009 0.330846 0.236088
0.232685 0.330541 0.232624
0.268788 0.330327 0.229221
0.305043 0.330205 0.225864
0.340978 0.330022 0.222477
0.376272 0.329946 0.21883
0.409674 0.329931 0.215061
0.441596 0.329824 0.211475
0.471824 0.329686 0.208164
0.501915 0.3299 0.205402
0.531502 0.329778 0.202579
0.561059 0.330266 0.200443
0.591989 0.330541 0.19823
0.625315 0.33106 0.196292
0.6607 0.331945 0.194705
0.695781 0.332616 0.192966
0.730541 0.333425 0.191348
0.765057 0.334234 0.189761
0.799451 0.33518 0.188235
0.833585 0.336141 0.18674
0.867643 0.337102 0.185214
0.90164 0.338094 0.183703
0 0.366308 0.2972
0 0.366384 0.294743
0 0.366155 0.29192
0 0.365698 0.288716
0 0.364752 0.284779
0 0.363638 0.280507
0.00517281 0.362951 0.276707
0.042237 0.362341 0.272908
0.0790875 0.361776 0.269154
0.115602 0.361303 0.265522
0.151827 0.360891 0.261967
0.187839 0.36054 0.258518
0.223545 0.360235 0.255161
0.259617 0.360006 0.251911
0.295918 0.359838 0.248661
0.332082 0.359777 0.245411
0.367636 0.359625 0.24213
0.401572 0.359609 0.238605
0.433585 0.359533 0.234852
0.464454 0.359487 0.231266
0.494759 0.359548 0.227939
0.52517 0.359457 0.224765
0.555184 0.359731 0.222171
0.58648 0.360006 0.219669
0.620462 0.360189 0.217288
0.656153 0.360845 0.215412
0.691951 0.36141 0.213535
0.727321 0.362112 0.211795
0.762295 0.362829 0.210132
0.796933 0.363775 0.208667
0.831388 0.36463 0.207126
0.865736 0.365621 0.205692
0.89987 0.366506 0.20415
0 0.395651 0.317449
0 0.395514 0.314946
0 0.39527 0.3122
0 0.394903 0.309133
0 0.394217 0.305577
0 0.392996 0.301259
0 0.392309 0.297536
0.0326543 0.391745 0.293889
0.0696117 0.391196 0.290272
0.106233 0.390738 0.286748
0.14255 0.390341 0.28333
0.178653 0.390021 0.280003
0.21442 0.389731 0.276783
0.250416 0.389502 0.273655
0.286778 0.389334 0.270619
0.323049 0.389242 0.267582
0.358892 0.389227 0.264546
0.393698 0.38912 0.261433
0.425711 0.389136 0.258167
0.456916 0.38912 0.254658
0.487144 0.389166 0.251164
0.517906 0.389151 0.247776
0.548424 0.38912 0.244587
0.579705 0.389441 0.241886
0.613718 0.389639 0.239261
0.650248 0.38996 0.236866
0.686793 0.390417 0.23476
0.722896 0.390997 0.232822
0.75848 0.391592 0.231006
0.793774 0.392325 0.229328
0.828626 0.393179 0.227787
0.86331 0.393942 0.2262
0.897673 0.394934 0.224811
0 0.424521 0.337728
0 0.424414 0.335241
0 0.424231 0.332525
0 0.423926 0.329534
0 0.423362 0.326131
0 0.422171 0.321874
0 0.421439 0.318105
0.0231479 0.420874 0.314534
0.0601205 0.420356 0.310964
0.096849 0.419898 0.3075
0.133272 0.419516 0.304128
0.169451 0.419181 0.300862
0.205341 0.418906 0.297704
0.241199 0.418677 0.294652
0.277577 0.418509 0.291691
0.313985 0.418387 0.288823
0.350011 0.418341 0.285924
0.385321 0.418357 0.28304
0.417929 0.41828 0.280049
0.449348 0.418326 0.277058
0.479484 0.418372 0.273793
0.510246 0.418479 0.270497
0.540917 0.418524 0.267216
0.572274 0.418555 0.264057
0.605966 0.418677 0.261173
0.643015 0.418906 0.258518
0.680446 0.419257 0.256138
0.717266 0.419745 0.254047
0.753552 0.420249 0.252064
0.78941 0.420874 0.250263
0.824964 0.421393 0.248447
0.859998 0.422278 0.246952
0.894987 0.423056 0.24538
0 0.453468 0.358602
0 0.453391 0.356054
0 0.453254 0.353307
0 0.45301 0.350332
0 0.452567 0.34699
0 0.451469 0.342779
0 0.450645 0.338857
0.0137179 0.450095 0.335225
0.05066 0.449592 0.33167
0.0874952 0.449134 0.328161
0.12401 0.448753 0.324788
0.16025 0.448417 0.321523
0.196262 0.448157 0.318364
0.232044 0.447929 0.315312
0.268376 0.447761 0.312367
0.304875 0.447639 0.309514
0.341115 0.447578 0.306737
0.376654 0.447578 0.303944
0.410224 0.447593 0.301106
0.441779 0.447562 0.298268
0.472282 0.447639 0.295445
0.502708 0.447715 0.292378
0.533333 0.447776 0.289158
0.564385 0.447883 0.285985
0.597696 0.447959 0.282841
0.634928 0.44802 0.279805
0.672755 0.448539 0.277348
0.710491 0.448692 0.27483
0.747448 0.449073 0.272633
0.784024 0.449607 0.27071
0.820188 0.450263 0.268971
0.85594 0.450706 0.267155
0.891249 0.451728 0.265812
0 0.482429 0.380835
0 0.482399 0.378119
0 0.482307 0.375174
0 0.482109 0.371969
0 0.481758 0.368551
0 0.480995 0.364599
0 0.479912 0.360204
0.0043183 0.479347 0.356435
0.0412604 0.478874 0.352789
0.0781109 0.478431 0.349203
0.114748 0.47805 0.345724
0.15108 0.477729 0.342382
0.187182 0.47747 0.339147
0.22298 0.477256 0.336034
0.259174 0.477089 0.333028
0.29572 0.476967 0.330144
0.332113 0.47689 0.327352
0.367941 0.476875 0.324605
0.402335 0.476905 0.321843
0.434241 0.476967 0.319051
0.465171 0.477058 0.316365
0.495201 0.477058 0.313588
0.525902 0.477195 0.310643
0.556573 0.477302 0.307561
0.589242 0.47747 0.304463
0.625528 0.477623 0.301305
0.664164 0.477714 0.298238
0.702358 0.478141 0.295674
0.740108 0.478447 0.293233
0.7776 0.47863 0.290883
0.814282 0.479179 0.288945
0.85069 0.479622 0.287083
0.886656 0.480308 0.285481
0 0.511101 0.404334
0 0.511101 0.401541
0 0.511055 0.398566
0 0.510918 0.395346
0 0.510628 0.391836
0 0.510048 0.387839
0 0.508919 0.382986
0 0.508324 0.378851
0.0318914 0.507866 0.374868
0.0687419 0.507454 0.371023
0.105455 0.507073 0.367376
0.141894 0.506767 0.363867
0.178073 0.506508 0.360494
0.213947 0.50631 0.357244
0.250004 0.506142 0.354116
0.286519 0.50602 0.35111
0.323033 0.505959 0.348226
0.359136 0.505928 0.345418
0.394339 0.505959 0.342657
0.426566 0.50602 0.339864
0.457908 0.506096 0.337087
0.487877 0.506233 0.334386
0.518563 0.506279 0.331685
0.549035 0.506416 0.328862
0.580972 0.506584 0.325841
0.616098 0.506844 0.322728
0.654902 0.506935 0.319463
0.693553 0.507179 0.316487
0.731838 0.507424 0.313726
0.769894 0.507637 0.311147
0.807401 0.50808 0.308965
0.844404 0.508522 0.30692
0.881148 0.508873 0.304952
0 0.539559 0.429465
0 0.53959 0.42652
0 0.539574 0.423377
0 0.539483 0.419989
0 0.539254 0.416297
0 0.538796 0.412192
0 0.537713 0.407126
0 0.537057 0.402731
0.0225376 0.536614 0.398627
0.0593729 0.536217 0.394644
0.0961471 0.535851 0.390707
0.132677 0.535546 0.386892
0.168948 0.535286 0.3832
0.204929 0.535088 0.379614
0.240864 0.534936 0.376135
0.277333 0.534829 0.372869
0.313939 0.534768 0.369818
0.350225 0.534737 0.366857
0.385763 0.534752 0.364004
0.41883 0.534813 0.361151
0.450401 0.53489 0.358297
0.480644 0.534997 0.355459
0.511315 0.53518 0.352743
0.541817 0.535225 0.350011
0.572992 0.535424 0.347234
0.606989 0.535637 0.344244
0.645335 0.535851 0.341009
0.684276 0.536095 0.337819
0.723033 0.536171 0.334646
0.761379 0.536431 0.331823
0.799466 0.536797 0.329305
0.837125 0.537163 0.32697
0.874372 0.537743 0.324971
0 0.567864 0.455756
0 0.567941 0.45272
0 0.567956 0.4495
0 0.567895 0.446052
0 0.567727 0.442313
0 0.567376 0.438193
0 0.56643 0.433066
0 0.565652 0.428183
0.0132143 0.565194 0.423774
0.0500649 0.564828 0.419471
0.0868238 0.564477 0.415259
0.12343 0.564172 0.41117
0.159792 0.563928 0.407263
0.195895 0.563729 0.40351
0.231754 0.563577 0.399908
0.268132 0.56347 0.396429
0.304768 0.563409 0.393072
0.341222 0.563378 0.389838
0.37705 0.563394 0.386694
0.411002 0.563439 0.383581
0.442832 0.563516 0.380468
0.473487 0.563638 0.377371
0.503914 0.563775 0.374472
0.534508 0.563973 0.371649
0.565377 0.56405 0.368856
0.598398 0.564309 0.366079
0.635752 0.564584 0.363043
0.674693 0.564828 0.359777
0.713466 0.565103 0.356542
0.752224 0.565332 0.353384
0.790677 0.56553 0.350393
0.828901 0.565805 0.347707
0.866651 0.566186 0.345312
0 0.596124 0.483589
0 0.596216 0.4804
0 0.596262 0.477028
0 0.596246 0.473411
0 0.596124 0.469551
0 0.59585 0.465324
0 0.595209 0.460441
0 0.594202 0.454948
0.00387579 0.593713 0.450309
0.0407568 0.593362 0.445869
0.0775006 0.593042 0.441489
0.114183 0.592737 0.437186
0.150607 0.592477 0.433005
0.186816 0.592294 0.428977
0.222705 0.592142 0.425055
0.258946 0.59205 0.421241
0.295583 0.591974 0.417578
0.332158 0.591943 0.414084
0.368246 0.591959 0.410712
0.403082 0.592004 0.407462
0.435172 0.592081 0.404257
0.466316 0.592187 0.401099
0.496376 0.592325 0.397955
0.527245 0.592493 0.394873
0.55787 0.592721 0.391867
0.590127 0.592844 0.388861
0.626108 0.593149 0.385931
0.665049 0.593469 0.382681
0.703883 0.593744 0.379263
0.742702 0.594064 0.375937
0.781384 0.594217 0.372564
0.82002 0.594537 0.369558
0.858335 0.594842 0.366781
0 0.623819 0.512764
0 0.623941 0.509529
0 0.624033 0.506081
0 0.624048 0.502403
0 0.623972 0.498421
0 0.623758 0.494102
0 0.623285 0.489204
0 0.622248 0.483268
0 0.621729 0.478248
0.0314641 0.621378 0.473533
0.0681926 0.621088 0.468925
0.104891 0.620798 0.464393
0.141405 0.620569 0.459968
0.177691 0.620386 0.455726
0.213672 0.620249 0.451606
0.249775 0.620157 0.447623
0.286366 0.620096 0.443778
0.323018 0.620081 0.440055
0.359319 0.620081 0.436439
0.394812 0.620127 0.432914
0.427405 0.620203 0.42945
0.458976 0.620295 0.426047
0.489067 0.620432 0.42266
0.519921 0.6206 0.419333
0.550484 0.620798 0.416083
0.582132 0.621057 0.41297
0.616831 0.621225 0.409918
0.655665 0.621576 0.406928
0.694331 0.621927 0.403616
0.733089 0.622232 0.400168
0.771847 0.622461 0.396597
0.810727 0.622766 0.393149
0.849378 0.622904 0.389792
0 0.651637 0.542184
0 0.651774 0.53904
0 0.651896 0.535668
0 0.651942 0.532052
0 0.651911 0.528145
0 0.651759 0.523888
0 0.651377 0.519112
0 0.65037 0.513115
0 0.64979 0.507805
0.0221714 0.649424 0.502876
0.0589303 0.649134 0.498054
0.0955978 0.648875 0.493278
0.132189 0.64863 0.488579
0.168551 0.648447 0.484016
0.204639 0.648325 0.479606
0.240604 0.648219 0.475334
0.27715 0.648173 0.471214
0.313863 0.648142 0.467231
0.350332 0.648157 0.463386
0.386099 0.648203 0.459648
0.419547 0.648264 0.456016
0.451377 0.648356 0.452445
0.481834 0.648478 0.448951
0.512566 0.648646 0.445487
0.543145 0.648844 0.442054
0.57438 0.649073 0.438682
0.608042 0.649363 0.435447
0.646204 0.649607 0.432227
0.685008 0.649973 0.429007
0.723644 0.650339 0.425528
0.762295 0.650675 0.421897
0.801144 0.650935 0.418189
0.839933 0.651255 0.414664
0 0.679484 0.570657
0 0.679667 0.567712
0 0.679789 0.564569
0 0.679881 0.561166
0 0.679881 0.557504
0 0.679789 0.553475
0 0.679484 0.549004
0 0.67863 0.543389
0 0.677913 0.537911
0.0128939 0.677546 0.532952
0.0496834 0.677256 0.52813
0.0863203 0.677012 0.523323
0.122942 0.676783 0.518532
0.15938 0.6766 0.513817
0.195575 0.676463 0.509224
0.23151 0.676371 0.504738
0.267933 0.676326 0.500374
0.304662 0.67631 0.496132
0.341253 0.676326 0.491997
0.377279 0.676371 0.487968
0.411582 0.676432 0.484047
0.443671 0.676524 0.480217
0.474617 0.676631 0.476478
0.505074 0.676783 0.472816
0.535851 0.676966 0.46923
0.566735 0.67718 0.46566
0.599634 0.677455 0.462196
0.636637 0.677791 0.458869
0.675715 0.678065 0.455573
0.714214 0.678462 0.452293
0.752789 0.678859 0.448722
0.791547 0.67921 0.444968
0.830289 0.6795 0.441154
0 0.707362 0.596475
0 0.707576 0.594125
0 0.707729 0.591501
0 0.707851 0.58854
0 0.707897 0.585245
0 0.707835 0.581643
0 0.707607 0.5776
0 0.707042 0.572839
0 0.706111 0.567285
0.00363165 0.705699 0.562524
0.0404822 0.705409 0.557885
0.0771191 0.705196 0.553262
0.11371 0.704982 0.548608
0.15021 0.704799 0.543954
0.186496 0.704662 0.539391
0.222461 0.70457 0.534905
0.258732 0.704524 0.530495
0.295445 0.704509 0.526162
0.332128 0.70454 0.52192
0.368383 0.704585 0.517754
0.403555 0.704646 0.51368
0.435874 0.704738 0.509651
0.467292 0.704845 0.505714
0.49752 0.704982 0.501839
0.528527 0.705165 0.498024
0.559258 0.705364 0.494255
0.591455 0.705623 0.490532
0.627192 0.705943 0.486946
0.66627 0.70631 0.483436
0.704967 0.706615 0.479957
0.74342 0.707027 0.476524
0.782101 0.707439 0.472801
0.820783 0.70782 0.468956
0 0.735271 0.61735
0 0.735485 0.615198
0 0.735683 0.61297
0 0.735836 0.610651
0 0.735912 0.608194
0 0.735897 0.605539
0 0.735729 0.602564
0 0.735317 0.599069
0 0.73434 0.594507
