assets/luts/VM Thermal Grind.cube
LUT_3D_SIZE 6
1.000091 1.000000 1.000000
1.014240 0.776057 1.148667
0.980128 0.437101 1.286766
0.880249 0.000000 1.394404
0.894857 0.000000 1.417493
0.896894 0.000000 1.420985
1.076626 0.921233 0.646008
1.335344 0.870575 1.038213
1.263529 0.499465 1.254118
0.870117 0.000000 1.378727
0.889487 0.000000 1.409222
0.893729 0.000000 1.416054
1.177557 0.733834 0.000000
1.343593 0.720307 0.229666
1.832783 0.669271 1.089175
1.527020 0.408206 1.276927
1.160237 0.153106 1.359038
0.880043 0.000000 1.394270
1.200425 0.748129 0.000000
1.194939 0.744601 0.000000
1.395823 0.722010 0.303848
1.843434 0.673064 1.095387
1.590130 0.454096 1.257861
1.366010 0.290954 1.325951
1.210439 0.754297 0.000000
1.207357 0.752483 0.000000
1.194541 0.744396 0.000000
1.521549 0.715399 0.508253
1.848047 0.674804 1.098089
1.646381 0.497908 1.234010
1.211828 0.755146 0.000000
1.209928 0.754012 0.000000
1.202494 0.749391 0.000000
1.186902 0.739687 0.000000
1.605405 0.708212 0.652044
1.848600 0.675040 1.098490
0.562224 0.922030 0.792261
0.737983 0.874984 1.117555
0.779912 0.508797 1.268394
0.686703 0.052585 1.376667
0.894268 0.000000 1.416785
0.896592 0.000000 1.420504
0.758998 1.041112 0.599729
0.827841 0.827841 0.827842
0.907479 0.313499 1.242851
0.873386 0.000000 1.383575
0.895990 0.000000 1.419377
0.896982 0.000000 1.420901
0.935506 0.834405 0.000000
1.153267 0.718670 0.000000
1.799479 0.657068 1.069209
1.463206 0.368297 1.280336
0.921743 0.001072 1.378164
0.883064 0.000000 1.398994
1.198556 0.746979 0.000000
1.188124 0.740453 0.000000
1.162221 0.724273 0.000000
1.822082 0.665247 1.082668
1.575130 0.442578 1.263898
1.341799 0.274286 1.331102
1.209292 0.753643 0.000000
1.210503 0.754339 0.000000
1.197221 0.746130 0.000000
1.496250 0.717391 0.465324
1.847062 0.674467 1.097607
1.640734 0.493207 1.236769
1.211101 0.754776 0.000000
1.211833 0.755192 0.000000
1.203993 0.750373 0.000000
1.188290 0.740391 0.000000
1.597142 0.709096 0.637461
1.848633 0.675052 1.098504
0.027085 0.791989 0.515965
0.130851 0.765934 0.718350
0.311309 0.640203 1.222957
0.247893 0.240735 1.333122
0.517982 0.130679 1.381652
0.847292 0.000000 1.414164
0.127831 0.876592 0.398415
0.000000 0.673801 0.373493
0.178686 0.542426 1.186919
0.298262 0.216760 1.329125
0.588342 0.100839 1.389739
0.895479 0.000000 1.418824
0.313486 1.085521 0.000000
0.307269 1.064059 0.000000
0.605740 0.605740 0.605741
0.700125 0.000000 1.109124
0.843319 0.000000 1.336059
0.767045 0.000000 1.215123
0.870788 0.880507 0.000000
1.004954 0.810472 0.000000
1.059476 0.660183 0.000000
1.649936 0.602473 0.980441
1.403566 0.354112 1.225995
1.010804 0.142867 1.160424
1.205071 0.751010 0.000000
1.205966 0.751510 0.000000
1.153663 0.718909 0.000000
1.123088 0.699824 0.000000
1.762064 0.643431 1.047034
1.384969 0.403806 1.075139
1.208605 0.753124 0.000000
1.209199 0.753542 0.000000
1.081938 0.674274 0.000000
1.066438 0.664542 0.000000
1.386976 0.636724 0.501860
1.650511 0.602686 0.980812
0.000000 0.606199 0.178599
0.000000 0.568513 0.410800
0.000000 0.415535 0.843173
0.000000 0.393302 1.289585
0.178648 0.275662 1.345913
0.376745 0.191993 1.370355
0.000000 0.717993 0.000000
0.000000 0.434819 0.000000
0.000000 0.413728 0.764723
0.000000 0.390635 1.281036
0.194392 0.269287 1.349006
0.395368 0.184053 1.372428
0.000000 0.915598 0.000000
0.000000 0.879589 0.000000
0.000000 0.353275 0.000000
0.000000 0.330826 1.084801
0.264756 0.219981 1.283661
0.432445 0.119560 1.192847
0.318255 1.102070 0.000000
0.314793 1.090154 0.000000
0.282338 0.977565 0.000000
0.383553 0.383553 0.383553
0.533097 0.000000 0.844532
0.509833 0.000000 0.807610
0.741641 0.942071 0.000000
0.769467 0.930643 0.000000
0.952675 0.794908 0.000000
0.951541 0.592949 0.000000
1.492118 0.544772 0.886682
0.857872 0.223408 0.732090
1.203395 0.750046 0.000000
1.203891 0.750150 0.000000
1.076711 0.670930 0.000000
0.758682 0.472782 0.000000
0.828083 0.455812 0.112326
1.157511 0.422611 0.687776
0.000000 0.451490 0.000000
0.000000 0.448106 0.030953
0.000000 0.433144 0.564936
0.000000 0.418230 0.944332
0.000000 0.399390 1.309876
0.120929 0.300906 1.342049
0.000000 0.449010 0.000000
0.000000 0.452611 0.000000
0.000000 0.436217 0.499241
0.000000 0.419661 0.926230
0.000000 0.399803 1.310964
0.127195 0.298266 1.343020
0.000000 0.772348 0.000000
0.000000 0.737934 0.000000
0.000000 0.399386 0.000000
0.000000 0.390716 0.759249
0.000000 0.379593 1.244794
0.137945 0.249587 1.177712
0.000000 0.955755 0.000000
0.000000 0.947588 0.000000
0.000000 0.853196 0.000000
0.000000 0.275536 0.000000
0.000000 0.273547 0.896921
0.151196 0.144777 0.805333
0.320318 1.109300 0.000000
0.320324 1.109322 0.000000
0.305387 1.057550 0.000000
0.254391 0.880816 0.000000
0.161389 0.161389 0.161389
0.199590 0.000000 0.316203
0.644434 0.982726 0.000000
0.654425 0.978939 0.000000
0.630231 0.855332 0.000000
0.576533 0.543860 0.000000
0.311191 0.193930 0.000000
0.474587 0.173311 0.282028
0.000000 0.452600 0.000000
0.000000 0.452179 0.000000
0.000000 0.439914 0.382878
0.000000 0.428756 0.714693
0.000000 0.415915 1.017570
0.000000 0.400356 1.312567
0.000000 0.451194 0.000000
0.000000 0.452605 0.000000
0.000000 0.441625 0.324134
0.000000 0.429623 0.693941
0.000000 0.416339 1.010026
0.000000 0.400418 1.312839
0.000000 0.669859 0.000000
0.000000 0.633632 0.000000
0.000000 0.404084 0.000000
0.000000 0.387075 0.520822
0.000000 0.373233 0.868223
0.000000 0.357467 1.171976
0.000000 0.846088 0.000000
0.000000 0.835835 0.000000
0.000000 0.696125 0.000000
0.000000 0.283391 0.000000
0.000000 0.264936 0.535479
0.000000 0.250635 0.821834
0.000000 0.987854 0.000000
0.000000 0.984521 0.000000
0.000000 0.864059 0.000000
0.000000 0.572153 0.000000
0.000000 0.116222 0.000000
0.000000 0.102797 0.337091
0.320604 1.110299 0.000000
0.320631 1.110336 0.000000
0.286246 0.991306 0.000000
0.200703 0.695113 0.000000
0.082339 0.285132 0.000000
0.000000 0.000000 0.000000
