assets/luts/VM Thermal Fahrenheit.cube
LUT_3D_SIZE 16
1.000091 1.000000 1.000091
0.975577 0.987079 0.934552
0.897991 0.944352 0.735692
0.816927 0.896398 0.537336
0.731085 0.843264 0.335869
0.637391 0.783159 0.125139
0.530166 0.711610 0.000000
0.388467 0.613740 0.000000
0.124098 0.425327 0.000000
0.125355 0.429713 0.000000
0.126331 0.433078 0.000000
0.127012 0.435380 0.000000
0.127449 0.436892 0.000000
0.127674 0.437728 0.000000
0.127739 0.437914 0.000000
0.127729 0.437918 0.000000
0.959470 1.000871 1.012670
0.959133 1.012607 0.970741
0.884373 0.966609 0.764171
0.807016 0.913484 0.557090
0.722919 0.857822 0.351188
0.630273 0.796709 0.138336
0.522728 0.725952 0.000000
0.377925 0.634021 0.000000
0.123967 0.424923 0.000000
0.125265 0.429430 0.000000
0.126238 0.432755 0.000000
0.126945 0.435175 0.000000
0.127393 0.436714 0.000000
0.127633 0.437533 0.000000
0.127709 0.437797 0.000000
0.127706 0.437788 0.000000
0.826092 1.000985 1.050738
0.825753 1.012515 1.013822
0.821319 1.053789 0.872928
0.762209 0.981509 0.633316
0.686884 0.915539 0.410059
0.597611 0.850498 0.188360
0.488245 0.782261 0.000000
0.322508 0.709404 0.000000
0.127195 0.563342 0.000000
0.124833 0.427958 0.000000
0.125907 0.431629 0.000000
0.126665 0.434234 0.000000
0.127158 0.435926 0.000000
0.127444 0.436876 0.000000
0.127537 0.437239 0.000000
0.127574 0.437324 0.000000
0.673366 0.996700 1.088468
0.672908 1.007003 1.058250
0.669231 1.044797 0.943838
0.653787 1.101954 0.753058
0.600962 1.019206 0.501616
0.518412 0.947178 0.261728
0.396857 0.882895 0.007789
0.131884 0.847152 0.000000
0.130450 0.720629 0.000000
0.123944 0.424872 0.000000
0.125189 0.429187 0.000000
0.126093 0.432264 0.000000
0.126685 0.434329 0.000000
0.127037 0.435533 0.000000
0.127205 0.436041 0.000000
0.127294 0.436367 0.000000
0.474350 0.984414 1.129618
0.473923 0.996919 1.097124
0.468317 1.039571 0.981449
0.444891 1.101621 0.798976
0.378414 1.176919 0.555291
0.280886 1.103160 0.268007
0.131771 1.045014 0.000000
0.132438 0.947259 0.000000
0.132081 0.842727 0.000000
0.130561 0.717174 0.000000
0.124032 0.425273 0.000000
0.125156 0.429066 0.000000
0.125927 0.431629 0.000000
0.126421 0.433346 0.000000
0.126687 0.434307 0.000000
0.126843 0.434780 0.000000
0.025449 0.939699 1.199927
0.025423 0.938859 1.198716
0.061013 1.057263 0.924937
0.084181 1.129586 0.738647
0.105585 1.191304 0.558245
0.126343 1.245272 0.374221
0.130160 1.146886 0.163226
0.132054 1.050844 0.000000
0.132692 0.954506 0.000000
0.132372 0.854023 0.000000
0.131086 0.740442 0.000000
0.127683 0.566932 0.000000
0.124830 0.427978 0.000000
0.125495 0.430179 0.000000
0.125927 0.431629 0.000000
0.126215 0.432620 0.000000
0.025699 0.948765 1.211426
0.025681 0.948067 1.210599
0.025599 0.945317 1.206908
0.050742 1.026126 1.008875
0.083521 1.129923 0.748027
0.106284 1.195592 0.556326
0.126682 1.248835 0.375275
0.130363 1.153275 0.170911
0.132225 1.060162 0.000000
0.132893 0.968171 0.000000
0.132695 0.875014 0.000000
0.131716 0.776330 0.000000
0.129776 0.659956 0.000000
0.124298 0.426081 0.000000
0.124908 0.428226 0.000000
0.125350 0.429639 0.000000
0.025898 0.956298 1.221077
0.025882 0.955754 1.220320
0.025825 0.953758 1.217652
0.025706 0.949315 1.211928
0.047297 1.016671 1.038736
0.084548 1.135106 0.742841
0.107301 1.200518 0.550812
0.126972 1.251673 0.376096
0.130500 1.160109 0.180440
0.132311 1.071418 0.011863
0.133031 0.985185 0.000000
0.132963 0.900360 0.000000
0.132298 0.816049 0.000000
0.131084 0.728918 0.000000
0.129197 0.630241 0.000000
0.124277 0.426007 0.000000
0.026065 0.962347 1.228865
0.026054 0.961978 1.228448
0.026009 0.960325 1.226102
0.025914 0.956936 1.221774
0.025764 0.951265 1.214725
0.051061 1.030818 1.012305
0.086518 1.142584 0.729382
0.108478 1.205382 0.543478
0.127213 1.253982 0.376801
0.130555 1.167174 0.191123
0.132335 1.083690 0.031491
0.133093 1.003613 0.000000
0.133155 0.927400 0.000000
0.132723 0.854684 0.000000
0.131944 0.785388 0.000000
0.130838 0.714509 0.000000
0.026198 0.967342 1.235091
0.026186 0.966895 1.234655
0.026154 0.965636 1.232957
0.026080 0.963005 1.229439
0.025956 0.958572 1.223745
0.025789 0.952234 1.215773
0.057548 1.053377 0.963895
0.088958 1.151240 0.711348
0.109717 1.210168 0.534958
0.127403 1.255843 0.377402
0.130559 1.173870 0.202178
0.132285 1.095721 0.051936
0.133078 1.022298 0.000000
0.133256 0.953633 0.000000
0.133015 0.890441 0.000000
0.132487 0.830281 0.000000
0.026295 0.970890 1.239699
0.026294 0.970570 1.239332
0.026258 0.969751 1.238137
0.026198 0.967257 1.235257
0.026104 0.963902 1.230578
0.025967 0.958818 1.224193
0.025783 0.951975 1.215581
0.064199 1.075825 0.913293
0.091611 1.160042 0.690874
0.110966 1.214600 0.525826
0.127548 1.257277 0.377774
0.130525 1.180223 0.213022
0.132184 1.107758 0.072821
0.132999 1.040149 0.000000
0.133272 0.978525 0.000000
0.133179 0.920857 0.000000
0.026363 0.973642 1.243184
0.026363 0.973453 1.242966
0.026336 0.972622 1.241791
0.026292 0.970776 1.239396
0.026211 0.967721 1.235753
0.026096 0.963688 1.230435
0.025948 0.958078 1.223352
0.025755 0.951179 1.214349
0.070308 1.095906 0.865915
0.094262 1.168476 0.669932
0.112126 1.218437 0.516793
0.127650 1.258315 0.378141
0.130429 1.186384 0.224193
0.132030 1.118933 0.093100
0.132874 1.057153 0.000000
0.133222 1.000148 0.000000
0.026411 0.975331 1.245279
0.026407 0.975123 1.245017
0.026386 0.974350 1.244150
0.026349 0.972839 1.242233
0.026284 0.970470 1.239101
0.026189 0.967090 1.234785
0.026067 0.962484 1.229037
0.025907 0.956697 1.221701
0.025719 0.949782 1.212611
0.075839 1.113633 0.822319
0.096846 1.176402 0.648975
0.113291 1.222058 0.507329
0.127717 1.258907 0.378303
0.130324 1.191610 0.234183
0.131858 1.129364 0.112414
0.132723 1.071919 0.007258
0.026437 0.976090 1.246293
0.026429 0.976024 1.246084
0.026414 0.975419 1.245382
0.026383 0.974205 1.243774
0.026328 0.972308 1.241244
0.026251 0.969266 1.237591
0.026153 0.965629 1.232881
0.026020 0.960784 1.226728
0.025857 0.954816 1.219241
0.047942 1.024152 1.042440
0.080680 1.128755 0.783264
0.099246 1.183611 0.628966
0.114316 1.224998 0.498742
0.127758 1.259356 0.378425
0.130169 1.196702 0.244474
0.131672 1.138721 0.130009
0.026446 0.976416 1.246681
0.026440 0.976228 1.246553
0.026429 0.975788 1.245919
0.026399 0.974541 1.244453
0.026349 0.973174 1.242384
0.026292 0.970764 1.239385
0.026202 0.967442 1.235415
0.026092 0.963494 1.230347
0.025962 0.958575 1.223980
0.025803 0.952474 1.216416
0.060981 1.066915 0.940910
0.085016 1.141981 0.748069
0.101469 1.189898 0.610162
0.115344 1.227825 0.489893
0.127758 1.259417 0.378427
0.130039 1.200863 0.252960
0.026446 0.976423 1.246688
0.026440 0.976278 1.246597
0.026425 0.975893 1.246037
0.026405 0.974955 1.244788
0.026367 0.973713 1.243143
0.026312 0.971505 1.240489
0.026241 0.968919 1.237201
0.026149 0.965498 1.232765
0.026032 0.961337 1.227570
0.025898 0.956384 1.221132
0.025744 0.950485 1.213626
0.068955 1.092400 0.877840
0.088591 1.152635 0.718355
0.103451 1.195445 0.593268
0.116183 1.230015 0.482417
0.127758 1.259418 0.378427
1.015721 0.963498 1.004171
1.015582 0.974562 0.963023
0.931846 0.933836 0.759354
0.841964 0.888884 0.554823
0.751474 0.837115 0.350020
0.656138 0.777508 0.137996
0.549503 0.705868 0.000000
0.414752 0.605924 0.000000
0.124068 0.425250 0.000000
0.125351 0.429643 0.000000
0.126316 0.433021 0.000000
0.127000 0.435366 0.000000
0.127455 0.436907 0.000000
0.127678 0.437709 0.000000
0.127732 0.437896 0.000000
0.127734 0.437904 0.000000
1.000133 0.988110 1.041754
0.976081 0.976082 0.976081
0.869823 0.927919 0.665661
0.794005 0.882524 0.482926
0.713380 0.832280 0.295850
0.623014 0.773764 0.093432
0.516782 0.702584 0.000000
0.371532 0.601852 0.000000
0.124164 0.425695 0.000000
0.125430 0.429949 0.000000
0.126367 0.433184 0.000000
0.127023 0.435484 0.000000
0.127462 0.436961 0.000000
0.127680 0.437717 0.000000
0.127740 0.437915 0.000000
0.127731 0.437927 0.000000
0.863268 0.989869 1.077451
0.818250 1.000873 1.052856
0.819357 1.054398 0.871529
0.758433 0.970483 0.606002
0.682258 0.901289 0.378972
0.593015 0.835371 0.157964
0.483883 0.766034 0.000000
0.316352 0.689561 0.000000
0.124611 0.460417 0.000000
0.125000 0.428417 0.000000
0.126017 0.432011 0.000000
0.126745 0.434505 0.000000
0.127220 0.436129 0.000000
0.127481 0.436992 0.000000
0.127587 0.437373 0.000000
0.127609 0.437484 0.000000
0.704605 0.987244 1.111384
0.667490 0.996268 1.089891
0.665696 1.039996 0.959451
0.651857 1.102490 0.751757
0.599447 1.014080 0.489468
0.516408 0.939384 0.245629
0.394168 0.873732 0.000000
0.131787 0.835324 0.000000
0.130155 0.703855 0.000000
0.124096 0.425343 0.000000
0.125292 0.429482 0.000000
0.126172 0.432560 0.000000
0.126743 0.434497 0.000000
0.127079 0.435679 0.000000
0.127253 0.436231 0.000000
0.127315 0.436474 0.000000
0.508993 0.974685 1.155333
0.468232 0.983992 1.130754
0.464265 1.032616 1.000809
0.441921 1.099448 0.806242
0.374453 1.177894 0.552474
0.278588 1.100769 0.260311
0.131841 1.040276 0.000000
0.132443 0.941189 0.000000
0.132009 0.835004 0.000000
0.130359 0.706020 0.000000
0.124118 0.425553 0.000000
0.125240 0.429330 0.000000
0.125987 0.431856 0.000000
0.126449 0.433491 0.000000
0.126716 0.434320 0.000000
0.126886 0.434963 0.000000
0.025440 0.939453 1.199412
0.025454 0.939966 1.200226
0.056483 1.042653 0.960411
0.082588 1.124743 0.751858
0.105019 1.189681 0.563259
0.126335 1.245311 0.374238
0.130207 1.144994 0.159603
0.132084 1.047863 0.000000
0.132698 0.950732 0.000000
0.132331 0.849025 0.000000
0.130964 0.733419 0.000000
0.127199 0.546523 0.000000
0.124880 0.428108 0.000000
0.125556 0.430434 0.000000
0.125957 0.431834 0.000000
0.126243 0.432742 0.000000
0.025690 0.948597 1.211104
0.025696 0.948924 1.211592
0.025618 0.945970 1.207906
0.045621 1.009165 1.048406
0.082477 1.126849 0.756577
0.105933 1.194639 0.559427
0.126684 1.248814 0.375237
0.130396 1.152119 0.168612
0.132247 1.058178 0.000000
0.132897 0.965529 0.000000
0.132670 0.871668 0.000000
0.131651 0.771996 0.000000
0.129643 0.653299 0.000000
0.124341 0.426227 0.000000
0.124931 0.428328 0.000000
0.125372 0.429783 0.000000
0.025898 0.955985 1.220752
0.025901 0.956370 1.221195
0.025844 0.954223 1.218313
0.025722 0.949612 1.212694
0.042949 1.002215 1.072121
0.083861 1.133047 0.748523
0.107073 1.199944 0.552924
0.126974 1.251691 0.376104
0.130519 1.159305 0.178933
0.132340 1.070123 0.009356
0.133039 0.983458 0.000000
0.132949 0.898218 0.000000
0.132259 0.813477 0.000000
0.131027 0.725691 0.000000
0.129088 0.625045 0.000000
0.124288 0.426055 0.000000
0.026059 0.962392 1.228729
0.026066 0.962389 1.228902
0.026021 0.960806 1.226748
0.025923 0.957241 1.222373
0.025771 0.951577 1.215187
0.048809 1.023358 1.029719
0.086061 1.141321 0.733022
0.108332 1.205067 0.544866
0.127214 1.253992 0.376805
0.130584 1.166504 0.189977
0.132355 1.082717 0.029778
0.133095 1.002355 0.000000
0.133142 0.925819 0.000000
0.132708 0.853032 0.000000
0.131922 0.783357 0.000000
0.130793 0.712004 0.000000
0.026193 0.967209 1.234875
0.026200 0.967174 1.235216
0.026161 0.965952 1.233444
0.026089 0.963217 1.229872
0.025967 0.958814 1.224190
0.025793 0.952428 1.216034
0.056398 1.049616 0.972942
0.088663 1.150371 0.713807
0.109603 1.209842 0.535919
0.127403 1.255852 0.377405
0.130581 1.173616 0.201374
0.132297 1.095163 0.050729
0.133084 1.021407 0.000000
0.133256 0.952470 0.000000
0.133001 0.889170 0.000000
0.132470 0.828891 0.000000
0.026293 0.970855 1.239677
0.026296 0.970936 1.239739
0.026269 0.969850 1.238359
0.026206 0.967733 1.235501
0.026109 0.964107 1.231013
0.025968 0.958918 1.224454
0.025789 0.952081 1.215738
0.063561 1.073810 0.918442
0.091410 1.159452 0.692659
0.110879 1.214380 0.526525
0.127549 1.257283 0.377777
0.130535 1.179971 0.212524
0.132186 1.107282 0.071945
0.133010 1.039521 0.000000
0.133268 0.977488 0.000000
0.133177 0.920078 0.000000
0.026364 0.973594 1.243090
0.026364 0.973667 1.243205
0.026343 0.972640 1.242152
0.026294 0.970895 1.239703
0.026211 0.967996 1.236024
0.026103 0.963845 1.230607
0.025956 0.958370 1.223608
0.025761 0.951169 1.214642
0.069926 1.094729 0.868972
0.094119 1.167999 0.671225
0.112070 1.218265 0.517277
0.127651 1.258316 0.378141
0.130440 1.186125 0.223781
0.132045 1.118605 0.092343
0.132874 1.056660 0.000000
0.133226 0.999461 0.000000
0.026413 0.975194 1.245103
0.026411 0.975344 1.245289
0.026393 0.974554 1.244273
0.026349 0.973145 1.242433
0.026290 0.970673 1.239304
0.026195 0.967272 1.234952
0.026074 0.962698 1.229156
0.025913 0.956914 1.221756
0.025722 0.949615 1.212696
0.075585 1.112875 0.824166
0.096739 1.176090 0.649912
0.113259 1.221912 0.507699
0.127717 1.258909 0.378303
0.130331 1.191409 0.233870
0.131869 1.129040 0.111900
0.132724 1.071547 0.006652
0.026431 0.976262 1.246228
0.026437 0.976110 1.246296
0.026421 0.975697 1.245590
0.026385 0.974267 1.244077
0.026333 0.972204 1.241455
0.026254 0.969483 1.237841
0.026155 0.965761 1.233063
0.026024 0.960855 1.226894
0.025865 0.955004 1.219380
0.047149 1.021519 1.048439
0.080512 1.128298 0.784635
0.099178 1.183285 0.629715
0.114286 1.224846 0.499023
0.127758 1.259356 0.378425
0.130174 1.196556 0.244169
0.131674 1.138466 0.129632
0.026444 0.976418 1.246598
0.026446 0.976415 1.246680
0.026426 0.975937 1.246076
0.026399 0.974739 1.244749
0.026352 0.973261 1.242542
0.026289 0.970749 1.239544
0.026206 0.967625 1.235487
0.026097 0.963618 1.230432
0.025963 0.958714 1.224113
0.025800 0.952661 1.216514
0.060672 1.065926 0.943468
0.084894 1.141595 0.749010
0.101413 1.189705 0.610687
0.115307 1.227683 0.490056
0.127758 1.259416 0.378426
0.130046 1.200849 0.252787
0.026444 0.976440 1.246617
0.026446 0.976435 1.246697
0.026428 0.976056 1.246027
0.026407 0.975107 1.245003
0.026366 0.973584 1.243156
0.026317 0.971755 1.240569
0.026245 0.969031 1.237315
0.026154 0.965628 1.232950
0.026037 0.961355 1.227606
0.025903 0.956477 1.221215
0.025740 0.950645 1.213658
0.068757 1.091770 0.879461
0.088519 1.152353 0.718991
0.103383 1.195278 0.593769
0.116148 1.229935 0.482644
0.127759 1.259423 0.378429
1.057161 0.852613 1.011866
1.057731 0.861804 0.978444
1.058081 0.894034 0.847551
0.937528 0.859221 0.620871
0.830260 0.812907 0.404115
0.727279 0.755810 0.186511
0.621061 0.684062 0.000000
0.501285 0.578894 0.000000
0.332088 0.372064 0.000000
0.125306 0.429527 0.000000
0.126277 0.432848 0.000000
0.126967 0.435305 0.000000
0.127409 0.436730 0.000000
0.127646 0.437605 0.000000
0.127724 0.437857 0.000000
0.127731 0.437893 0.000000
1.046510 0.872445 1.044557
1.063447 0.797126 1.004421
1.068377 0.871324 0.815240
0.915934 0.847334 0.571561
0.805810 0.805208 0.361172
0.703574 0.749812 0.149328
0.597400 0.678501 0.000000
0.474645 0.570436 0.000000
0.280600 0.385573 0.000000
0.125378 0.429813 0.000000
0.126330 0.433075 0.000000
0.127004 0.435379 0.000000
0.127444 0.436873 0.000000
0.127662 0.437636 0.000000
0.127731 0.437894 0.000000
0.127739 0.437915 0.000000
0.998592 0.948193 1.175328
0.998373 0.946330 1.180809
0.901822 0.901823 0.901822
0.770752 0.845716 0.507573
0.668130 0.794642 0.223642
0.572221 0.737323 0.000000
0.459756 0.663486 0.000000
0.278077 0.535406 0.000000
0.124620 0.427212 0.000000
0.125713 0.430898 0.000000
0.126552 0.433856 0.000000
0.127140 0.435853 0.000000
0.127515 0.437141 0.000000
0.127712 0.437767 0.000000
0.127729 0.437918 0.000000
0.127739 0.437952 0.000000
0.817999 0.953497 1.194826
0.799213 0.957353 1.186035
0.673812 0.972861 1.057877
0.669862 1.073390 0.759215
0.598366 0.977416 0.428671
0.506367 0.897105 0.159596
0.379146 0.824648 0.000000
0.131075 0.771188 0.000000
0.127983 0.594664 0.000000
0.124741 0.427634 0.000000
0.125789 0.431208 0.000000
0.126539 0.433849 0.000000
0.127024 0.435488 0.000000
0.127295 0.436358 0.000000
0.127408 0.436727 0.000000
0.127475 0.437014 0.000000
0.625836 0.940508 1.243076
0.602154 0.945378 1.230619
0.442187 0.981409 1.134987
0.428428 1.085770 0.849606
0.357845 1.182418 0.540501
0.270597 1.087744 0.224356
0.132058 1.016416 0.000000
0.132380 0.910671 0.000000
0.131612 0.796005 0.000000
0.129188 0.643277 0.000000
0.124587 0.427100 0.000000
0.125592 0.430522 0.000000
0.126245 0.432750 0.000000
0.126660 0.434233 0.000000
0.126884 0.434954 0.000000
0.127020 0.435407 0.000000
0.351226 0.854965 1.433042
0.311262 0.865721 1.404803
0.025475 0.940563 1.201096
0.073700 1.097670 0.824246
0.102156 1.181810 0.588061
0.126348 1.245360 0.374259
0.130429 1.136470 0.142750
0.132233 1.033530 0.000000
0.132689 0.931655 0.000000
0.132114 0.824858 0.000000
0.130369 0.698653 0.000000
0.124199 0.425766 0.000000
0.125145 0.428979 0.000000
0.125739 0.431037 0.000000
0.126110 0.432383 0.000000
0.126368 0.433204 0.000000
0.025662 0.947558 1.209933
0.025671 0.947856 1.210318
0.025707 0.949413 1.212209
0.025540 0.943037 1.204080
0.077301 1.111201 0.798882
0.104253 1.190141 0.573946
0.126693 1.248900 0.375242
0.130540 1.146757 0.158083
0.132351 1.049136 0.000000
0.132908 0.953376 0.000000
0.132557 0.856518 0.000000
0.131369 0.752115 0.000000
0.128946 0.620152 0.000000
0.124502 0.426846 0.000000
0.125084 0.428803 0.000000
0.125509 0.430235 0.000000
0.025875 0.955443 1.219859
0.025877 0.955479 1.220197
0.025906 0.956607 1.221533
0.025784 0.952001 1.215605
0.025576 0.944390 1.205891
0.080667 1.123411 0.774863
0.106013 1.197104 0.562025
0.126981 1.251662 0.376129
0.130611 1.155944 0.172014
0.132414 1.064046 0.000000
0.133052 0.975251 0.000000
0.132896 0.888095 0.000000
0.132121 0.801355 0.000000
0.130755 0.710288 0.000000
0.128548 0.600142 0.000000
0.124401 0.426534 0.000000
0.026049 0.961792 1.227998
0.026050 0.962024 1.228183
0.026075 0.962775 1.229220
0.025972 0.959084 1.224481
0.025815 0.953305 1.217181
0.025592 0.945021 1.206648
0.084001 1.135126 0.750015
0.107625 1.203091 0.550931
0.127219 1.254093 0.376822
0.130638 1.164175 0.185230
0.132396 1.078501 0.022158
0.133120 0.996759 0.000000
0.133124 0.919145 0.000000
0.132631 0.845163 0.000000
0.131783 0.774449 0.000000
0.130595 0.700478 0.000000
0.026183 0.966798 1.234364
0.026183 0.966747 1.234493
0.026201 0.967379 1.235361
0.026122 0.964618 1.231708
0.025999 0.960020 1.225772
0.025825 0.953780 1.217598
0.050444 1.030099 1.019194
0.087284 1.146326 0.725214
0.109129 1.208547 0.540124
0.127406 1.255784 0.377415
0.130620 1.171811 0.197980
0.132348 1.092109 0.045207
0.133105 1.017472 0.000000
0.133249 0.947968 0.000000
0.132963 0.883937 0.000000
0.132409 0.822760 0.000000
0.026286 0.970547 1.239258
0.026289 0.970709 1.239254
0.026297 0.971145 1.239922
0.026238 0.968833 1.236992
0.026139 0.965133 1.232394
0.025999 0.959769 1.225691
0.025812 0.953099 1.216834
0.060570 1.064188 0.941930
0.090456 1.156691 0.700396
0.110531 1.213406 0.529478
0.127551 1.257297 0.377783
0.130562 1.178651 0.210005
0.132227 1.105083 0.067907
0.133031 1.036650 0.000000
0.133273 0.974282 0.000000
0.133153 0.916205 0.000000
0.026354 0.973094 1.242698
0.026358 0.973266 1.242793
0.026364 0.973528 1.243108
0.026320 0.971838 1.240944
0.026240 0.968851 1.237144
0.026125 0.964657 1.231741
0.025969 0.958939 1.224535
0.025780 0.951825 1.215401
0.068172 1.089201 0.882906
0.093457 1.166148 0.676623
0.111815 1.217703 0.519471
0.127651 1.258326 0.378146
0.130459 1.185203 0.221849
0.132068 1.116949 0.089409
0.132899 1.054590 0.000000
0.133231 0.997171 0.000000
0.026406 0.974898 1.244814
0.026407 0.974946 1.244864
0.026415 0.975284 1.245239
0.026369 0.973642 1.243365
0.026302 0.971243 1.240203
0.026216 0.967831 1.235865
0.026092 0.963437 1.229990
0.025929 0.957426 1.222508
0.025735 0.950106 1.213265
0.074482 1.109412 0.833161
0.096258 1.174770 0.653752
0.113079 1.221416 0.509321
0.127717 1.258912 0.378305
0.130345 1.190740 0.232567
0.131881 1.127897 0.109654
0.132740 1.069874 0.003702
0.026426 0.975941 1.246079
0.026426 0.975970 1.246104
0.026437 0.976132 1.246315
0.026403 0.974853 1.244865
0.026349 0.972885 1.242175
0.026273 0.970064 1.238463
0.026170 0.966318 1.233622
0.026034 0.961430 1.227512
0.025876 0.955508 1.219915
0.043157 1.008163 1.079115
0.079768 1.125965 0.790850
0.098827 1.182393 0.632530
0.114146 1.224549 0.500234
0.127758 1.259357 0.378426
0.130197 1.196180 0.243165
0.131701 1.137508 0.127730
0.026437 0.976205 1.246436
0.026437 0.976210 1.246441
0.026446 0.976417 1.246681
0.026413 0.975320 1.245297
0.026365 0.973565 1.243140
0.026303 0.971143 1.240162
0.026216 0.968136 1.236112
0.026110 0.963901 1.230946
0.025972 0.959006 1.224594
0.025812 0.953121 1.216939
0.059245 1.061375 0.954620
0.084377 1.140016 0.753213
0.101159 1.189066 0.612876
0.115207 1.227491 0.490984
0.127758 1.259416 0.378426
0.130056 1.200314 0.251929
0.026437 0.976200 1.246374
0.026439 0.976181 1.246512
0.026441 0.976479 1.246737
0.026421 0.975706 1.245598
0.026381 0.974121 1.243702
0.026325 0.972164 1.241241
0.026251 0.969347 1.237716
0.026162 0.965980 1.233399
0.026045 0.961915 1.228120
0.025907 0.956715 1.221716
0.025750 0.950771 1.214056
0.067899 1.089094 0.886360
0.088125 1.151340 0.722298
0.103198 1.194757 0.595522
0.116077 1.229681 0.483438
0.127760 1.259434 0.378433
1.089881 0.742816 1.013005
1.090666 0.749250 0.989186
1.092752 0.773052 0.894408
1.093480 0.808655 0.727478
0.960366 0.771268 0.492450
0.843512 0.718724 0.264552
0.732873 0.647929 0.027846
0.620902 0.538016 0.000000
0.496171 0.329864 0.000000
0.337060 0.375236 0.000000
0.126214 0.432617 0.000000
0.126917 0.435082 0.000000
0.127366 0.436615 0.000000
0.127619 0.437528 0.000000
0.127682 0.437761 0.000000
0.127709 0.437756 0.000000
1.083459 0.756781 1.037387
1.107818 0.668820 1.010571
1.104824 0.729759 0.887250
1.099526 0.791507 0.703823
0.951249 0.760257 0.462659
0.830365 0.710397 0.235724
0.718526 0.640149 0.000000
0.605218 0.526055 0.000000
0.478014 0.334860 0.000000
0.303370 0.384069 0.000000
0.126257 0.432829 0.000000
0.126952 0.435199 0.000000
0.127384 0.436686 0.000000
0.127621 0.437535 0.000000
0.127700 0.437735 0.000000
0.127705 0.437784 0.000000
1.055237 0.811097 1.136587
1.062893 0.788876 1.131251
1.024269 0.692069 0.950586
1.045679 0.767905 0.688795
0.886612 0.732858 0.376218
0.761089 0.683173 0.123355
0.645458 0.608606 0.000000
0.523884 0.454035 0.000000
0.375162 0.362773 0.000000
0.125611 0.430662 0.000000
0.126480 0.433615 0.000000
0.127084 0.435661 0.000000
0.127471 0.437000 0.000000
0.127659 0.437626 0.000000
0.127703 0.437779 0.000000
0.127720 0.437846 0.000000
0.992607 0.898419 1.324192
0.992632 0.896999 1.328075
0.971583 0.885282 1.275368
0.827841 0.827841 0.827841
0.677710 0.766979 0.363951
0.551315 0.697649 0.037130
0.415246 0.613765 0.000000
0.119274 0.408927 0.000000
0.122235 0.418995 0.000000
0.124369 0.426452 0.000000
0.126008 0.431970 0.000000
0.127293 0.436365 0.000000
0.127600 0.437450 0.000000
0.127731 0.437894 0.000000
0.127729 0.437918 0.000000
0.127738 0.437948 0.000000
0.792025 0.888872 1.370171
0.782002 0.890064 1.367615
0.726402 0.898308 1.347916
0.513044 0.929158 1.047649
0.496624 1.074680 0.624683
0.416484 0.960630 0.263012
0.127524 0.924331 0.000000
0.128454 0.810702 0.000000
0.127483 0.667876 0.000000
0.122970 0.421524 0.000000
0.124802 0.427783 0.000000
0.126256 0.432826 0.000000
0.126796 0.434649 0.000000
0.127072 0.435610 0.000000
0.127201 0.436028 0.000000
0.127293 0.436351 0.000000
0.559907 0.799085 1.580279
0.545191 0.803153 1.570316
0.464739 0.825584 1.514416
0.024581 0.907696 1.158908
0.091978 1.125253 0.629346
0.122843 1.210967 0.363823
0.127680 1.090087 0.103055
0.129893 0.981616 0.000000
0.130585 0.874249 0.000000
0.130018 0.756257 0.000000
0.127344 0.582931 0.000000
0.124784 0.427729 0.000000
0.125643 0.430682 0.000000
0.126134 0.432385 0.000000
0.126428 0.433413 0.000000
0.126643 0.434133 0.000000
0.287786 0.878811 1.396574
0.251520 0.888220 1.370841
0.025650 0.947249 1.209344
0.025165 0.929112 1.186447
0.061146 1.042831 0.899461
0.098545 1.156852 0.594669
0.124354 1.225763 0.368382
0.128721 1.117126 0.133621
0.130779 1.015491 0.000000
0.131564 0.916807 0.000000
0.131432 0.815955 0.000000
0.130373 0.701627 0.000000
0.125205 0.466122 0.000000
0.124887 0.428134 0.000000
0.125398 0.429878 0.000000
0.125774 0.431106 0.000000
0.025833 0.953944 1.217837
0.025841 0.954073 1.218257
0.025865 0.955045 1.219647
0.025510 0.941894 1.202628
0.025291 0.933822 1.192408
0.071843 1.082977 0.824589
0.102206 1.172788 0.572670
0.125058 1.232741 0.370404
