assets/luts/VM Thermal Vice.cube
LUT_3D_SIZE 16
1.000000 1.000000 1.000091
1.016296 0.971793 0.965869
1.060415 0.883365 0.860221
1.096653 0.791666 0.751727
1.126093 0.695330 0.638744
1.149803 0.591172 0.517889
1.167963 0.472653 0.381307
1.180355 0.316963 0.203687
1.183065 0.028523 0.000000
1.195303 0.028819 0.000000
1.204420 0.029040 0.000000
1.210960 0.029199 0.000000
1.215155 0.029299 0.000000
1.217410 0.029354 0.000000
1.217801 0.029367 0.000000
1.217814 0.029365 0.000000
0.955881 1.007044 0.961989
0.997143 1.003172 0.951774
1.046833 0.909833 0.847826
1.088140 0.811298 0.742482
1.120278 0.711418 0.631074
1.145532 0.605868 0.510773
1.164351 0.487830 0.373828
1.176736 0.338011 0.192700
1.181804 0.028495 0.000000
1.194325 0.028795 0.000000
1.203652 0.029025 0.000000
1.210386 0.029184 0.000000
1.214697 0.029287 0.000000
1.216885 0.029339 0.000000
1.217726 0.029360 0.000000
1.217701 0.029359 0.000000
0.811416 1.027007 0.836509
0.848816 1.024478 0.827178
0.987100 1.012922 0.789664
1.051625 0.888760 0.699804
1.095420 0.775275 0.595771
1.126803 0.663867 0.478028
1.148934 0.546767 0.338162
1.160486 0.412373 0.132618
1.168783 0.189032 0.000000
1.190182 0.028698 0.000000
1.200363 0.028949 0.000000
1.207717 0.029119 0.000000
1.212437 0.029236 0.000000
1.215175 0.029297 0.000000
1.215994 0.029323 0.000000
1.216433 0.029328 0.000000
0.646017 1.044662 0.692237
0.677559 1.043350 0.684510
0.793383 1.037209 0.653158
0.973156 1.023144 0.592766
1.043030 0.887004 0.508869
1.087754 0.764264 0.395658
1.115934 0.645683 0.239759
1.121086 0.526004 0.000000
1.149333 0.373163 0.000000
1.181748 0.028493 0.000000
1.193647 0.028774 0.000000
1.202169 0.028989 0.000000
1.207936 0.029125 0.000000
1.211218 0.029202 0.000000
1.212950 0.029245 0.000000
1.213737 0.029267 0.000000
0.431194 1.060406 0.504190
0.466145 1.059926 0.495623
0.585510 1.057155 0.461182
0.756448 1.049871 0.393702
0.947524 1.036490 0.269763
1.013260 0.898925 0.133255
1.051404 0.774894 0.000000
1.092267 0.649683 0.000000
1.124599 0.519728 0.000000
1.151611 0.368588 0.000000
1.182661 0.028517 0.000000
1.193309 0.028775 0.000000
1.200674 0.028949 0.000000
1.205300 0.029066 0.000000
1.207853 0.029122 0.000000
1.209335 0.029156 0.000000
0.000000 1.075857 0.078906
0.000000 1.074831 0.078831
0.288592 1.078595 0.043139
0.512089 1.074909 0.019288
0.720123 1.065107 0.000000
0.923889 1.048557 0.000000
0.998971 0.909264 0.000000
1.052342 0.781163 0.000000
1.092497 0.657708 0.000000
1.123913 0.532833 0.000000
1.149316 0.395474 0.000000
1.172729 0.191573 0.000000
1.190225 0.028699 0.000000
1.196555 0.028853 0.000000
1.200674 0.028949 0.000000
1.203371 0.029015 0.000000
0.000000 1.086217 0.079663
0.000000 1.085417 0.079604
0.000000 1.082150 0.079367
0.189320 1.081253 0.053803
0.504827 1.078103 0.020273
0.726123 1.067810 0.000000
0.926474 1.051439 0.000000
0.998976 0.916384 0.000000
1.051008 0.792140 0.000000
1.089974 0.673913 0.000000
1.120014 0.557856 0.000000
1.143634 0.437991 0.000000
1.163054 0.299788 0.000000
1.185030 0.028573 0.000000
1.190919 0.028717 0.000000
1.195178 0.028816 0.000000
0.000000 1.094819 0.080296
0.000000 1.094233 0.080251
0.000000 1.091744 0.080079
0.000000 1.086689 0.079698
0.155634 1.083466 0.057508
0.514095 1.080348 0.019452
0.735384 1.069780 0.000000
0.928626 1.053836 0.000000
0.997991 0.924672 0.000000
1.048029 0.805929 0.000000
1.085537 0.694851 0.000000
1.114146 0.588632 0.000000
1.136118 0.485484 0.000000
1.153250 0.381166 0.000000
1.167203 0.264767 0.000000
1.184722 0.028564 0.000000
0.000000 1.101855 0.080810
0.000000 1.101417 0.080781
0.000000 1.099455 0.080630
0.000000 1.095544 0.080343
0.000000 1.089163 0.079883
0.191142 1.085924 0.053928
0.532575 1.081857 0.017601
0.746269 1.071183 0.000000
0.930311 1.055831 0.000000
0.996101 0.933074 0.000000
1.044080 0.821143 0.000000
1.079868 0.717623 0.000000
1.106862 0.621720 0.000000
1.127332 0.532210 0.000000
1.142953 0.448416 0.000000
1.155663 0.363894 0.000000
0.000000 1.107389 0.081220
0.000000 1.107009 0.081194
0.000000 1.105457 0.081080
0.000000 1.102386 0.080847
0.000000 1.097322 0.080477
0.000000 1.090060 0.079953
0.252888 1.087779 0.047533
0.555751 1.082681 0.015205
0.757971 1.072053 0.000000
0.931639 1.057446 0.000000
0.993856 0.941650 0.000000
1.039362 0.836551 0.000000
1.073209 0.741136 0.000000
1.098852 0.654320 0.000000
1.118155 0.575871 0.000000
1.133268 0.502544 0.000000
0.000000 1.111565 0.081529
0.000000 1.111286 0.081506
0.000000 1.110124 0.081423
0.000000 1.107497 0.081234
0.000000 1.103494 0.080932
0.000000 1.097650 0.080509
0.000000 1.089874 0.079933
0.316426 1.088897 0.040903
0.581242 1.082942 0.012534
0.769766 1.072507 0.000000
0.932720 1.058603 0.000000
0.991149 0.949773 0.000000
1.034133 0.852133 0.000000
1.066212 0.763878 0.000000
1.090484 0.685258 0.000000
1.109297 0.613620 0.000000
0.000000 1.114635 0.081746
0.000000 1.114392 0.081724
0.000000 1.113375 0.081658
0.000000 1.111309 0.081500
0.000000 1.108032 0.081260
0.000000 1.103240 0.080915
0.000000 1.096906 0.080447
0.000000 1.088880 0.079855
0.374963 1.089204 0.034749
0.606646 1.082766 0.009840
0.780971 1.072633 0.000000
0.933606 1.059508 0.000000
0.988245 0.957938 0.000000
1.028662 0.866685 0.000000
1.059007 0.785742 0.000000
1.082389 0.712661 0.000000
0.000000 1.116562 0.081892
0.000000 1.116314 0.081874
0.000000 1.115477 0.081805
0.000000 1.113758 0.081684
0.000000 1.111060 0.081477
0.000000 1.107171 0.081201
0.000000 1.101951 0.080820
0.000000 1.095349 0.080332
0.000000 1.087187 0.079733
0.428109 1.088917 0.029113
0.631510 1.082131 0.007175
0.792263 1.072411 0.000000
0.934090 1.060045 0.000000
0.985230 0.964728 0.000000
1.023156 0.880547 0.000000
1.052261 0.804801 0.000000
0.000000 1.117573 0.081964
0.000000 1.117360 0.081948
0.000000 1.116681 0.081898
0.000000 1.115283 0.081786
0.000000 1.113046 0.081627
0.000000 1.109760 0.081390
0.000000 1.105451 0.081075
0.000000 1.099913 0.080672
0.000000 1.093143 0.080174
0.159986 1.090253 0.057513
0.474834 1.088135 0.024135
0.654915 1.081271 0.004648
0.802245 1.071969 0.000000
0.934247 1.060354 0.000000
0.981903 0.971972 0.000000
1.017947 0.892975 0.000000
0.000000 1.117877 0.081978
0.000000 1.117698 0.081965
0.000000 1.117098 0.081927
0.000000 1.115920 0.081842
0.000000 1.114076 0.081703
0.000000 1.111302 0.081499
0.000000 1.107674 0.081241
0.000000 1.103076 0.080901
0.000000 1.097472 0.080496
0.000000 1.090658 0.079993
0.285008 1.090828 0.044350
0.516668 1.087072 0.019637
0.676521 1.080216 0.002292
0.812115 1.071253 0.000000
0.934372 1.060441 0.000000
0.978940 0.977491 0.000000
0.000000 1.117880 0.081978
0.000000 1.117725 0.081967
0.000000 1.117177 0.081937
0.000000 1.116234 0.081865
0.000000 1.114610 0.081744
0.000000 1.112310 0.081580
0.000000 1.109269 0.081362
0.000000 1.105356 0.081070
0.000000 1.100603 0.080717
0.000000 1.094879 0.080300
0.000000 1.088143 0.079811
0.361679 1.090297 0.036223
0.551453 1.085927 0.015885
0.695811 1.079148 0.000184
0.820273 1.070621 0.000000
0.934373 1.060442 0.000000
0.978503 0.972664 1.022826
1.019032 0.968645 1.013189
1.062945 0.880729 0.899874
1.098595 0.789669 0.781200
1.127908 0.693564 0.662889
1.151466 0.589700 0.539815
1.169843 0.471037 0.404007
1.183089 0.314859 0.234560
1.182935 0.028519 0.000000
1.195190 0.028816 0.000000
1.204347 0.029036 0.000000
1.210971 0.029195 0.000000
1.215196 0.029298 0.000000
1.217280 0.029351 0.000000
1.217731 0.029365 0.000000
1.217754 0.029365 0.000000
0.958442 1.003892 1.009840
0.976082 0.976082 0.976081
1.074009 0.851427 0.822286
1.105219 0.765986 0.721417
1.131088 0.675821 0.616038
1.152741 0.575235 0.499552
1.169711 0.457915 0.364475
1.181118 0.298500 0.182669
1.184011 0.028548 0.000000
1.195948 0.028838 0.000000
1.204966 0.029055 0.000000
1.211182 0.029207 0.000000
1.215265 0.029302 0.000000
1.217352 0.029352 0.000000
1.217805 0.029367 0.000000
1.217837 0.029366 0.000000
0.813947 1.024487 0.880028
0.802671 1.028070 0.828871
0.986828 1.013059 0.787450
1.059130 0.872187 0.693052
1.102467 0.755438 0.588069
1.132307 0.643450 0.470546
1.153336 0.525650 0.331263
1.163890 0.387097 0.123656
1.176586 0.070468 0.000000
1.191753 0.028732 0.000000
1.201563 0.028974 0.000000
1.208444 0.029139 0.000000
1.213026 0.029253 0.000000
1.215566 0.029310 0.000000
1.216482 0.029332 0.000000
1.216791 0.029339 0.000000
0.647983 1.042813 0.728971
0.639692 1.045232 0.686675
0.774239 1.038619 0.653371
0.973155 1.023231 0.590578
1.046373 0.879426 0.506046
1.091352 0.753680 0.392075
1.119120 0.633381 0.235339
1.124075 0.511665 0.000000
1.152001 0.353282 0.000000
1.183108 0.028524 0.000000
1.194613 0.028805 0.000000
1.203098 0.029009 0.000000
1.208423 0.029138 0.000000
1.211781 0.029216 0.000000
1.213294 0.029253 0.000000
1.213882 0.029268 0.000000
0.433358 1.058637 0.545030
0.424628 1.060764 0.498412
0.561357 1.058138 0.462090
0.746510 1.050614 0.392541
0.947230 1.036657 0.265096
1.014936 0.895005 0.129981
1.053699 0.768794 0.000000
1.094455 0.641935 0.000000
1.126572 0.510235 0.000000
1.153420 0.355105 0.000000
1.183720 0.028539 0.000000
1.194098 0.028792 0.000000
1.201218 0.028961 0.000000
1.205640 0.029070 0.000000
1.208119 0.029128 0.000000
1.209704 0.029169 0.000000
0.000000 1.075472 0.078876
0.000000 1.076057 0.078917
0.245129 1.078673 0.047730
0.496552 1.075409 0.020965
0.714661 1.065521 0.000000
0.923932 1.048579 0.000000
1.000074 0.906747 0.000000
1.053727 0.777408 0.000000
1.093876 0.652692 0.000000
1.125158 0.526635 0.000000
1.150409 0.387109 0.000000
1.174678 0.167929 0.000000
1.190780 0.028709 0.000000
1.197127 0.028862 0.000000
1.200993 0.028960 0.000000
1.203696 0.029020 0.000000
0.000000 1.085923 0.079647
0.000000 1.086335 0.079674
0.000000 1.083008 0.079432
0.140292 1.080854 0.058960
0.494704 1.078379 0.021362
0.722626 1.068041 0.000000
0.926431 1.051454 0.000000
0.999589 0.915017 0.000000
1.051963 0.789636 0.000000
1.090930 0.670578 0.000000
1.120910 0.553706 0.000000
1.144544 0.432808 0.000000
1.163996 0.291974 0.000000
1.185396 0.028579 0.000000
1.191363 0.028724 0.000000
1.195346 0.028823 0.000000
0.000000 1.094621 0.080279
0.000000 1.094918 0.080303
0.000000 1.092413 0.080122
0.000000 1.087301 0.079745
0.114061 1.083025 0.061864
0.507472 1.080584 0.020163
0.733136 1.069952 0.000000
0.928645 1.053847 0.000000
0.998613 0.923518 0.000000
1.048794 0.804165 0.000000
1.086240 0.692431 0.000000
1.114743 0.585844 0.000000
1.136658 0.482241 0.000000
1.153786 0.377173 0.000000
1.167857 0.258788 0.000000
1.185016 0.028574 0.000000
0.000000 1.101688 0.080804
0.000000 1.101878 0.080816
0.000000 1.099925 0.080673
0.000000 1.095957 0.080381
0.000000 1.089537 0.079910
0.169566 1.085702 0.056188
0.528208 1.081969 0.018073
0.744697 1.071265 0.000000
0.930322 1.055837 0.000000
0.996793 0.932438 0.000000
1.044571 0.819877 0.000000
1.080308 0.716015 0.000000
1.107260 0.619851 0.000000
1.127816 0.530099 0.000000
1.143358 0.446030 0.000000
1.156024 0.360860 0.000000
0.000000 1.107276 0.081209
0.000000 1.107390 0.081220
0.000000 1.105911 0.081116
0.000000 1.102752 0.080872
0.000000 1.097648 0.080509
0.000000 1.090403 0.079970
0.241881 1.087743 0.048696
0.552800 1.082793 0.015526
0.756820 1.072118 0.000000
0.931648 1.057450 0.000000
0.994047 0.941199 0.000000
1.039742 0.835769 0.000000
1.073625 0.739990 0.000000
1.099265 0.652983 0.000000
1.118413 0.574398 0.000000
1.133613 0.500862 0.000000
0.000000 1.111523 0.081524
0.000000 1.111590 0.081531
0.000000 1.110359 0.081436
0.000000 1.107843 0.081246
0.000000 1.103781 0.080953
0.000000 1.097876 0.080520
0.000000 1.090145 0.079958
0.310268 1.088912 0.041556
0.579153 1.083001 0.012762
0.769025 1.072586 0.000000
0.932726 1.058607 0.000000
0.991389 0.949441 0.000000
1.034375 0.851417 0.000000
1.066552 0.762982 0.000000
1.090696 0.684345 0.000000
1.109516 0.612481 0.000000
0.000000 1.114546 0.081739
0.000000 1.114648 0.081748
0.000000 1.113623 0.081673
0.000000 1.111539 0.081526
0.000000 1.108218 0.081278
0.000000 1.103508 0.080929
0.000000 1.097132 0.080465
0.000000 1.089026 0.079873
0.371251 1.089280 0.035140
0.605160 1.082834 0.010004
0.780321 1.072693 0.000000
0.933607 1.059508 0.000000
0.988176 0.957510 0.000000
1.028881 0.866269 0.000000
1.059196 0.785126 0.000000
1.082712 0.711913 0.000000
0.000000 1.116538 0.081886
0.000000 1.116568 0.081892
0.000000 1.115723 0.081827
0.000000 1.114055 0.081702
0.000000 1.111253 0.081496
0.000000 1.107349 0.081214
0.000000 1.102088 0.080832
0.000000 1.095533 0.080342
0.000000 1.087302 0.079745
0.425733 1.088971 0.029374
0.630489 1.082208 0.007289
0.791907 1.072415 0.000000
0.934091 1.060045 0.000000
0.985373 0.964583 0.000000
1.023307 0.880179 0.000000
1.052450 0.804368 0.000000
0.000000 1.117479 0.081959
0.000000 1.117575 0.081964
0.000000 1.116822 0.081910
0.000000 1.115482 0.081805
0.000000 1.113151 0.081636
0.000000 1.109834 0.081403
0.000000 1.105575 0.081085
0.000000 1.100016 0.080680
0.000000 1.093313 0.080187
0.152464 1.090114 0.058294
0.473164 1.088182 0.024307
0.654035 1.081331 0.004740
0.801790 1.071993 0.000000
0.934247 1.060354 0.000000
0.982079 0.971635 0.000000
1.018040 0.892524 0.000000
0.000000 1.117825 0.081974
0.000000 1.117876 0.081978
0.000000 1.117151 0.081936
0.000000 1.116068 0.081845
0.000000 1.114125 0.081712
0.000000 1.111408 0.081513
0.000000 1.107760 0.081243
0.000000 1.103203 0.080912
0.000000 1.097569 0.080499
0.000000 1.090757 0.080001
0.281955 1.090839 0.044675
0.515481 1.087110 0.019764
0.675925 1.080271 0.002355
0.811910 1.071265 0.000000
0.934371 1.060441 0.000000
0.978997 0.977623 0.000000
0.000000 1.117837 0.081975
0.000000 1.117887 0.081979
0.000000 1.117271 0.081941
0.000000 1.116305 0.081873
0.000000 1.114766 0.081752
0.000000 1.112391 0.081589
0.000000 1.109389 0.081363
0.000000 1.105452 0.081078
0.000000 1.100667 0.080735
0.000000 1.094923 0.080306
0.000000 1.088228 0.079817
0.359790 1.090323 0.036423
0.550601 1.085931 0.015975
0.695331 1.079177 0.000240
0.820203 1.070638 0.000000
0.934376 1.060444 0.000000
0.911335 0.888674 1.084993
0.944985 0.885250 1.077841
1.071963 0.869696 1.048494
1.106204 0.781596 0.893379
1.134668 0.686951 0.755450
1.157951 0.583631 0.623258
1.176714 0.464828 0.487841
1.191737 0.306563 0.335684
1.204336 0.021373 0.120752
1.194739 0.028808 0.000000
1.204019 0.029031 0.000000
1.210649 0.029190 0.000000
1.214827 0.029292 0.000000
1.217116 0.029345 0.000000
1.217764 0.029362 0.000000
1.217722 0.029365 0.000000
0.895036 0.914356 1.076879
0.873559 0.843873 1.099640
1.085047 0.841944 1.056873
1.114053 0.758820 0.865021
1.138767 0.669427 0.724650
1.159982 0.569224 0.593982
1.177441 0.451557 0.458905
1.191419 0.289410 0.303228
1.200068 0.023168 0.060203
1.195498 0.028822 0.000000
1.204413 0.029041 0.000000
1.210940 0.029196 0.000000
1.215167 0.029297 0.000000
1.217165 0.029348 0.000000
1.217726 0.029365 0.000000
1.217804 0.029365 0.000000
0.821741 1.014429 1.039720
0.815822 1.014793 1.040904
0.901823 0.901823 0.901823
1.033963 0.747062 0.709318
1.112729 0.628048 0.564427
1.152668 0.519842 0.436738
1.175675 0.395188 0.292776
1.182522 0.196434 0.067060
1.188175 0.028645 0.000000
1.198604 0.028900 0.000000
1.206617 0.029093 0.000000
1.212234 0.029234 0.000000
1.215757 0.029314 0.000000
1.217705 0.029357 0.000000
1.217813 0.029365 0.000000
1.217961 0.029368 0.000000
0.654333 1.035530 0.863088
0.648012 1.037024 0.842065
0.648625 1.017332 0.691394
0.957472 1.002406 0.614872
1.058861 0.833256 0.500368
1.109931 0.696068 0.373836
1.134470 0.568084 0.211631
1.138594 0.434165 0.000000
1.166391 0.225091 0.000000
1.189467 0.028676 0.000000
1.199398 0.028918 0.000000
1.206566 0.029091 0.000000
1.211196 0.029205 0.000000
1.213712 0.029269 0.000000
1.214817 0.029291 0.000000
1.215388 0.029307 0.000000
0.439359 1.052375 0.683248
0.432294 1.053723 0.656541
0.396563 1.061831 0.473686
0.690278 1.054371 0.389417
0.945461 1.037343 0.245620
1.023419 0.874463 0.117774
1.064251 0.737933 0.000000
1.104397 0.603798 0.000000
1.135767 0.463204 0.000000
1.162531 0.281237 0.000000
1.187866 0.028638 0.000000
1.197395 0.028870 0.000000
1.203717 0.029019 0.000000
1.207660 0.029117 0.000000
1.209679 0.029168 0.000000
1.210969 0.029199 0.000000
0.000000 1.062790 0.460183
0.000000 1.064686 0.413486
0.000000 1.076926 0.078979
0.410768 1.077583 0.030171
0.686564 1.067348 0.000000
0.923973 1.048655 0.000000
1.005416 0.895136 0.000000
1.060274 0.758704 0.000000
1.100350 0.629090 0.000000
1.131007 0.497349 0.000000
1.156114 0.345937 0.000000
1.184278 0.028552 0.000000
1.193206 0.028767 0.000000
1.198972 0.028909 0.000000
1.202462 0.028990 0.000000
1.205006 0.029056 0.000000
0.000000 1.084823 0.079564
0.000000 1.085181 0.079590
0.000000 1.086946 0.079711
0.000000 1.079620 0.079182
0.444629 1.079836 0.026747
0.706302 1.069165 0.000000
0.926525 1.051509 0.000000
1.003024 0.907770 0.000000
1.056230 0.777827 0.000000
1.095289 0.655281 0.000000
1.124971 0.535048 0.000000
1.148295 0.409040 0.000000
1.167937 0.253218 0.000000
1.187218 0.028622 0.000000
1.192638 0.028756 0.000000
1.196650 0.028856 0.000000
0.000000 1.093746 0.080219
0.000000 1.094029 0.080242
0.000000 1.095278 0.080327
0.000000 1.089888 0.079934
0.000000 1.081207 0.079300
0.476537 1.081497 0.023499
0.722947 1.070649 0.000000
0.928707 1.053880 0.000000
1.000690 0.918926 0.000000
1.051721 0.796243 0.000000
1.089170 0.682182 0.000000
1.117643 0.573577 0.000000
1.139334 0.467806 0.000000
1.156223 0.358923 0.000000
1.170524 0.229766 0.000000
1.186212 0.028601 0.000000
0.000000 1.101034 0.080750
0.000000 1.101293 0.080765
0.000000 1.102152 0.080835
0.000000 1.098027 0.080532
0.000000 1.091375 0.080045
0.000000 1.081940 0.079347
0.508208 1.082654 0.020228
0.737891 1.071747 0.000000
0.930294 1.055860 0.000000
0.998070 0.929276 0.000000
1.046623 0.814405 0.000000
1.082499 0.708956 0.000000
1.109383 0.611542 0.000000
1.129637 0.520710 0.000000
1.145064 0.435318 0.000000
1.157828 0.347325 0.000000
0.000000 1.106723 0.081174
0.000000 1.106914 0.081179
0.000000 1.107640 0.081238
0.000000 1.104392 0.080994
0.000000 1.099209 0.080616
0.000000 1.091689 0.080075
0.184807 1.087444 0.054702
0.539571 1.083282 0.016956
0.752101 1.072476 0.000000
0.931674 1.057464 0.000000
0.995098 0.938872 0.000000
1.041234 0.831710 0.000000
1.075179 0.734899 0.000000
1.100694 0.647214 0.000000
1.119819 0.567992 0.000000
1.135053 0.493482 0.000000
0.000000 1.111183 0.081490
0.000000 1.111269 0.081493
0.000000 1.111702 0.081541
0.000000 1.109149 0.081354
0.000000 1.105011 0.081048
0.000000 1.099003 0.080600
0.000000 1.091083 0.080017
0.281505 1.089065 0.044603
0.570087 1.083354 0.013747
0.765676 1.072808 0.000000
0.932742 1.058614 0.000000
0.992147 0.947833 0.000000
1.035508 0.848520 0.000000
1.067777 0.759235 0.000000
1.091894 0.680110 0.000000
1.110680 0.607723 0.000000
0.000000 1.114185 0.081717
0.000000 1.114334 0.081724
0.000000 1.114736 0.081753
0.000000 1.112635 0.081602
0.000000 1.109233 0.081360
0.000000 1.104464 0.080995
0.000000 1.097926 0.080527
0.000000 1.089841 0.079927
0.354379 1.089446 0.036931
0.598832 1.083073 0.010689
0.777984 1.072855 0.000000
0.933618 1.059514 0.000000
0.988917 0.956151 0.000000
1.029703 0.864093 0.000000
1.060158 0.782371 0.000000
1.083656 0.708722 0.000000
0.000000 1.116250 0.081854
0.000000 1.116220 0.081865
0.000000 1.116537 0.081890
0.000000 1.114811 0.081759
0.000000 1.112073 0.081552
0.000000 1.108120 0.081274
0.000000 1.102853 0.080882
0.000000 1.096117 0.080385
0.000000 1.087909 0.079780
0.415050 1.089180 0.030518
0.625943 1.082389 0.007785
0.790020 1.072551 0.000000
0.934095 1.060047 0.000000
0.985742 0.963773 0.000000
1.023941 0.878500 0.000000
1.053192 0.802270 0.000000
0.000000 1.117153 0.081937
0.000000 1.117168 0.081938
0.000000 1.117587 0.081965
0.000000 1.116117 0.081851
0.000000 1.113782 0.081685
0.000000 1.110498 0.081449
0.000000 1.106225 0.081131
0.000000 1.100652 0.080722
0.000000 1.093781 0.080221
0.114260 1.089614 0.062297
0.465989 1.088410 0.025082
0.650807 1.081487 0.005096
0.800484 1.072057 0.000000
0.934249 1.060355 0.000000
0.982287 0.971034 0.000000
1.018606 0.891273 0.000000
0.000000 1.117626 0.081968
0.000000 1.117629 0.081970
0.000000 1.117877 0.081978
0.000000 1.116630 0.081895
0.000000 1.114755 0.081751
0.000000 1.111979 0.081543
0.000000 1.108369 0.081289
0.000000 1.103657 0.080942
0.000000 1.097985 0.080529
0.000000 1.091188 0.080030
0.268360 1.090834 0.046107
0.510487 1.087265 0.020302
0.673430 1.080417 0.002630
0.810848 1.071373 0.000000
0.934371 1.060441 0.000000
0.979387 0.977035 0.000000
0.000000 1.117623 0.081968
0.000000 1.117673 0.081966
0.000000 1.117860 0.081980
0.000000 1.116827 0.081910
0.000000 1.115239 0.081783
0.000000 1.112898 0.081621
0.000000 1.109803 0.081393
0.000000 1.105951 0.081117
0.000000 1.101109 0.080756
0.000000 1.095359 0.080333
0.000000 1.088553 0.079836
0.351539 1.090412 0.037300
0.546789 1.086105 0.016391
0.693347 1.079304 0.000459
0.819297 1.070730 0.000000
0.934389 1.060450 0.000000
0.842584 0.803906 1.137103
0.866726 0.801357 1.132371
0.960558 0.790386 1.113050
1.117579 0.766085 1.076803
1.145228 0.674338 0.908079
1.168078 0.572253 0.759631
1.187144 0.453215 0.618875
1.203692 0.291171 0.475534
1.220610 0.015714 0.312979
1.216260 0.021519 0.123947
1.203363 0.029015 0.000000
1.210012 0.029171 0.000000
1.214445 0.029280 0.000000
1.216809 0.029339 0.000000
1.217429 0.029357 0.000000
1.217676 0.029355 0.000000
0.831035 0.822253 1.132772
0.794826 0.746103 1.167531
0.938372 0.754628 1.131247
1.125542 0.745659 1.081463
1.150000 0.657552 0.895544
1.170807 0.557916 0.742770
1.188559 0.439737 0.600856
1.204400 0.272953 0.455985
1.219695 0.016361 0.291632
1.213409 0.022693 0.084345
1.203837 0.029025 0.000000
1.210452 0.029183 0.000000
1.214617 0.029284 0.000000
1.216828 0.029340 0.000000
1.217591 0.029361 0.000000
1.217690 0.029358 0.000000
0.779760 0.895482 1.113333
0.770790 0.876341 1.123871
0.787564 0.750466 1.069494
1.069159 0.726552 1.029408
1.134474 0.614418 0.820435
1.170823 0.507274 0.658107
1.193173 0.381377 0.510384
1.207802 0.167474 0.354303
1.213324 0.020019 0.170143
1.197773 0.028881 0.000000
1.205929 0.029079 0.000000
1.211729 0.029215 0.000000
1.215349 0.029305 0.000000
1.217140 0.029347 0.000000
1.217676 0.029358 0.000000
1.217731 0.029362 0.000000
0.661469 1.022661 1.070086
0.657019 1.022831 1.070839
0.667847 0.999145 1.042452
0.827841 0.827841 0.827841
0.991607 0.649430 0.604525
1.065603 0.504935 0.431355
1.113027 0.352331 0.252536
1.137279 0.027417 0.000000
1.165470 0.028100 0.000000
1.185992 0.028595 0.000000
1.201484 0.028970 0.000000
1.213731 0.029267 0.000000
1.216645 0.029335 0.000000
1.217725 0.029365 0.000000
1.217813 0.029365 0.000000
1.217949 0.029368 0.000000
0.443480 1.041915 0.880706
0.437664 1.042650 0.870071
0.411189 1.046262 0.809765
0.477755 0.991232 0.537337
0.908660 0.973082 0.417931
1.009873 0.781205 0.292174
1.047616 0.640644 0.000000
1.096761 0.494390 0.000000
1.135810 0.319018 0.000000
1.172401 0.028270 0.000000
1.189845 0.028685 0.000000
1.203828 0.029024 0.000000
1.208910 0.029150 0.000000
1.211598 0.029210 0.000000
1.212912 0.029247 0.000000
1.213798 0.029268 0.000000
0.004726 1.052583 0.704445
0.003141 1.053536 0.687209
0.000000 1.058323 0.593142
0.000000 1.039138 0.076215
0.597121 1.037804 0.007778
0.898351 1.019520 0.000000
0.992086 0.848038 0.000000
1.053077 0.703116 0.000000
1.097616 0.565482 0.000000
1.132362 0.419741 0.000000
1.163667 0.213001 0.000000
1.189729 0.028688 0.000000
1.197901 0.028888 0.000000
1.202698 0.029000 0.000000
1.205482 0.029070 0.000000
1.207491 0.029110 0.000000
0.000000 1.073575 0.386365
0.000000 1.075145 0.343942
0.000000 1.084425 0.079529
0.000000 1.063809 0.078019
0.295065 1.059865 0.041176
0.656611 1.050684 0.002382
0.909412 1.032162 0.000000
0.993695 0.877949 0.000000
1.050882 0.741952 0.000000
1.093413 0.614925 0.000000
1.126866 0.488737 0.000000
1.155138 0.349605 0.000000
1.181117 0.075135 0.000000
1.190762 0.028711 0.000000
1.195598 0.028825 0.000000
1.199334 0.028918 0.000000
0.000000 1.092077 0.080091
0.000000 1.092371 0.080118
0.000000 1.093498 0.080202
0.000000 1.078278 0.079084
0.000000 1.069103 0.078413
0.395918 1.066628 0.030987
0.690294 1.055795 0.000000
0.914441 1.037987 0.000000
