assets/luts/VM Thermal Dream.cube
LUT_3D_SIZE 6
1.000000 1.000000 1.000000
1.000000 0.799700 0.799700
1.000000 0.599390 0.599390
1.000000 0.399067 0.399067
1.000000 0.198792 0.198792
1.000000 -0.004062 -0.004062
0.799701 1.000000 0.799701
1.000000 1.000000 0.799701
1.000000 0.701281 0.599390
1.000000 0.482565 0.399067
1.000000 0.300588 0.198791
1.000000 0.199994 -0.004180
0.599390 0.999922 0.599390
0.701326 1.000000 0.599391
1.000000 1.000000 0.599391
1.000000 0.714659 0.399067
0.999922 0.518019 0.198789
1.000000 0.400003 -0.004636
0.399067 1.000000 0.399067
0.482561 1.000000 0.399066
0.714658 1.000000 0.399066
1.000000 1.000000 0.399066
1.000000 0.756456 0.198784
1.000000 0.600018 -0.005409
0.198781 1.000000 0.198781
0.300578 1.000000 0.198781
0.518016 1.000000 0.198780
0.756456 0.999922 0.198779
1.000000 1.000000 0.198776
1.000000 0.799991 -0.006393
-0.006735 1.000000 -0.006735
0.199972 1.000000 -0.006753
0.399995 1.000000 -0.006827
0.600017 1.000000 -0.006974
0.799991 1.000000 -0.007200
1.000000 1.000000 -0.007507
0.799700 0.799700 1.000000
1.000000 0.799700 1.000000
1.000000 0.599390 0.701281
1.000000 0.399067 0.482566
1.000000 0.198791 0.300588
1.000000 -0.004074 0.199994
0.799701 1.000000 1.000000
0.799701 0.799701 0.799701
0.872696 0.530256 0.530256
0.912209 0.345273 0.345273
0.919868 0.160668 0.160668
0.799712 0.000000 0.000000
0.599391 0.999922 0.701326
0.588665 0.914224 0.588665
0.917819 0.917819 0.597225
0.919878 0.634555 0.379928
0.919520 0.445288 0.177302
0.799716 0.295659 0.000000
0.399067 1.000000 0.482562
0.392835 0.919379 0.392835
0.639016 0.919017 0.394773
0.918267 0.918267 0.397860
0.917116 0.684117 0.190565
0.799723 0.469355 0.000000
0.198781 1.000000 0.300578
0.194626 0.915780 0.194626
0.447969 0.915462 0.195304
0.682988 0.914903 0.196564
0.914099 0.914099 0.197984
0.799734 0.635705 0.000000
-0.006741 1.000000 0.199972
0.000000 0.799739 0.000000
0.295669 0.799740 0.000000
0.469366 0.799742 0.000000
0.635713 0.799746 0.000000
0.799751 0.799751 0.000000
0.599389 0.599389 1.000000
0.701281 0.599389 1.000000
1.000000 0.599390 1.000000
0.999922 0.399067 0.714660
1.000000 0.198791 0.518021
1.000000 -0.004125 0.400004
0.599390 0.701281 1.000000
0.493959 0.493959 0.828264
0.885432 0.545862 0.885432
0.914239 0.351455 0.622433
0.919950 0.163018 0.442355
0.799713 0.000000 0.295658
0.599391 0.999922 0.999922
0.592022 0.915742 0.915742
0.599392 0.599392 0.599392
0.665169 0.290620 0.290620
0.745359 0.060585 0.060585
0.599395 0.000000 0.000000
0.399067 1.000000 0.714658
0.393513 0.919220 0.638722
0.372387 0.767982 0.372387
0.789032 0.789032 0.393370
0.810243 0.550253 0.145950
0.599398 0.309932 0.000000
0.198781 1.000000 0.518016
0.194904 0.915648 0.447942
0.177355 0.828414 0.177355
0.568802 0.831890 0.184915
0.835601 0.835601 0.194528
0.599402 0.461372 0.000000
-0.006766 1.000000 0.399995
0.000000 0.799740 0.295668
0.000000 0.599404 0.000000
0.309937 0.599405 0.000000
0.461376 0.599406 0.000000
0.599408 0.599408 0.000000
0.399068 0.399068 1.000000
0.482567 0.399068 1.000000
0.714660 0.399068 1.000000
1.000038 0.399067 1.000038
1.000000 0.198791 0.756457
1.000000 -0.004226 0.600019
0.399068 0.482566 1.000000
0.265738 0.265738 0.873951
0.605583 0.318543 0.901317
0.916984 0.361197 0.916984
0.920021 0.167260 0.684354
0.799713 0.000000 0.469350
0.399067 0.714660 1.000000
0.364950 0.628581 0.917809
0.273493 0.273493 0.619964
0.687620 0.303165 0.687620
0.756267 0.073568 0.509310
0.599396 0.000000 0.309931
0.399066 1.000000 1.000000
0.394820 0.918997 0.918997
0.380277 0.776086 0.776086
0.399071 0.399071 0.399071
0.450419 0.089792 0.089792
0.399073 0.000000 0.000000
0.198780 1.000000 0.756456
0.195309 0.915444 0.683285
0.180076 0.829690 0.566778
0.160867 0.585039 0.160867
0.620001 0.620001 0.190222
0.399075 0.276101 0.000000
-0.006818 1.000000 0.600017
0.000000 0.799740 0.469365
0.000000 0.599405 0.309937
0.000000 0.399077 0.000000
0.276115 0.399078 0.000000
0.399080 0.399080 0.000000
0.198795 0.198795 0.999922
0.300591 0.198794 1.000000
0.518021 0.198794 1.000000
0.756457 0.198792 1.000000
1.000000 0.198790 1.000000
1.000000 -0.004381 0.799992
0.198794 0.300591 1.000000
0.083723 0.083723 0.902918
0.431316 0.117355 0.912868
0.682616 0.150721 0.919107
0.919880 0.172721 0.919880
0.799715 0.000000 0.635660
0.198792 0.518021 1.000000
0.154123 0.440327 0.919393
0.051886 0.051886 0.635874
0.464685 0.056463 0.690567
0.770914 0.091716 0.770914
0.599396 0.000000 0.461367
0.198787 0.756457 1.000000
0.184254 0.684652 0.918583
0.112719 0.531956 0.786983
0.079121 0.079121 0.414804
0.471852 0.096279 0.471852
0.399073 0.000000 0.276099
0.198779 1.000000 1.000000
0.195998 0.915102 0.915102
0.184070 0.831533 0.831533
0.171524 0.597954 0.597954
0.198801 0.198801 0.198801
0.198801 0.000000 0.000000
-0.006898 1.000000 0.799991
0.000000 0.799742 0.635710
0.000000 0.599405 0.461375
0.000000 0.399078 0.276114
0.000000 0.198803 0.000000
0.198817 0.198817 0.000000
-0.002590 -0.002590 1.000000
0.200000 -0.002655 1.000000
0.400006 -0.002914 1.000000
0.600020 -0.003358 1.000000
0.799993 -0.003932 1.000000
1.000000 -0.004589 1.000000
-0.002802 0.200000 1.000000
0.000000 0.000000 0.799705
0.295656 0.000000 0.799706
0.469346 0.000000 0.799708
0.635658 0.000000 0.799711
0.799716 0.000000 0.799716
-0.003527 0.400005 1.000000
0.000000 0.295657 0.799708
0.000000 0.000000 0.599393
0.309929 0.000000 0.599394
0.461366 0.000000 0.599395
0.599397 0.000000 0.599397
-0.004571 0.600019 1.000000
0.000000 0.469351 0.799715
0.000000 0.309931 0.599395
0.000000 0.000000 0.399072
0.276099 0.000000 0.399073
0.399073 0.000000 0.399073
-0.005757 0.799992 1.000000
0.000000 0.635668 0.799727
0.000000 0.461370 0.599400
0.000000 0.276100 0.399074
0.000000 0.000000 0.198801
0.198801 0.000000 0.198801
-0.007011 1.000000 1.000000
0.000000 0.799743 0.799743
0.000000 0.599406 0.599406
0.000000 0.399078 0.399078
0.000000 0.198803 0.198803
0.000000 0.000000 0.000000
