assets/luts/VM Thermal Poolside.cube
LUT_3D_SIZE 16
1.000090 1.000000 1.000091
0.943450 0.994820 0.951935
0.770903 0.975035 0.804620
0.597787 0.949857 0.655871
0.421337 0.918429 0.503434
0.235966 0.880643 0.342389
0.030359 0.833040 0.162899
0.000000 0.764337 0.000000
0.000000 0.626819 0.000000
0.000000 0.633284 0.000000
0.000000 0.638143 0.000000
0.000000 0.641627 0.000000
0.000000 0.643811 0.000000
0.000000 0.644998 0.000000
0.000000 0.645284 0.000000
0.000000 0.645289 0.000000
1.014199 0.981960 1.037782
0.994440 0.994729 1.043360
0.781028 0.983939 0.896486
0.599554 0.959079 0.719030
0.421811 0.927134 0.551646
0.236551 0.889009 0.383144
0.031703 0.842058 0.201729
0.000000 0.777452 0.000000
0.000000 0.626515 0.000000
0.000000 0.633067 0.000000
0.000000 0.637951 0.000000
0.000000 0.641460 0.000000
0.000000 0.643676 0.000000
0.000000 0.644909 0.000000
0.000000 0.645280 0.000000
0.000000 0.645218 0.000000
1.057171 0.921536 1.156522
1.046888 0.933170 1.149358
0.974823 0.976518 1.187088
0.673621 0.972636 0.984323
0.449212 0.951083 0.758127
0.249406 0.916905 0.555686
0.039402 0.874272 0.362314
0.000000 0.822446 0.165238
0.000000 0.718744 0.000000
0.000000 0.631961 0.000000
0.000000 0.637138 0.000000
0.000000 0.640778 0.000000
0.000000 0.643077 0.000000
0.000000 0.644449 0.000000
0.000000 0.644859 0.000000
0.000000 0.644962 0.000000
1.100483 0.849762 1.284206
1.090432 0.860692 1.278332
1.050942 0.896954 1.283171
0.949714 0.952657 1.359005
0.602177 0.954122 1.143554
0.320434 0.941908 0.895678
0.064695 0.914173 0.678302
0.000000 0.883508 0.531122
0.000000 0.814419 0.221180
0.000000 0.628717 0.000000
0.000000 0.634769 0.000000
0.000000 0.639027 0.000000
0.000000 0.641724 0.000000
0.000000 0.643300 0.000000
0.000000 0.643938 0.000000
0.000000 0.644207 0.000000
1.148380 0.752904 1.438411
1.133431 0.766597 1.434819
1.086187 0.809785 1.437071
1.024976 0.859051 1.492889
0.905632 0.911044 1.634604
0.500707 0.917838 1.454979
0.114981 0.923086 1.233808
0.000000 0.909108 0.902850
0.000000 0.870722 0.594591
0.000000 0.807100 0.276118
0.000000 0.629305 0.000000
0.000000 0.635042 0.000000
0.000000 0.638775 0.000000
0.000000 0.641078 0.000000
0.000000 0.642090 0.000000
0.000000 0.642717 0.000000
1.233650 0.524568 1.753275
1.246471 0.520480 1.746097
1.064210 0.676212 1.745000
1.003062 0.752512 1.766707
0.969225 0.806842 1.822054
0.865267 0.872979 1.887055
0.485952 0.893519 1.625930
0.163933 0.907899 1.303822
0.000000 0.897875 0.985626
0.000000 0.866227 0.684075
0.000000 0.814101 0.382566
0.000000 0.716014 0.000000
0.000000 0.633152 0.000000
0.000000 0.636714 0.000000
0.000000 0.638902 0.000000
0.000000 0.640200 0.000000
1.245548 0.529628 1.770362
1.253897 0.526866 1.765375
1.287387 0.515884 1.743302
1.183076 0.616354 1.732650
1.052240 0.738613 1.771682
0.986262 0.805251 1.830995
0.867735 0.875321 1.892314
0.521547 0.887015 1.656328
0.212749 0.898043 1.365142
0.000000 0.890940 1.068451
0.000000 0.866735 0.784947
0.000000 0.826938 0.510397
0.000000 0.767865 0.220359
0.000000 0.629398 0.000000
0.000000 0.633292 0.000000
0.000000 0.635880 0.000000
1.255506 0.533784 1.784173
1.261187 0.531870 1.780661
1.284712 0.523958 1.765360
1.328125 0.509323 1.732286
1.246350 0.591446 1.718540
1.077615 0.735418 1.776909
0.993914 0.806786 1.838935
0.869710 0.877346 1.896534
0.551899 0.883227 1.681539
0.260249 0.891395 1.419056
0.027140 0.886882 1.147500
0.000000 0.869208 0.886325
0.000000 0.840622 0.640772
0.000000 0.802105 0.405411
0.000000 0.750461 0.161324
0.000000 0.629098 0.000000
1.263520 0.537261 1.795943
1.267592 0.535807 1.792977
1.284858 0.529870 1.781783
1.317729 0.518675 1.757764
1.363462 0.502835 1.716754
1.254098 0.601938 1.717496
1.088033 0.738418 1.784041
0.996138 0.810077 1.846006
0.871484 0.878914 1.900339
0.578847 0.881264 1.703243
0.305673 0.887133 1.466744
0.081423 0.884811 1.220169
0.000000 0.872696 0.983281
0.000000 0.852610 0.763179
0.000000 0.826895 0.562404
0.000000 0.794779 0.369878
1.269855 0.539951 1.804660
1.273046 0.538868 1.802720
1.286094 0.534317 1.793921
1.311511 0.525515 1.775823
1.348026 0.512688 1.745078
1.392209 0.496954 1.700219
1.237282 0.625684 1.725325
1.089303 0.744619 1.792038
0.994808 0.814087 1.852669
0.872672 0.880397 1.903065
0.602890 0.880103 1.722109
0.347996 0.884679 1.508627
0.135458 0.883791 1.286304
0.000000 0.876091 1.071809
0.000000 0.862567 0.874421
0.000000 0.844110 0.692318
1.274665 0.541992 1.811380
1.277148 0.541144 1.810010
1.287387 0.537608 1.803418
1.307309 0.530520 1.789136
1.336843 0.520106 1.765378
1.374089 0.506754 1.730546
1.414942 0.491710 1.682795
1.214369 0.650710 1.737057
1.084819 0.752750 1.800778
0.991536 0.818257 1.858481
0.873691 0.881334 1.905318
0.624141 0.879529 1.738186
0.387796 0.882971 1.545777
0.186920 0.883506 1.345239
0.024544 0.879112 1.151663
0.000000 0.869727 0.969900
1.278247 0.543492 1.816346
1.280189 0.542777 1.815458
1.288182 0.539874 1.809632
1.304250 0.534191 1.798578
1.328545 0.525641 1.779809
1.359905 0.514370 1.752020
1.395781 0.501217 1.714257
1.432188 0.487188 1.666186
1.190622 0.673628 1.749727
1.077159 0.761144 1.809314
0.987078 0.822294 1.863623
0.874418 0.881988 1.906832
0.644224 0.879298 1.753308
0.424350 0.882091 1.579000
0.235923 0.883523 1.398273
0.079346 0.881239 1.220643
1.280251 0.544473 1.819647
1.281905 0.543879 1.818441
1.288579 0.541479 1.814180
1.301788 0.536812 1.804975
1.321695 0.529623 1.789878
1.348219 0.520154 1.767346
1.379625 0.508745 1.737209
1.413124 0.496076 1.697877
1.445792 0.483106 1.650580
1.167271 0.694244 1.762467
1.067495 0.769844 1.817229
0.981446 0.826630 1.867945
0.874886 0.882385 1.907862
0.661219 0.879123 1.765742
0.457899 0.881432 1.607849
0.279356 0.883398 1.442705
1.281540 0.544907 1.821104
1.282708 0.544454 1.820194
1.288226 0.542478 1.816686
1.299144 0.538550 1.809303
1.316080 0.532557 1.796944
1.338463 0.524526 1.778506
1.365807 0.514641 1.753719
1.396068 0.503428 1.721578
1.426978 0.491390 1.681622
1.318134 0.580133 1.699185
1.145750 0.712069 1.774307
1.057013 0.778007 1.825149
0.975967 0.830167 1.872090
0.875059 0.882743 1.908131
0.677996 0.879023 1.777739
0.487866 0.880996 1.632748
1.281838 0.545018 1.821786
1.282853 0.544658 1.821094
1.287527 0.543004 1.817922
1.296767 0.539708 1.811396
1.310893 0.534680 1.801374
1.330142 0.527766 1.786191
1.353857 0.519157 1.765766
1.380922 0.509263 1.738906
1.409882 0.498503 1.705944
1.438102 0.487296 1.666068
1.246101 0.634995 1.728437
1.125507 0.727802 1.785362
1.046314 0.785735 1.831885
0.969739 0.833914 1.874979
0.875143 0.882848 1.908324
0.691557 0.879069 1.786997
1.281845 0.545020 1.821794
1.282713 0.544701 1.821269
1.286630 0.543350 1.818405
1.294443 0.540505 1.813189
1.306583 0.536155 1.804731
1.323185 0.530238 1.792014
1.343911 0.522807 1.774536
1.368124 0.514077 1.752066
1.394386 0.504309 1.724226
1.421265 0.493986 1.690494
1.446946 0.483646 1.651937
1.204383 0.667026 1.746512
1.108387 0.740724 1.795026
1.036349 0.792466 1.837702
0.964432 0.836984 1.877806
0.875145 0.882849 1.908326
1.006823 0.964815 1.016522
1.020940 0.972008 0.974521
0.828058 0.963920 0.768481
0.634032 0.943446 0.626591
0.448152 0.914032 0.481030
0.258386 0.876861 0.324567
0.051667 0.829496 0.147490
0.000000 0.760040 0.000000
0.000000 0.626454 0.000000
0.000000 0.633026 0.000000
0.000000 0.637866 0.000000
0.000000 0.641363 0.000000
0.000000 0.643649 0.000000
0.000000 0.644775 0.000000
0.000000 0.644999 0.000000
0.000000 0.645008 0.000000
1.017672 0.983376 1.039018
0.976080 0.976082 0.976081
0.709831 0.966880 0.752273
0.550184 0.941735 0.614816
0.386163 0.911669 0.472924
0.207996 0.874390 0.318045
0.005225 0.826664 0.140886
0.000000 0.755904 0.000000
0.000000 0.627296 0.000000
0.000000 0.633628 0.000000
0.000000 0.638405 0.000000
0.000000 0.641674 0.000000
0.000000 0.643908 0.000000
0.000000 0.645012 0.000000
0.000000 0.645285 0.000000
0.000000 0.645298 0.000000
1.056494 0.926262 1.139859
1.059613 0.917959 1.163424
0.974685 0.976140 1.189245
0.641338 0.971045 0.943894
0.421591 0.945572 0.709474
0.226055 0.909089 0.508587
0.017765 0.864788 0.316188
0.000000 0.810033 0.114176
0.000000 0.650534 0.000000
0.000000 0.632560 0.000000
0.000000 0.637569 0.000000
0.000000 0.641061 0.000000
0.000000 0.643324 0.000000
0.000000 0.644484 0.000000
0.000000 0.645002 0.000000
0.000000 0.645018 0.000000
1.102490 0.853261 1.267563
1.101991 0.847005 1.288837
1.057209 0.890933 1.283372
0.949513 0.952495 1.360850
0.584611 0.954162 1.126061
0.301996 0.940407 0.868676
0.047182 0.910480 0.648215
0.000000 0.878262 0.495690
0.000000 0.804925 0.179131
0.000000 0.629377 0.000000
0.000000 0.635196 0.000000
0.000000 0.639343 0.000000
0.000000 0.641960 0.000000
0.000000 0.643454 0.000000
0.000000 0.644036 0.000000
0.000000 0.644250 0.000000
1.156055 0.755683 1.417835
1.149848 0.749829 1.442956
1.093833 0.801249 1.439190
1.027619 0.855943 1.492674
0.905088 0.910561 1.638554
0.488583 0.918443 1.447002
0.101189 0.923252 1.215674
0.000000 0.907850 0.881398
0.000000 0.867557 0.571306
0.000000 0.800859 0.247328
0.000000 0.629911 0.000000
0.000000 0.635393 0.000000
0.000000 0.639091 0.000000
0.000000 0.641167 0.000000
0.000000 0.642236 0.000000
0.000000 0.642889 0.000000
1.218981 0.528091 1.758107
1.234002 0.524668 1.753763
1.083709 0.658140 1.744291
1.006869 0.747711 1.764027
0.970658 0.805372 1.820401
0.865295 0.872952 1.887114
0.479070 0.893917 1.620222
0.155104 0.908124 1.293282
0.000000 0.897051 0.972208
0.000000 0.864350 0.668816
0.000000 0.810510 0.364083
0.000000 0.703834 0.000000
0.000000 0.633443 0.000000
0.000000 0.637024 0.000000
0.000000 0.639132 0.000000
0.000000 0.640362 0.000000
1.236013 0.531874 1.773664
1.245657 0.529703 1.770658
1.280319 0.518284 1.748481
1.211098 0.593927 1.728574
1.055792 0.735142 1.769869
0.987698 0.804198 1.829860
0.867753 0.875346 1.892352
0.517303 0.887076 1.652860
0.206818 0.897926 1.358356
0.000000 0.890563 1.059813
0.000000 0.865520 0.774834
0.000000 0.825110 0.498639
0.000000 0.764151 0.204495
0.000000 0.629683 0.000000
0.000000 0.633562 0.000000
0.000000 0.636077 0.000000
1.248829 0.535410 1.786481
1.255540 0.533855 1.784406
1.279852 0.525752 1.768970
1.324237 0.510780 1.735771
1.271457 0.572249 1.712731
1.080250 0.733058 1.775217
0.995024 0.806169 1.837997
0.869728 0.877364 1.896561
0.549229 0.883414 1.679181
0.256095 0.891543 1.414758
0.022718 0.886591 1.141568
0.000000 0.868702 0.879350
0.000000 0.839482 0.633169
0.000000 0.800518 0.396583
0.000000 0.747550 0.149296
0.000000 0.629324 0.000000
1.258715 0.538403 1.797366
1.263619 0.537278 1.795996
1.281249 0.531225 1.784472
1.314471 0.519848 1.760336
1.361072 0.503728 1.719273
1.266637 0.592213 1.713496
1.089898 0.736845 1.782853
0.996870 0.809594 1.845747
0.871494 0.878924 1.900355
0.576939 0.881327 1.701651
0.302764 0.887209 1.463671
0.078224 0.884842 1.216206
0.000000 0.872317 0.978483
0.000000 0.852034 0.757979
0.000000 0.826066 0.556621
0.000000 0.793415 0.363103
1.266099 0.540818 1.805978
1.269831 0.539981 1.804760
1.283176 0.535369 1.796144
1.308775 0.526441 1.777988
1.345922 0.513448 1.747225
1.390624 0.497563 1.701765
1.243444 0.620906 1.723116
1.090647 0.743638 1.791013
0.995440 0.813578 1.852551
0.872680 0.880405 1.903077
0.601575 0.880166 1.720906
0.345956 0.884778 1.506778
0.133060 0.883707 1.283639
0.000000 0.876076 1.068508
0.000000 0.862301 0.870747
0.000000 0.843612 0.688096
1.271844 0.542656 1.812442
1.274675 0.542010 1.811439
1.285164 0.538405 1.804870
1.305234 0.531284 1.790593
1.335121 0.520724 1.766892
1.372889 0.507307 1.731694
1.414008 0.492229 1.684380
1.217681 0.648071 1.735676
1.085836 0.751875 1.800001
0.991991 0.817858 1.858584
0.873697 0.881341 1.905328
0.623265 0.879549 1.737495
0.386301 0.883069 1.544800
0.184989 0.883504 1.343233
0.022704 0.879049 1.149279
0.000000 0.869679 0.967078
1.275779 0.543993 1.817340
1.278268 0.543501 1.816376
1.286248 0.540564 1.811087
1.302728 0.534847 1.799715
1.327114 0.526145 1.781083
1.358569 0.514834 1.753275
1.394900 0.501581 1.715505
1.431530 0.487429 1.667241
1.192466 0.672065 1.748972
1.077898 0.760749 1.808757
0.987251 0.822206 1.863336
0.874418 0.881989 1.906833
0.643559 0.879317 1.753250
0.423116 0.882109 1.577985
0.234507 0.883529 1.396577
0.077753 0.881197 1.218704
1.278546 0.544857 1.820090
1.280263 0.544428 1.819660
1.287163 0.542043 1.815347
1.300201 0.537341 1.806144
1.320402 0.530098 1.790984
1.347035 0.520570 1.768384
1.378817 0.509111 1.738157
1.412549 0.496353 1.698786
1.445409 0.483362 1.651365
1.168553 0.693220 1.761606
1.068031 0.769516 1.817245
0.981748 0.826410 1.868175
0.874887 0.882387 1.907864
0.660728 0.879120 1.765553
0.457064 0.881416 1.607172
0.278299 0.883402 1.441648
1.279987 0.545244 1.821716
1.281441 0.544908 1.821109
1.287125 0.542927 1.817472
1.297995 0.539012 1.810042
1.314848 0.532952 1.797738
1.337441 0.524883 1.779347
1.364930 0.514956 1.754435
1.395444 0.503663 1.722124
1.426693 0.491723 1.682673
1.322532 0.576723 1.697258
1.146532 0.711527 1.773834
1.057496 0.777780 1.824737
0.976112 0.830055 1.871902
0.875059 0.882743 1.908131
0.677528 0.879073 1.777222
0.487194 0.880996 1.632481
1.280529 0.545334 1.822304
1.281837 0.545017 1.821784
1.286306 0.543403 1.818595
1.295791 0.540077 1.812500
1.309946 0.534979 1.801944
1.329307 0.528070 1.787266
1.353103 0.519478 1.766344
1.380380 0.509521 1.739441
1.409228 0.498660 1.706074
1.437772 0.487373 1.666864
1.247928 0.633762 1.727955
1.126096 0.727478 1.785291
1.046657 0.785456 1.831678
0.969967 0.833811 1.874877
0.875143 0.882847 1.908323
0.691277 0.879017 1.787321
1.280706 0.545269 1.822220
1.281855 0.545025 1.821788
1.285618 0.543630 1.819169
1.293528 0.540826 1.813712
1.305817 0.536483 1.805274
1.322385 0.530539 1.792482
1.343277 0.523050 1.775316
1.367367 0.514301 1.753100
1.393796 0.504514 1.724791
1.420926 0.494072 1.691229
1.446797 0.483660 1.652352
1.205401 0.666338 1.745964
1.108826 0.740399 1.794703
1.036628 0.792183 1.837858
0.964631 0.836917 1.877715
0.875148 0.882852 1.908331
1.022243 0.858150 1.060319
1.029097 0.864043 1.039965
1.079637 0.883137 0.893462
0.820759 0.897976 0.581600
0.577107 0.887259 0.412370
0.360308 0.857676 0.258153
0.143363 0.812914 0.084578
0.000000 0.741595 0.000000
0.000000 0.596440 0.000000
0.000000 0.631332 0.000000
0.000000 0.636736 0.000000
0.000000 0.640471 0.000000
0.000000 0.642951 0.000000
0.000000 0.644307 0.000000
0.000000 0.644803 0.000000
0.000000 0.644941 0.000000
1.018382 0.878248 1.071499
1.017939 0.804185 1.067463
1.094275 0.858015 0.870410
0.769107 0.894642 0.535499
0.526397 0.885439 0.388522
0.316451 0.855487 0.243697
0.103125 0.809984 0.073207
0.000000 0.736080 0.000000
0.000000 0.604779 0.000000
0.000000 0.632075 0.000000
0.000000 0.637229 0.000000
0.000000 0.640862 0.000000
0.000000 0.643301 0.000000
0.000000 0.644539 0.000000
0.000000 0.644965 0.000000
0.000000 0.644996 0.000000
1.072988 0.927316 1.163578
1.075206 0.924908 1.168736
0.901821 0.901823 0.901822
0.564445 0.895606 0.619113
0.319828 0.879284 0.412166
0.117341 0.847762 0.237924
0.000000 0.799660 0.047603
0.000000 0.707515 0.000000
0.000000 0.629453 0.000000
0.000000 0.635070 0.000000
0.000000 0.639287 0.000000
0.000000 0.642262 0.000000
0.000000 0.644143 0.000000
0.000000 0.645072 0.000000
0.000000 0.645289 0.000000
0.000000 0.645325 0.000000
1.116213 0.860826 1.234187
1.115758 0.857978 1.239091
1.068958 0.837014 1.238776
0.936378 0.938989 1.304737
0.495913 0.949158 1.010009
0.211449 0.928038 0.722619
0.000000 0.888695 0.492809
0.000000 0.846026 0.313751
0.000000 0.738251 0.000000
0.000000 0.632221 0.000000
0.000000 0.637217 0.000000
0.000000 0.640688 0.000000
0.000000 0.642949 0.000000
0.000000 0.644046 0.000000
0.000000 0.644532 0.000000
0.000000 0.644643 0.000000
1.180921 0.762925 1.365291
1.178899 0.759156 1.375221
1.154984 0.736687 1.461535
1.042448 0.838643 1.489481
0.902293 0.907839 1.655157
0.429843 0.921505 1.401078
0.036483 0.923707 1.125954
0.000000 0.899724 0.779269
0.000000 0.850114 0.459139
0.000000 0.765161 0.096083
0.000000 0.632150 0.000000
0.000000 0.637050 0.000000
0.000000 0.640096 0.000000
0.000000 0.642023 0.000000
0.000000 0.642882 0.000000
0.000000 0.643351 0.000000
1.365758 0.540500 1.560014
1.350474 0.539013 1.579462
1.234875 0.525083 1.755029
1.030917 0.719328 1.753243
0.977436 0.798149 1.811409
0.865448 0.873001 1.887341
0.446692 0.896126 1.592362
0.114311 0.908489 1.243171
0.000000 0.893007 0.910189
0.000000 0.855069 0.597925
0.000000 0.792422 0.275850
0.000000 0.629624 0.000000
0.000000 0.634830 0.000000
0.000000 0.638005 0.000000
0.000000 0.639769 0.000000
0.000000 0.640954 0.000000
1.193297 0.542210 1.785785
1.203071 0.539939 1.783373
1.246252 0.529979 1.771657
1.317441 0.506560 1.722116
1.073916 0.717807 1.760977
0.993664 0.799412 1.824576
0.867784 0.875367 1.892483
0.498075 0.888071 1.637362
0.180162 0.898362 1.328384
0.000000 0.888453 1.020331
0.000000 0.860439 0.728891
0.000000 0.815911 0.445041
0.000000 0.745669 0.127138
0.000000 0.630885 0.000000
0.000000 0.634397 0.000000
0.000000 0.636763 0.000000
1.219467 0.542384 1.795176
1.226110 0.540844 1.793505
1.255900 0.534051 1.785255
1.305312 0.517403 1.751555
1.370462 0.495288 1.693207
1.092841 0.722136 1.769028
0.999399 0.802802 1.834995
0.869723 0.877354 1.896649
0.537020 0.883828 1.670073
0.237910 0.891613 1.395449
0.003180 0.885813 1.115686
0.000000 0.865793 0.848749
0.000000 0.834888 0.598815
0.000000 0.792957 0.356710
0.000000 0.733370 0.092138
0.000000 0.630132 0.000000
1.237290 0.543453 1.803729
1.242184 0.542273 1.802604
1.263777 0.537410 1.796241
1.299824 0.525066 1.772028
1.350125 0.507723 1.730256
1.406619 0.487690 1.669118
1.098634 0.729708 1.778136
1.000266 0.807189 1.843392
0.871469 0.878964 1.900416
0.568799 0.881439 1.695367
0.289987 0.887371 1.451258
0.064024 0.884339 1.198540
0.000000 0.870950 0.957705
0.000000 0.849580 0.734927
0.000000 0.822229 0.531721
0.000000 0.787742 0.333539
1.250024 0.544555 1.810777
1.253906 0.543747 1.809687
1.270147 0.540033 1.805163
1.297200 0.530616 1.787108
1.336468 0.516881 1.755693
1.383913 0.500038 1.709876
1.276284 0.595657 1.711727
1.096729 0.738835 1.787776
0.997932 0.812048 1.850891
0.872704 0.880430 1.903114
0.595875 0.880275 1.717027
0.336686 0.884851 1.497965
0.122554 0.883573 1.271459
0.000000 0.875172 1.053876
0.000000 0.860776 0.854531
0.000000 0.841415 0.670218
1.259299 0.545604 1.816267
1.262225 0.544943 1.815465
1.274863 0.542030 1.811719
1.295846 0.534697 1.797831
1.327185 0.523615 1.773843
1.366512 0.509617 1.738091
1.409517 0.493809 1.690041
1.233354 0.635919 1.729481
1.090093 0.748677 1.797647
0.993879 0.816795 1.857505
0.873711 0.881306 1.905349
0.619166 0.879612 1.734640
0.379521 0.883154 1.538322
0.177005 0.883437 1.334288
0.014651 0.878638 1.138823
0.000000 0.868679 0.955027
1.265841 0.546316 1.820091
1.268262 0.545797 1.819620
1.278372 0.543495 1.816521
1.294903 0.537578 1.805572
1.320331 0.528609 1.786644
1.353027 0.516882 1.758822
1.390664 0.503190 1.720396
1.428801 0.488569 1.671589
1.201431 0.665190 1.745024
1.080968 0.758452 1.806992
0.988730 0.821194 1.862713
0.874428 0.881999 1.906849
0.640460 0.879264 1.750585
0.418165 0.882155 1.573171
0.228373 0.883466 1.390244
0.071307 0.880885 1.210756
1.270479 0.546689 1.822740
1.272247 0.546253 1.822251
1.280363 0.544455 1.819587
1.293951 0.539545 1.810612
1.314812 0.532204 1.795304
1.342267 0.522383 1.773046
1.374689 0.510565 1.742146
1.409546 0.497562 1.702485
1.443347 0.484180 1.654128
1.174102 0.688976 1.759311
1.070289 0.767878 1.815687
0.982931 0.825618 1.867357
0.874891 0.882390 1.907869
0.658540 0.879157 1.763806
0.453130 0.881476 1.603855
0.273375 0.883402 1.436735
1.273372 0.546804 1.823842
1.274755 0.546393 1.823141
1.281461 0.544916 1.821137
1.292825 0.540898 1.813617
1.310053 0.534723 1.801419
1.333135 0.526402 1.783226
1.361415 0.516285 1.757940
1.392668 0.504791 1.725696
1.424539 0.492500 1.685610
1.345869 0.559309 1.687763
1.150249 0.708643 1.772133
1.059057 0.776571 1.823664
0.977083 0.829492 1.871225
0.875061 0.882744 1.908132
0.675907 0.879025 1.776274
0.483998 0.881019 1.629885
1.274975 0.546641 1.824007
1.276208 0.546342 1.823402
1.281839 0.545018 1.821786
1.291201 0.541680 1.815218
1.305865 0.536506 1.805223
1.325517 0.529372 1.790088
1.349789 0.520652 1.769533
1.377549 0.510513 1.742302
1.407242 0.499512 1.709103
1.436459 0.487998 1.669150
1.255507 0.627896 1.724779
1.128560 0.725573 1.783754
1.047945 0.784610 1.831039
0.970726 0.833458 1.874860
0.875143 0.882847 1.908323
0.689896 0.879060 1.786288
1.275988 0.546375 1.823519
1.277155 0.546101 1.823040
1.281894 0.545029 1.821843
1.289634 0.542252 1.816392
1.302018 0.537824 1.807730
1.319121 0.531738 1.795131
1.340158 0.524110 1.777929
1.364705 0.515243 1.755302
1.391568 0.505303 1.727332
1.419388 0.494853 1.693491
1.445627 0.484108 1.654060
1.209839 0.662923 1.743868
1.110716 0.739055 1.793559
1.037669 0.791548 1.836968
0.965208 0.836504 1.877402
0.875159 0.882864 1.908347
1.030611 0.752227 1.095164
1.034887 0.756650 1.080531
1.068359 0.767727 1.019793
1.130846 0.789463 0.807233
0.857042 0.808640 0.427239
0.575814 0.804707 0.201169
0.322290 0.772293 0.006323
0.060306 0.703504 0.000000
0.000000 0.560478 0.000000
0.000000 0.596005 0.000000
0.000000 0.633378 0.000000
0.000000 0.637976 0.000000
0.000000 0.641057 0.000000
0.000000 0.642750 0.000000
0.000000 0.643550 0.000000
0.000000 0.643928 0.000000
1.026856 0.766921 1.104493
1.032839 0.680720 1.114493
1.070744 0.725587 1.028806
1.139951 0.770711 0.790043
0.833755 0.802238 0.392390
0.544775 0.801254 0.175786
0.291100 0.768575 0.000000
0.026004 0.696235 0.000000
0.000000 0.565297 0.000000
0.000000 0.602079 0.000000
0.000000 0.633971 0.000000
0.000000 0.638443 0.000000
0.000000 0.641258 0.000000
0.000000 0.642961 0.000000
0.000000 0.643703 0.000000
0.000000 0.644057 0.000000
1.026606 0.817963 1.153361
1.025185 0.797570 1.155678
0.967505 0.701037 1.029326
1.082107 0.749149 0.766682
0.706271 0.793947 0.302926
0.399751 0.793033 0.099332
0.141760 0.754508 0.000000
0.000000 0.650432 0.000000
0.000000 0.588590 0.000000
0.000000 0.631338 0.000000
0.000000 0.636568 0.000000
0.000000 0.640177 0.000000
0.000000 0.642597 0.000000
0.000000 0.643878 0.000000
0.000000 0.644298 0.000000
0.000000 0.644489 0.000000
1.132380 0.859158 1.302232
1.133972 0.857286 1.305964
1.099621 0.849088 1.255240
0.827840 0.827842 0.827841
0.431820 0.826664 0.497050
0.148336 0.795460 0.255196
0.000000 0.746553 0.013578
0.000000 0.602502 0.000000
0.000000 0.617484 0.000000
0.000000 0.628370 0.000000
0.000000 0.636542 0.000000
0.000000 0.643060 0.000000
0.000000 0.644588 0.000000
0.000000 0.645220 0.000000
0.000000 0.645289 0.000000
0.000000 0.645320 0.000000
1.214324 0.764568 1.358120
1.215585 0.761940 1.359017
1.218722 0.750126 1.364420
1.063060 0.740169 1.299767
0.878516 0.882294 1.406212
0.363135 0.895376 1.066016
0.000000 0.888251 0.862951
0.000000 0.849489 0.509795
0.000000 0.774804 0.148328
0.000000 0.623788 0.000000
0.000000 0.632848 0.000000
0.000000 0.639937 0.000000
0.000000 0.642352 0.000000
0.000000 0.643507 0.000000
0.000000 0.643947 0.000000
0.000000 0.644165 0.000000
1.419694 0.549513 1.519757
1.416367 0.549237 1.520296
1.394951 0.547151 1.531513
1.191603 0.506673 1.693433
0.951986 0.758011 1.734340
0.841366 0.848633 1.834941
0.361894 0.880940 1.486529
0.024827 0.891306 1.102111
0.000000 0.868680 0.753002
0.000000 0.819609 0.421945
0.000000 0.724377 0.012759
0.000000 0.633013 0.000000
0.000000 0.637438 0.000000
0.000000 0.639882 0.000000
0.000000 0.641150 0.000000
0.000000 0.642002 0.000000
1.286039 0.556751 1.645584
1.267761 0.556392 1.664514
1.151092 0.553285 1.796572
1.219853 0.518667 1.733800
1.105023 0.650871 1.707941
0.984585 0.773846 1.778117
0.851844 0.859244 1.857453
0.448104 0.876512 1.575785
0.120912 0.886951 1.243337
0.000000 0.874443 0.921988
0.000000 0.842176 0.620443
0.000000 0.790259 0.316081
0.000000 0.653642 0.000000
0.000000 0.633268 0.000000
0.000000 0.636199 0.000000
0.000000 0.638154 0.000000
1.156083 0.558019 1.809634
1.162902 0.556407 1.808777
1.192410 0.549331 1.803050
1.236554 0.525774 1.757366
1.317403 0.498535 1.698315
1.105358 0.684386 1.728600
0.992776 0.784071 1.800094
0.856671 0.864122 1.868079
