assets/luts/VM Thermal Dream.cube
LUT_3D_SIZE 16
1.000000 1.000000 1.000000
1.000000 0.933190 0.933190
1.000000 0.866472 0.866472
1.000000 0.799700 0.799700
1.000000 0.732896 0.732896
1.000000 0.666209 0.666209
1.000000 0.599390 0.599390
1.000000 0.532715 0.532715
1.000000 0.465890 0.465890
1.000000 0.399067 0.399067
1.000000 0.332365 0.332365
1.000000 0.265499 0.265499
1.000000 0.198792 0.198792
1.000000 0.131944 0.131944
1.000000 0.065387 0.065387
1.000000 -0.004062 -0.004062
0.933190 1.000000 0.933190
1.000000 1.000000 0.933190
1.000000 0.893953 0.866472
1.000000 0.816352 0.799700
1.000000 0.744961 0.732896
0.999922 0.675759 0.666209
1.000000 0.607510 0.599390
1.000000 0.539979 0.532715
1.000000 0.472775 0.465890
1.000000 0.405896 0.399067
1.000000 0.339485 0.332365
1.000000 0.273428 0.265499
1.000000 0.208522 0.198792
1.000000 0.145841 0.131944
1.000000 0.091406 0.065387
1.000000 0.066635 -0.004071
0.866473 1.000000 0.866473
0.893952 1.000000 0.866473
1.000000 1.000000 0.866473
1.000000 0.882895 0.799700
1.000000 0.793552 0.732896
1.000000 0.714504 0.666209
1.000000 0.640636 0.599390
1.000000 0.569682 0.532715
1.000000 0.500651 0.465890
1.000000 0.433314 0.399067
1.000038 0.367733 0.332364
1.000000 0.304218 0.265499
1.000000 0.244394 0.198791
1.000000 0.191148 0.131944
1.000000 0.151530 0.065386
1.000000 0.133320 -0.004107
0.799701 1.000000 0.799701
0.816351 1.000000 0.799701
0.882895 1.000000 0.799701
1.000000 1.000000 0.799701
1.000000 0.881044 0.732896
1.000000 0.785396 0.666209
1.000000 0.701281 0.599390
1.000000 0.624111 0.532715
1.000000 0.551495 0.465890
1.000000 0.482565 0.399067
1.000000 0.417260 0.332364
0.999922 0.356071 0.265499
1.000000 0.300588 0.198791
1.000000 0.253538 0.131943
1.000000 0.219253 0.065384
1.000000 0.199994 -0.004180
0.732896 1.000000 0.732896
0.744959 1.000000 0.732896
0.793552 0.999922 0.732897
0.881044 1.000000 0.732897
1.000000 1.000000 0.732897
1.000000 0.882940 0.666209
1.000000 0.785421 0.599390
1.000000 0.699493 0.532715
1.000000 0.621293 0.465890
1.000000 0.549226 0.399067
1.000000 0.482710 0.332364
1.000038 0.421873 0.265499
1.000000 0.368065 0.198790
1.000000 0.322954 0.131942
1.000000 0.288991 0.065381
1.000000 0.266657 -0.004292
0.666209 1.000000 0.666209
0.675758 1.000000 0.666209
0.714502 0.999922 0.666209
0.785395 0.999922 0.666209
0.882940 1.000000 0.666209
1.000000 1.000000 0.666209
1.000000 0.886712 0.599390
1.000000 0.790154 0.532715
1.000000 0.704758 0.465890
0.999922 0.627936 0.399067
1.000000 0.558474 0.332364
1.000000 0.496069 0.265498
1.000000 0.441426 0.198790
1.000000 0.395432 0.131940
1.000000 0.359450 0.065377
1.000000 0.333325 -0.004445
0.599390 0.999922 0.599390
0.607509 0.999922 0.599390
0.640634 0.999922 0.599391
0.701326 1.000000 0.599391
0.785421 1.000000 0.599391
0.886712 1.000000 0.599391
1.000000 1.000000 0.599391
1.000000 0.891439 0.532715
1.000000 0.797508 0.465890
1.000000 0.714659 0.399067
1.000038 0.640842 0.332364
1.000000 0.575215 0.265498
0.999922 0.518019 0.198789
1.000000 0.469435 0.131937
1.000000 0.430267 0.065372
1.000000 0.400003 -0.004636
0.532716 1.000000 0.532716
0.539976 1.000000 0.532716
0.569680 0.999922 0.532716
0.624109 1.000000 0.532716
0.699492 1.000000 0.532716
0.790154 1.000000 0.532716
0.891439 1.000000 0.532716
1.000000 1.000000 0.532716
1.000000 0.896614 0.465890
1.000000 0.806577 0.399067
1.000000 0.727324 0.332364
1.000000 0.657371 0.265497
0.999922 0.596445 0.198787
0.999922 0.544296 0.131935
0.999922 0.501286 0.065368
1.000000 0.466625 -0.004863
0.465890 1.000000 0.465890
0.472772 1.000000 0.465890
0.500647 1.000000 0.465890
0.551492 1.000000 0.465890
0.621292 1.000000 0.465890
0.704756 1.000038 0.465890
0.797507 1.000000 0.465890
0.896614 0.999922 0.465890
1.000000 1.000000 0.465890
1.000000 0.902071 0.399066
1.000000 0.816534 0.332363
1.000000 0.741534 0.265497
0.999922 0.676107 0.198786
1.000000 0.619693 0.131931
1.000000 0.572434 0.065360
1.000000 0.533315 -0.005122
0.399067 1.000000 0.399067
0.405889 1.000000 0.399067
0.433310 1.000000 0.399067
0.482561 1.000000 0.399066
0.549223 1.000000 0.399067
0.627934 1.000000 0.399066
0.714658 1.000000 0.399066
0.806576 1.000000 0.399066
0.902071 1.000000 0.399066
1.000000 1.000000 0.399066
1.000000 0.907652 0.332363
1.000000 0.826830 0.265509
1.000000 0.756456 0.198784
1.000000 0.695392 0.131927
1.000000 0.643658 0.065355
1.000000 0.600018 -0.005409
0.332363 1.000000 0.332363
0.339479 1.000000 0.332363
0.367725 1.000000 0.332363
0.417254 1.000000 0.332363
0.482707 1.000000 0.332363
0.558471 1.000000 0.332363
0.640841 1.000000 0.332363
0.727323 1.000000 0.332363
0.816534 1.000000 0.332363
0.907652 1.000000 0.332362
1.000000 1.000000 0.332362
1.000000 0.913021 0.265508
1.000000 0.837250 0.198782
1.000000 0.771310 0.131922
1.000038 0.714817 0.065342
1.000000 0.666656 -0.005718
0.265509 1.000000 0.265509
0.273419 1.000000 0.265509
0.304209 1.000000 0.265509
0.356063 1.000000 0.265509
0.421869 1.000038 0.265509
0.496066 1.000000 0.265509
0.575214 1.000038 0.265509
0.657370 1.000000 0.265508
0.741533 1.000000 0.265508
0.826830 1.000000 0.265508
0.913021 1.000000 0.265508
1.000000 1.000000 0.265507
1.000000 0.918574 0.198779
0.999922 0.847471 0.131917
0.999922 0.786182 0.065332
1.000000 0.733372 -0.006048
0.198781 1.000000 0.198781
0.208521 1.000000 0.198781
0.244385 1.000000 0.198781
0.300578 1.000000 0.198781
0.368057 1.000000 0.198781
0.441422 1.000000 0.198780
0.518016 1.000000 0.198780
0.596444 1.000000 0.198780
0.676106 1.000000 0.198779
0.756456 0.999922 0.198779
0.837250 1.000000 0.198778
0.918574 1.000000 0.198777
1.000000 1.000000 0.198776
0.999922 0.923574 0.131925
1.000000 0.857394 0.065317
1.000000 0.799991 -0.006393
0.131913 0.999922 0.131913
0.145811 0.999922 0.131913
0.191134 0.999922 0.131913
0.253526 0.999922 0.131913
0.322948 0.999922 0.131912
0.395424 1.000000 0.131912
0.469431 1.000000 0.131911
0.544293 1.000000 0.131910
0.619691 1.000000 0.131909
0.695391 0.999922 0.131925
0.771310 0.999922 0.131923
0.847471 1.000000 0.131922
0.923574 0.999922 0.131920
0.999922 0.999922 0.131918
1.000000 0.928793 0.065305
1.000000 0.866768 -0.006754
0.065316 1.000000 0.065316
0.091359 1.000000 0.065316
0.151504 1.000000 0.065316
0.219233 0.999922 0.065315
0.288980 0.999922 0.065319
0.359441 1.000000 0.065318
0.430262 0.999922 0.065316
0.501282 1.000000 0.065314
0.572432 0.999922 0.065312
0.643656 1.000000 0.065309
0.714816 1.000000 0.065305
0.786182 1.000000 0.065302
0.857394 1.000000 0.065302
0.928793 1.000000 0.065297
1.000000 1.000000 0.065291
1.000000 0.933255 -0.007125
-0.006735 1.000000 -0.006735
0.066553 1.000000 -0.006736
0.133291 1.000000 -0.006742
0.199972 1.000000 -0.006753
0.266645 1.000000 -0.006770
0.333318 1.000000 -0.006795
0.399995 1.000000 -0.006827
0.466621 1.000000 -0.006867
0.533311 1.000000 -0.006916
0.600017 1.000000 -0.006974
0.666654 1.000000 -0.007041
0.733371 1.000000 -0.007116
0.799991 1.000000 -0.007200
0.866767 1.000000 -0.007294
0.933255 1.000000 -0.007396
1.000000 1.000000 -0.007507
0.933190 0.933190 1.000000
1.000000 0.933190 1.000000
1.000000 0.866472 0.893953
1.000000 0.799700 0.816352
1.000000 0.732896 0.744961
1.000000 0.666209 0.675759
1.000000 0.599390 0.607511
1.000000 0.532715 0.539979
1.000000 0.465890 0.472775
1.000000 0.399067 0.405896
1.000000 0.332365 0.339485
1.000000 0.265499 0.273428
1.000000 0.198792 0.208522
1.000000 0.131944 0.145841
1.000000 0.065387 0.091406
1.000000 -0.004063 0.066635
0.933190 1.000000 1.000000
0.933190 0.933190 0.933190
0.957575 0.843458 0.843458
0.970684 0.781780 0.781780
0.973268 0.720193 0.720193
0.973106 0.656752 0.656752
0.972309 0.592112 0.592112
0.971523 0.526864 0.526864
0.970851 0.461112 0.461112
0.970071 0.395064 0.395064
0.969355 0.328901 0.328901
0.968581 0.262515 0.262515
0.967741 0.196239 0.196239
0.966788 0.129612 0.129612
0.965810 0.063362 0.063362
0.933238 0.000142 0.000142
0.866473 1.000000 0.893953
0.862885 0.971373 0.862885
0.972649 0.972649 0.865717
0.973285 0.858607 0.793353
0.973200 0.772870 0.725746
0.972617 0.696926 0.659603
0.972008 0.625452 0.593646
0.971323 0.556223 0.527739
0.970607 0.488460 0.461657
0.969869 0.421814 0.395448
0.969178 0.356537 0.329181
0.968424 0.292825 0.262714
0.967506 0.232212 0.196350
0.966662 0.177354 0.129734
0.965697 0.135985 0.063459
0.933239 0.114076 0.000142
0.799701 1.000000 0.816351
0.797580 0.973126 0.797580
0.861495 0.973051 0.798239
0.972794 0.972794 0.799310
0.972392 0.859086 0.730190
0.971906 0.766686 0.662545
0.971328 0.684972 0.595615
0.970770 0.609384 0.529048
0.970158 0.537864 0.462494
0.969498 0.469695 0.396044
0.968842 0.404754 0.329594
0.968028 0.343577 0.263065
0.967185 0.287836 0.196624
0.966317 0.240258 0.129892
0.965369 0.205789 0.063529
0.933241 0.181066 0.000142
0.732896 1.000000 0.744959
0.731593 0.971901 0.731593
0.777202 0.971763 0.731779
0.859531 0.971594 0.732182
0.971306 0.971306 0.732708
0.970978 0.859862 0.664667
0.970544 0.765684 0.597282
0.970122 0.681878 0.530285
0.969523 0.605230 0.463498
0.968915 0.534080 0.396744
0.968232 0.468155 0.330093
0.967510 0.407587 0.263405
0.966668 0.353832 0.196877
0.965827 0.308750 0.130113
0.964921 0.275034 0.063714
0.933246 0.245261 0.000142
0.666209 1.000000 0.675758
0.665207 0.970689 0.665207
0.701504 0.970593 0.665268
0.767947 0.970500 0.665431
0.859658 0.970291 0.665714
0.969973 0.969973 0.665989
0.969641 0.861802 0.598476
0.969218 0.768463 0.531307
0.968694 0.685142 0.464293
0.968153 0.609765 0.397413
0.967481 0.541243 0.330702
0.966775 0.479422 0.263878
0.966063 0.425167 0.197235
0.965177 0.379443 0.130401
0.964300 0.343979 0.063916
0.933251 0.308553 0.000142
0.599390 0.999922 0.607509
0.598642 0.969460 0.598642
0.629507 0.969378 0.598672
0.686491 0.969214 0.598781
0.765638 0.969052 0.598907
0.861306 0.968794 0.599045
0.968533 0.968533 0.599240
0.968161 0.864505 0.532050
0.967701 0.773529 0.464917
0.967076 0.692738 0.397981
0.966511 0.620258 0.331124
0.965848 0.555640 0.264309
0.965191 0.499128 0.197562
0.964345 0.451141 0.130711
0.963523 0.412640 0.064168
0.933254 0.371397 0.000142
0.532716 1.000000 0.539976
0.532102 0.968076 0.532102
0.559882 0.968004 0.532099
0.610928 0.967953 0.532165
0.681945 0.967739 0.532242
0.767798 0.967512 0.532348
0.863851 0.967239 0.532436
0.966836 0.966836 0.532591
0.966411 0.867528 0.465436
0.965991 0.780250 0.398439
0.965370 0.702925 0.331518
0.964765 0.634353 0.264672
0.964063 0.574538 0.197901
0.963357 0.523256 0.130962
0.962584 0.481068 0.064416
0.933263 0.434078 0.000142
0.465890 1.000000 0.472772
0.465431 0.966564 0.465431
0.491559 0.966500 0.465455
0.539265 0.966464 0.465450
0.605230 0.966257 0.465521
0.684352 0.966072 0.465565
0.772508 0.965784 0.465660
0.866738 0.965496 0.465725
0.965129 0.965129 0.465767
0.964650 0.870752 0.398754
0.964091 0.787823 0.331844
0.963530 0.714639 0.264879
0.962867 0.650682 0.198111
0.962134 0.595464 0.131211
0.961404 0.549271 0.064599
0.933275 0.496637 0.000142
0.399067 1.000000 0.405889
0.398717 0.964914 0.398717
0.424403 0.964943 0.398731
0.470814 0.964827 0.398723
0.533932 0.964728 0.398737
0.608700 0.964549 0.398797
0.691249 0.964300 0.398816
0.778825 0.963954 0.398902
0.869925 0.963609 0.398936
0.963184 0.963184 0.398999
0.962680 0.874101 0.332085
0.962147 0.795670 0.265160
0.961551 0.727171 0.198376
0.960871 0.667668 0.131414
0.960087 0.617157 0.064762
0.933281 0.559132 0.000142
0.332363 1.000000 0.339479
0.332019 0.963249 0.332019
0.358598 0.963197 0.332018
0.405512 0.963088 0.332030
0.467681 0.963000 0.332069
0.539901 0.962844 0.332096
0.618416 0.962630 0.332100
0.700988 0.962311 0.332139
0.786221 0.961904 0.332177
0.873110 0.961519 0.332243
0.961041 0.961041 0.332247
0.960577 0.877151 0.265390
0.960026 0.803717 0.198543
0.959371 0.739607 0.131634
0.958709 0.684721 0.064986
0.933301 0.621541 0.000142
0.265509 1.000000 0.273419
0.265335 0.961333 0.265335
0.294557 0.961285 0.265343
0.343902 0.961275 0.265347
0.406803 0.961111 0.265372
0.477696 0.960971 0.265313
0.553399 0.960772 0.265351
0.631933 0.960483 0.265403
0.712344 0.960199 0.265449
0.793884 0.959762 0.265504
0.876084 0.959319 0.265486
0.958946 0.958946 0.265543
0.958355 0.880308 0.198645
0.957755 0.811480 0.131707
0.957098 0.751999 0.065096
0.933314 0.683999 0.000142
0.198781 1.000000 0.208521
0.198621 0.959360 0.198621
0.233338 0.959312 0.198626
0.287557 0.959310 0.198635
0.352482 0.959176 0.198650
0.422916 0.959090 0.198567
0.496395 0.958894 0.198593
0.571565 0.958632 0.198613
0.647745 0.958316 0.198649
0.724586 0.957983 0.198677
0.801709 0.957581 0.198719
0.879157 0.957102 0.198730
0.956558 0.956558 0.198774
0.956006 0.882869 0.131837
0.955410 0.818930 0.065172
0.933328 0.746276 0.000142
0.131913 0.999922 0.145811
0.131730 0.957398 0.131730
0.177767 0.957355 0.131734
0.239283 0.957267 0.131742
0.306756 0.957210 0.131754
0.376764 0.957012 0.131757
0.447941 0.956835 0.131779
0.519761 0.956609 0.131795
0.591982 0.956378 0.131818
0.664332 0.955996 0.131838
0.736829 0.955653 0.131861
0.809338 0.955210 0.131854
0.881708 0.954703 0.131881
0.954241 0.954241 0.131907
0.953599 0.885620 0.065288
0.933352 0.808790 0.000142
0.065316 1.000000 0.091359
0.065183 0.955274 0.065183
0.135351 0.955225 0.065186
0.204062 0.955145 0.065191
0.272490 0.955011 0.065194
0.340781 0.954912 0.065205
0.409005 0.954772 0.065215
0.477113 0.954553 0.065230
0.545221 0.954263 0.065246
0.613223 0.953977 0.065264
0.681148 0.953629 0.065287
0.749027 0.953220 0.065308
0.816622 0.952767 0.065331
0.884382 0.952236 0.065354
0.951695 0.951695 0.065378
0.933374 0.870969 0.000142
-0.006736 1.000000 0.066553
0.000142 0.933351 0.000142
0.114088 0.933351 0.000142
0.181085 0.933352 0.000142
0.245282 0.933353 0.000142
0.308556 0.933355 0.000142
0.371403 0.933352 0.000142
0.434111 0.933355 0.000142
0.496676 0.933358 0.000142
0.559180 0.933362 0.000142
0.621573 0.933367 0.000142
0.684034 0.933373 0.000142
0.746327 0.933379 0.000142
0.808812 0.933381 0.000142
0.870985 0.933392 0.000142
0.933401 0.933401 0.000142
0.866472 0.866472 1.000000
0.893953 0.866472 1.000000
1.000000 0.866472 1.000000
1.000000 0.799700 0.882895
1.000000 0.732896 0.793553
0.999922 0.666209 0.714504
1.000000 0.599390 0.640636
1.000000 0.532715 0.569682
1.000000 0.465890 0.500651
1.000000 0.399067 0.433314
1.000000 0.332365 0.367733
1.000000 0.265499 0.304218
1.000000 0.198791 0.244394
1.000000 0.131944 0.191148
1.000000 0.065387 0.151531
1.000000 -0.004067 0.133320
0.866472 0.893953 1.000000
0.831326 0.831326 0.942802
0.961789 0.848620 0.961789
0.971388 0.783758 0.852190
0.973309 0.720984 0.769150
0.973047 0.657144 0.694936
0.972267 0.592282 0.624281
0.971575 0.526939 0.555559
0.970814 0.461176 0.488043
0.970040 0.395089 0.421536
0.969328 0.328927 0.356360
0.968552 0.262549 0.292697
0.967719 0.196260 0.232133
0.966765 0.129629 0.177309
0.965788 0.063374 0.135972
0.933238 0.000142 0.114076
0.866473 1.000000 1.000000
0.864010 0.971920 0.971920
0.866473 0.866473 0.866473
0.888401 0.763502 0.763502
0.915106 0.686869 0.686869
0.932339 0.624048 0.624048
0.941404 0.563554 0.563554
0.945391 0.502550 0.502550
0.946531 0.440462 0.440462
0.946521 0.377370 0.377370
0.946125 0.313545 0.313545
0.945422 0.249092 0.249092
0.944634 0.184267 0.184267
0.943882 0.118957 0.118957
0.943150 0.053682 0.053682
0.866489 0.000173 0.000173
0.799701 1.000000 0.882895
0.797829 0.973067 0.861234
0.790837 0.922652 0.790837
0.929665 0.929665 0.797799
0.936790 0.810660 0.715301
0.942084 0.719552 0.643506
0.945125 0.640503 0.576159
0.946440 0.568034 0.510696
0.946646 0.499302 0.445869
0.946347 0.433126 0.380985
0.945770 0.369514 0.316066
0.945075 0.308876 0.250897
0.944377 0.252889 0.185614
0.943692 0.204857 0.119961
0.942989 0.171041 0.054486
0.866490 0.142665 0.000173
0.732896 1.000000 0.793552
0.731598 0.971855 0.777085
0.725750 0.942797 0.725750
0.820774 0.943935 0.728286
0.945215 0.945215 0.731512
0.946124 0.828890 0.657060
0.946566 0.733667 0.586626
0.946621 0.650211 0.518539
0.946365 0.574350 0.451531
0.945915 0.504235 0.385199
0.945257 0.439220 0.319200
0.944606 0.379521 0.253234
0.943937 0.326522 0.187350
0.943240 0.282443 0.121275
0.942591 0.250436 0.055489
0.866491 0.212407 0.000173
0.666209 1.000000 0.714502
0.665240 0.970659 0.701402
0.660789 0.946539 0.660789
0.733348 0.946627 0.661859
0.831440 0.946660 0.663354
0.946570 0.946570 0.665111
0.946420 0.836268 0.593885
0.946157 0.742321 0.524621
0.945638 0.659197 0.456466
0.945183 0.584293 0.389126
0.944580 0.516408 0.322291
0.944023 0.455367 0.255652
0.943422 0.402023 0.189284
0.942842 0.357497 0.122856
0.942128 0.323589 0.056705
0.866492 0.275933 0.000173
0.599390 0.999922 0.640634
0.598624 0.969429 0.629495
0.595245 0.946273 0.595245
0.655643 0.946148 0.595743
0.738213 0.946027 0.596510
0.836661 0.945810 0.597488
0.945523 0.945523 0.598591
0.945186 0.840928 0.528999
0.944776 0.750096 0.460363
0.944354 0.669647 0.392477
0.943838 0.597800 0.325114
0.943259 0.533867 0.257952
0.942787 0.478252 0.191191
0.942161 0.431384 0.124464
0.941565 0.394231 0.058029
0.866494 0.337139 0.000173
0.532716 1.000000 0.569680
0.532073 0.968050 0.559861
0.529342 0.945052 0.529342
0.582799 0.945004 0.529599
0.656133 0.944807 0.530077
0.743591 0.944640 0.530616
0.840774 0.944413 0.531284
0.944147 0.944147 0.532017
0.943758 0.845046 0.463214
0.943363 0.758287 0.395121
0.942988 0.681600 0.327488
0.942490 0.613799 0.260068
0.941975 0.554783 0.193055
0.941512 0.504536 0.125961
0.940919 0.463580 0.059448
0.866497 0.397191 0.000173
0.465890 1.000000 0.500647
0.465439 0.966542 0.491547
0.463118 0.943829 0.463118
0.512935 0.943729 0.463295
0.580803 0.943645 0.463595
0.661246 0.943421 0.463943
0.750140 0.943210 0.464330
0.844589 0.943051 0.464819
0.942744 0.942744 0.465348
0.942341 0.849092 0.397099
0.941996 0.766899 0.329337
0.941572 0.694557 0.261836
0.941154 0.631449 0.194625
0.940639 0.577234 0.127377
0.940110 0.532105 0.060607
0.866465 0.456664 0.000173
0.399067 1.000000 0.433310
0.398722 0.964983 0.424399
0.396763 0.942620 0.396763
0.445405 0.942537 0.396873
0.510525 0.942398 0.397065
0.586681 0.942287 0.397298
0.669900 0.942140 0.397565
0.757766 0.941918 0.397897
0.848580 0.941633 0.398247
0.941353 0.941353 0.398637
0.941039 0.853188 0.330824
0.940595 0.775639 0.263161
0.940207 0.708077 0.195897
0.939773 0.649476 0.128609
0.939283 0.600079 0.061677
0.866469 0.515719 0.000173
0.332363 1.000000 0.367725
0.332013 0.963231 0.358595
0.330369 0.941340 0.330369
0.380212 0.941290 0.330444
0.444879 0.941252 0.330577
0.518684 0.941084 0.330716
0.598078 0.940946 0.330882
0.680957 0.940754 0.331129
0.765996 0.940512 0.331379
0.852551 0.940247 0.331659
0.939898 0.939898 0.331966
0.939632 0.856957 0.264300
0.939257 0.784503 0.196953
0.938775 0.721411 0.129590
0.938338 0.667538 0.062631
0.866474 0.574471 0.000173
0.265509 1.000000 0.304209
0.265338 0.961319 0.294554
0.263784 0.940112 0.263784
0.317787 0.940047 0.263874
0.384041 0.939942 0.263926
0.457105 0.939910 0.264025
0.533915 0.939714 0.264259
0.612914 0.939571 0.264372
0.693372 0.939355 0.264530
0.774611 0.939088 0.264789
0.856338 0.938799 0.264966
0.938545 0.938545 0.265238
0.938124 0.860961 0.197872
0.937756 0.793064 0.130397
0.937316 0.734598 0.063392
0.866479 0.633141 0.000173
0.198781 1.000000 0.244385
0.198623 0.959340 0.233338
0.197269 0.938796 0.197269
0.259719 0.938811 0.197316
0.329628 0.938712 0.197396
0.402901 0.938572 0.197451
0.477806 0.938515 0.197575
0.553575 0.938362 0.197716
0.629959 0.938172 0.197885
0.706506 0.937955 0.197946
0.783251 0.937669 0.198166
0.860231 0.937322 0.198363
0.937070 0.937070 0.198542
0.936629 0.864283 0.131150
0.936236 0.801348 0.064080
0.866485 0.691539 0.000173
0.131913 0.999922 0.191134
0.131732 0.957382 0.177767
0.130632 0.937456 0.130632
0.209106 0.937475 0.130668
0.283789 0.937387 0.130656
0.357265 0.937261 0.130746
0.430191 0.937212 0.130833
0.502790 0.937022 0.130858
0.575253 0.936844 0.130990
0.647531 0.936620 0.131155
0.719594 0.936346 0.131266
0.791677 0.936127 0.131383
0.863503 0.935794 0.131576
0.935484 0.935484 0.131652
0.935018 0.867802 0.064661
0.866491 0.750046 0.000173
0.065316 1.000000 0.151504
0.065184 0.955256 0.135353
0.064169 0.936146 0.064169
0.172043 0.936092 0.064200
0.249878 0.936007 0.064240
0.322160 0.935887 0.064303
0.392248 0.935842 0.064309
0.461266 0.935712 0.064402
0.529628 0.935513 0.064513
0.597615 0.935304 0.064530
0.665240 0.935047 0.064650
0.732728 0.934741 0.064732
0.799852 0.934534 0.064897
0.867001 0.934131 0.064994
0.933790 0.933790 0.065172
0.866499 0.808193 0.000173
-0.006738 1.000000 0.133292
0.000142 0.933351 0.114088
0.000173 0.866491 0.000173
0.142671 0.866491 0.000173
0.212405 0.866492 0.000173
0.275945 0.866492 0.000173
0.337151 0.866493 0.000173
0.397211 0.866494 0.000173
0.456678 0.866495 0.000173
0.515735 0.866496 0.000173
0.574482 0.866497 0.000173
0.633153 0.866499 0.000173
0.691550 0.866501 0.000173
0.750055 0.866503 0.000173
0.808198 0.866505 0.000173
0.866507 0.866507 0.000173
0.799700 0.799700 1.000000
0.816352 0.799700 1.000000
0.882895 0.799700 1.000000
1.000000 0.799700 1.000000
1.000000 0.732896 0.881045
0.999922 0.666209 0.785396
1.000000 0.599390 0.701281
1.000000 0.532715 0.624111
0.999922 0.465890 0.551495
1.000000 0.399067 0.482566
1.000000 0.332365 0.417261
1.000000 0.265499 0.356071
1.000000 0.198791 0.300588
1.000000 0.131944 0.253538
1.000000 0.065387 0.219254
1.000000 -0.004074 0.199994
0.799700 0.816352 1.000000
0.755258 0.755258 0.958016
0.843960 0.772891 0.967104
0.972310 0.787045 0.972310
0.973333 0.722335 0.856481
0.972927 0.657803 0.764297
0.972159 0.592625 0.683175
0.971489 0.527139 0.608175
0.970744 0.461287 0.537117
0.970069 0.395164 0.469179
0.969271 0.328998 0.404408
0.968501 0.262613 0.343341
0.967670 0.196268 0.287725
0.966723 0.129652 0.240237
0.965838 0.063394 0.205844
0.933238 0.000142 0.181066
0.799700 0.882895 1.000000
0.788286 0.855354 0.972682
0.757868 0.757868 0.873356
0.895905 0.767800 0.895905
0.918741 0.691204 0.789711
0.933858 0.626819 0.705742
0.942050 0.565197 0.631631
0.945558 0.503573 0.562241
0.946570 0.441111 0.495495
0.946494 0.377751 0.430588
0.946088 0.313752 0.367792
0.945376 0.249324 0.307742
0.944601 0.184446 0.252187
0.943902 0.119087 0.204487
0.943117 0.053775 0.170925
0.866489 0.000173 0.142665
0.799701 1.000000 1.000000
0.798267 0.973047 0.973047
0.793474 0.925332 0.925332
0.799701 0.799701 0.799701
0.818567 0.693421 0.693421
0.847383 0.602433 0.602433
0.872696 0.530256 0.530256
0.891457 0.466635 0.466635
0.904229 0.405738 0.405738
0.912209 0.345273 0.345273
0.916674 0.284589 0.284589
0.918971 0.222889 0.222889
0.919868 0.160668 0.160668
0.919985 0.097628 0.097628
0.919649 0.034375 0.034375
0.799712 0.000000 0.000000
0.732897 0.999922 0.881044
0.731791 0.971758 0.859461
0.726740 0.943180 0.819625
0.720296 0.861718 0.720296
0.873372 0.873372 0.729997
0.885596 0.754528 0.638565
0.896783 0.661180 0.560784
0.905631 0.580953 0.490093
0.912065 0.508621 0.423144
0.916200 0.441640 0.358034
0.918497 0.379249 0.293877
0.919657 0.321453 0.229803
0.920019 0.270112 0.165808
0.919903 0.228235 0.101558
0.919381 0.200122 0.037371
0.799713 0.161004 0.000000
0.666209 0.999922 0.785395
0.665270 0.970589 0.767886
0.661130 0.946573 0.732843
0.653388 0.898925 0.653388
0.772484 0.902783 0.658086
0.907064 0.907064 0.663566
0.911175 0.791126 0.582881
0.914587 0.695627 0.508730
0.917126 0.612591 0.438213
0.918798 0.538532 0.369983
0.919675 0.471883 0.303169
0.920010 0.412334 0.237116
0.919889 0.360901 0.171643
0.919566 0.318792 0.106119
0.919070 0.288050 0.041007
0.799714 0.232688 0.000000
0.599391 0.999922 0.701326
0.598674 0.969375 0.686451
0.595394 0.946231 0.655366
0.588665 0.914224 0.588665
0.686365 0.915290 0.591052
0.798028 0.916576 0.593952
0.917819 0.917819 0.597225
0.918779 0.808544 0.521906
0.919494 0.715661 0.449811
0.919878 0.634555 0.379928
0.920020 0.562837 0.311534
0.919878 0.499658 0.244030
0.919520 0.445288 0.177302
0.919094 0.400214 0.110796
0.918472 0.365363 0.044850
0.799716 0.295659 0.000000
0.532716 1.000000 0.624109
0.532100 0.968002 0.610924
0.529409 0.945008 0.582630
0.523826 0.919195 0.523826
0.608567 0.919440 0.525149
0.705849 0.919612 0.526792
