assets/luts/VM Thermal Poolside.cube
LUT_3D_SIZE 6
1.000090 1.000000 1.000091
0.597787 0.949857 0.655871
0.030359 0.833040 0.162899
0.000000 0.633284 0.000000
0.000000 0.643811 0.000000
0.000000 0.645289 0.000000
1.100483 0.849762 1.284206
0.949714 0.952657 1.359005
0.064695 0.914173 0.678302
0.000000 0.628717 0.000000
0.000000 0.641724 0.000000
0.000000 0.644207 0.000000
1.245548 0.529628 1.770362
1.183076 0.616354 1.732650
0.867735 0.875321 1.892314
0.000000 0.890940 1.068451
0.000000 0.767865 0.220359
0.000000 0.635880 0.000000
1.269855 0.539951 1.804660
1.311511 0.525515 1.775823
1.237282 0.625684 1.725325
0.872672 0.880397 1.903065
0.135458 0.883791 1.286304
0.000000 0.844110 0.692318
1.280251 0.544473 1.819647
1.301788 0.536812 1.804975
1.379625 0.508745 1.737209
1.167271 0.694244 1.762467
0.874886 0.882385 1.907862
0.279356 0.883398 1.442705
1.281845 0.545020 1.821794
1.294443 0.540505 1.813189
1.343911 0.522807 1.774536
1.421265 0.493986 1.690494
1.108387 0.740724 1.795026
0.875145 0.882849 1.908326
1.030611 0.752227 1.095164
1.130846 0.789463 0.807233
0.322290 0.772293 0.006323
0.000000 0.596005 0.000000
0.000000 0.641057 0.000000
0.000000 0.643928 0.000000
1.132380 0.859158 1.302232
0.827840 0.827842 0.827841
0.000000 0.746553 0.013578
0.000000 0.628370 0.000000
0.000000 0.644588 0.000000
0.000000 0.645320 0.000000
1.286039 0.556751 1.645584
1.219853 0.518667 1.733800
0.851844 0.859244 1.857453
0.000000 0.874443 0.921988
0.000000 0.653642 0.000000
0.000000 0.638154 0.000000
1.216269 0.552650 1.820089
1.256829 0.534383 1.786088
1.407187 0.480442 1.643605
0.862505 0.870064 1.880754
0.100519 0.882988 1.245278
0.000000 0.836743 0.633120
1.253812 0.550583 1.827638
1.280322 0.544427 1.819723
1.366191 0.513757 1.751033
1.186295 0.679620 1.753559
0.874460 0.882006 1.907009
0.263495 0.883509 1.426739
1.266343 0.548579 1.826354
1.281924 0.545042 1.821885
1.333974 0.526417 1.783091
1.416055 0.496175 1.697824
1.114578 0.736198 1.791329
0.875167 0.882872 1.908360
1.022594 0.430867 1.159796
1.077472 0.451056 1.049046
1.254916 0.434831 0.477688
0.389401 0.403060 0.000000
0.000000 0.542981 0.000000
0.000000 0.624991 0.000000
0.995662 0.529383 1.280285
0.925015 0.280898 1.074268
1.222375 0.315249 0.362649
0.264292 0.433122 0.000000
0.000000 0.566363 0.000000
0.000000 0.636149 0.000000
1.335419 0.587659 1.799972
1.308970 0.576040 1.764504
0.605740 0.605740 0.605740
0.000000 0.503710 0.000000
0.000000 0.606789 0.000000
0.000000 0.551854 0.000000
1.244362 0.590905 1.687339
1.138754 0.589209 1.731140
1.120741 0.476550 1.592644
0.781139 0.787895 1.703164
0.000000 0.825289 0.941348
0.000000 0.663650 0.235932
1.128792 0.581329 1.851971
1.154765 0.574820 1.848765
1.220281 0.518885 1.734449
1.380010 0.459884 1.570442
0.834205 0.841408 1.819039
0.160763 0.759674 1.157282
1.196184 0.565412 1.843496
1.211921 0.561591 1.840734
1.144561 0.486604 1.626704
1.239078 0.452407 1.545911
1.023706 0.635526 1.584006
0.781368 0.788216 1.704041
0.963646 0.046819 1.176190
1.040840 0.053864 1.026724
1.218759 0.000000 0.712164
1.338954 0.077278 0.143236
0.638221 0.335754 0.000000
0.141367 0.475979 0.000000
0.858818 0.138743 1.436753
0.868965 0.000000 1.127176
1.175975 0.000000 0.737669
1.330115 0.076767 0.142281
0.597860 0.348525 0.000000
0.100158 0.486350 0.000000
0.964380 0.403337 1.624231
0.936658 0.362573 1.579948
0.706118 0.000000 0.915925
1.126217 0.065002 0.120495
0.351729 0.391244 0.000000
0.000000 0.461873 0.000000
1.355772 0.596629 1.827461
1.341052 0.590143 1.807702
1.202689 0.529236 1.621178
0.383552 0.383553 0.383553
0.000000 0.383543 0.000000
0.000000 0.366815 0.000000
1.291801 0.599573 1.681535
1.278061 0.600409 1.685688
1.081697 0.580664 1.676971
1.006526 0.428036 1.430553
0.706322 0.712426 1.540226
0.000000 0.497682 0.606829
1.036562 0.606574 1.859383
1.050834 0.602704 1.859171
0.996764 0.522786 1.656485
0.802552 0.341265 1.140667
0.830909 0.359228 1.061648
0.547955 0.552714 1.194891
0.902504 0.000000 1.170453
0.934615 0.000000 1.112177
1.122977 0.000000 0.853175
1.276096 0.000000 0.676203
1.359972 0.078491 0.145480
0.805240 0.283760 0.000000
0.912115 0.000000 1.150985
0.904638 0.000000 1.173367
1.100708 0.000000 0.884532
1.269181 0.000000 0.689539
1.361139 0.078557 0.145615
0.787916 0.289447 0.000000
0.910901 0.199478 1.480034
0.905508 0.150695 1.446331
0.798347 0.000000 1.035466
1.128310 0.000000 0.685931
1.292300 0.074587 0.138251
0.615085 0.276828 0.000000
1.041910 0.439268 1.664084
1.032521 0.428967 1.654888
0.934763 0.349138 1.521411
0.550705 0.000000 0.714379
0.931277 0.053750 0.099627
0.260624 0.234805 0.000000
1.364515 0.600508 1.839409
1.364555 0.600520 1.839461
1.300836 0.572485 1.753551
1.083740 0.476896 1.460870
0.161389 0.161389 0.161389
0.000000 0.143616 0.000000
1.331209 0.598654 1.684177
1.327467 0.598897 1.683192
1.166121 0.535798 1.502109
0.743564 0.380034 1.083017
0.329188 0.139974 0.467848
0.224706 0.226629 0.490005
0.904605 0.000000 1.173392
0.895197 0.000000 1.179374
1.060666 0.000000 0.936655
1.180542 0.000000 0.794859
1.311224 0.000000 0.622156
1.362927 0.078663 0.145792
0.910358 0.000000 1.162109
0.904827 0.000000 1.173566
1.040537 0.000000 0.964204
1.172585 0.000000 0.803779
1.307822 0.000000 0.629000
1.363126 0.078675 0.145813
0.899926 0.054263 1.379727
0.899401 0.003340 1.343398
0.807682 0.000000 1.047721
1.009699 0.000000 0.758541
1.152366 0.000000 0.588419
1.216825 0.070235 0.130168
0.947814 0.297728 1.550345
0.942197 0.283916 1.540437
0.820117 0.185393 1.326915
0.566405 0.000000 0.734601
0.775459 0.000000 0.457034
0.853296 0.049254 0.091282
1.090412 0.475500 1.699249
1.085206 0.471518 1.695488
0.947383 0.403458 1.497199
0.625583 0.241575 1.013503
0.232269 0.000000 0.301321
0.350016 0.020201 0.037442
1.365934 0.601071 1.841027
1.365980 0.601091 1.841115
1.219578 0.536607 1.643774
0.855156 0.376268 1.152642
0.350771 0.154347 0.472779
0.000000 0.000000 0.000000
