assets/luts/VM Thermal Picasso.cube
LUT_3D_SIZE 16
1.000090 1.000000 1.000091
0.943222 0.994883 0.952436
0.769815 0.975126 0.806566
0.596037 0.949799 0.659551
0.418826 0.918703 0.508502
0.232680 0.880815 0.349000
0.026333 0.833348 0.171129
0.000000 0.764718 0.000000
0.000000 0.627443 0.000000
0.000000 0.633866 0.000000
0.000000 0.638749 0.000000
0.000000 0.642169 0.000000
0.000000 0.644443 0.000000
0.000000 0.645585 0.000000
0.000000 0.645938 0.000000
0.000000 0.645943 0.000000
0.983550 0.991379 1.035421
0.955790 1.011479 0.991218
0.791638 0.986796 0.838384
0.612068 0.958815 0.683992
0.430890 0.926715 0.529593
0.242625 0.888677 0.369304
0.035343 0.841860 0.193585
0.000000 0.777379 0.000000
0.000000 0.626521 0.000000
0.000000 0.633243 0.000000
0.000000 0.638143 0.000000
0.000000 0.641795 0.000000
0.000000 0.644033 0.000000
0.000000 0.645340 0.000000
0.000000 0.645714 0.000000
0.000000 0.645714 0.000000
0.927844 0.960942 1.146650
0.892125 0.983362 1.107566
0.807797 1.048887 0.961463
0.652320 0.999786 0.776453
0.468480 0.960192 0.610422
0.274929 0.920207 0.447362
0.063054 0.875671 0.278568
0.000000 0.823812 0.095032
0.000000 0.718906 0.000000
0.000000 0.630338 0.000000
0.000000 0.635922 0.000000
0.000000 0.639939 0.000000
0.000000 0.642580 0.000000
0.000000 0.644040 0.000000
0.000000 0.644611 0.000000
0.000000 0.644862 0.000000
0.861416 0.922766 1.265962
0.831771 0.941811 1.236364
0.736034 1.007884 1.112590
0.627507 1.092539 0.923800
0.482210 1.030957 0.735154
0.294401 0.982510 0.570945
0.068965 0.939521 0.413079
0.000000 0.910227 0.278328
0.000000 0.825474 0.040504
0.000000 0.624071 0.000000
0.000000 0.630974 0.000000
0.000000 0.636049 0.000000
0.000000 0.639366 0.000000
0.000000 0.641359 0.000000
0.000000 0.642366 0.000000
0.000000 0.642985 0.000000
0.770985 0.868006 1.409513
0.741647 0.888723 1.380666
0.639487 0.959684 1.268233
0.496614 1.058609 1.072841
0.331683 1.160136 0.859462
0.146601 1.100694 0.687762
0.000000 1.054695 0.554601
0.000000 0.983269 0.405025
0.000000 0.910312 0.225829
0.000000 0.824569 0.000000
0.000000 0.622631 0.000000
0.000000 0.629403 0.000000
0.000000 0.633985 0.000000
0.000000 0.637046 0.000000
0.000000 0.638775 0.000000
0.000000 0.639927 0.000000
0.557174 0.730991 1.701643
0.547176 0.733529 1.695340
0.366694 0.913483 1.448907
0.233634 1.035477 1.230175
0.129909 1.140416 0.990553
0.060823 1.221741 0.800482
0.000000 1.139488 0.653653
0.000000 1.063200 0.523745
0.000000 0.991769 0.377777
0.000000 0.920318 0.211179
0.000000 0.841444 0.012030
0.000000 0.720849 0.000000
0.000000 0.625966 0.000000
0.000000 0.630446 0.000000
0.000000 0.633394 0.000000
0.000000 0.635468 0.000000
0.562530 0.737976 1.718025
0.555970 0.739642 1.713559
0.528663 0.746385 1.695487
0.384681 0.877466 1.498789
0.223996 1.040922 1.216199
0.126510 1.146853 0.980501
0.060998 1.225087 0.802747
0.000000 1.146642 0.644637
0.000000 1.072961 0.511140
0.000000 1.003902 0.371964
0.000000 0.936779 0.221714
0.000000 0.867161 0.054717
0.000000 0.785684 0.000000
0.000000 0.621394 0.000000
0.000000 0.625922 0.000000
0.000000 0.629163 0.000000
0.567000 0.743817 1.731683
0.562344 0.744976 1.728540
0.543019 0.749465 1.715685
0.506121 0.758215 1.688894
0.377646 0.871239 1.506755
0.212534 1.051348 1.195537
0.122966 1.153456 0.970505
0.061132 1.227999 0.804563
0.000000 1.153683 0.643102
0.000000 1.083310 0.510441
0.000000 1.017959 0.380059
0.000000 0.955905 0.246723
0.000000 0.895526 0.109088
0.000000 0.834274 0.000000
0.000000 0.764856 0.000000
0.000000 0.620959 0.000000
0.570682 0.748618 1.743224
0.567237 0.749474 1.740530
0.552894 0.752723 1.730761
0.525162 0.759138 1.710952
0.484389 0.768070 1.679528
0.348852 0.896097 1.469502
0.200722 1.064044 1.171591
0.119395 1.160052 0.960883
0.061242 1.230292 0.806148
0.000000 1.160227 0.646438
0.000000 1.093867 0.517334
0.000000 1.032649 0.396496
0.000000 0.976092 0.279439
0.000000 0.923300 0.165286
0.000000 0.874110 0.054253
0.000000 0.824000 0.000000
0.573520 0.752453 1.751802
0.570949 0.752967 1.750251
0.559993 0.755404 1.742376
0.538548 0.760210 1.727159
0.506253 0.767251 1.702803
0.464891 0.775905 1.668950
0.315325 0.931210 1.414589
0.189346 1.077487 1.146330
0.115800 1.166325 0.951193
0.061338 1.232190 0.807239
0.003331 1.166339 0.652278
0.000000 1.104133 0.528623
0.000000 1.047352 0.417807
0.000000 0.995728 0.314789
0.000000 0.949400 0.219000
0.000000 0.905984 0.125960
0.575689 0.755290 1.758319
0.573708 0.755725 1.756932
0.565139 0.757662 1.750954
0.548137 0.761305 1.739130
0.522273 0.766952 1.719730
0.488160 0.774037 1.692543
0.448037 0.781668 1.657903
0.284938 0.965196 1.358801
0.178546 1.090774 1.120712
0.112236 1.172182 0.941388
0.061405 1.233427 0.808158
0.007252 1.171814 0.659588
0.000000 1.113925 0.542835
0.000000 1.061320 0.441245
0.000000 1.014412 0.350232
0.000000 0.971692 0.265195
0.577253 0.757336 1.762986
0.575678 0.757709 1.761927
0.568795 0.759147 1.757229
0.555140 0.762214 1.747538
0.534037 0.766690 1.732140
0.505831 0.772577 1.710142
0.471613 0.779261 1.681462
0.433688 0.786178 1.647308
0.259020 0.995178 1.307014
0.168666 1.103446 1.096153
0.108843 1.177595 0.932198
0.061465 1.234597 0.808832
0.011213 1.176975 0.668040
0.000000 1.123034 0.558218
0.000000 1.074557 0.465292
0.000000 1.030783 0.382097
0.578272 0.758593 1.766174
0.576921 0.758828 1.765125
0.571328 0.760159 1.761407
0.560108 0.762536 1.753366
0.542725 0.766216 1.740741
0.519177 0.771172 1.722771
0.490018 0.777133 1.699125
0.456707 0.783351 1.670231
0.421409 0.789102 1.636683
0.236772 1.021638 1.259663
0.159487 1.115045 1.072495
0.105423 1.182433 0.922616
0.061489 1.235148 0.809280
0.014742 1.181364 0.676278
0.000000 1.131366 0.573742
0.000000 1.086003 0.487062
0.578784 0.759169 1.767625
0.577650 0.759448 1.766933
0.573053 0.760486 1.763690
0.563751 0.762508 1.757042
0.549270 0.765557 1.746779
0.529427 0.769833 1.731707
0.504576 0.774796 1.712146
0.475474 0.780530 1.687770
0.443506 0.786217 1.659147
0.340591 0.893091 1.478573
0.218067 1.044057 1.217692
0.151170 1.125553 1.050510
0.102367 1.186591 0.914090
0.061514 1.235487 0.809519
0.018320 1.185558 0.685058
0.000000 1.138805 0.588301
0.578917 0.759439 1.768370
0.578011 0.759721 1.767702
0.574130 0.760472 1.764548
0.566340 0.762280 1.759517
0.554092 0.764746 1.750562
0.537250 0.768477 1.738159
0.515897 0.772890 1.721616
0.490571 0.777882 1.701219
0.462171 0.783173 1.676547
0.431911 0.788297 1.648289
0.292450 0.953784 1.380160
0.201883 1.063644 1.179586
0.143667 1.134977 1.030156
0.099271 1.190585 0.905363
0.061523 1.235636 0.809632
0.021242 1.188894 0.692496
0.578919 0.759442 1.768383
0.578133 0.759681 1.767482
0.574859 0.760354 1.765398
0.568222 0.761667 1.761020
0.557794 0.764097 1.753296
0.543414 0.767080 1.742851
0.524992 0.771011 1.728676
0.502870 0.775471 1.711127
0.477589 0.780336 1.690036
0.450171 0.785321 1.665588
0.421747 0.789825 1.638247
0.262365 0.990669 1.316437
0.188732 1.079614 1.147507
0.137081 1.143273 1.012065
0.096697 1.193744 0.898303
0.061523 1.235638 0.809633
0.983727 0.979982 0.934563
0.952660 0.995310 0.943795
0.788021 0.971479 0.810233
0.611321 0.946765 0.661658
0.432342 0.915935 0.508592
0.245892 0.878497 0.347517
0.040896 0.830637 0.167704
0.000000 0.761155 0.000000
0.000000 0.627410 0.000000
0.000000 0.633910 0.000000
0.000000 0.638775 0.000000
0.000000 0.642254 0.000000
0.000000 0.644492 0.000000
0.000000 0.645652 0.000000
0.000000 0.646008 0.000000
0.000000 0.646017 0.000000
1.036613 0.980457 1.011046
0.976080 0.976082 0.976081
0.708503 0.966773 0.754894
0.548216 0.941786 0.618798
0.383568 0.911988 0.478298
0.204635 0.874865 0.324875
0.000977 0.827248 0.149305
0.000000 0.756360 0.000000
0.000000 0.627903 0.000000
0.000000 0.634257 0.000000
0.000000 0.639018 0.000000
0.000000 0.642328 0.000000
0.000000 0.644575 0.000000
0.000000 0.645563 0.000000
0.000000 0.645940 0.000000
0.000000 0.645952 0.000000
0.982806 0.947163 1.148963
0.924445 0.959184 1.153197
0.805693 1.049464 0.960850
0.633136 0.992697 0.753937
0.443946 0.951560 0.583024
0.250375 0.910938 0.418820
0.038914 0.865284 0.248426
0.000000 0.810695 0.058439
0.000000 0.649245 0.000000
0.000000 0.631292 0.000000
0.000000 0.636711 0.000000
0.000000 0.640483 0.000000
0.000000 0.642955 0.000000
0.000000 0.644347 0.000000
0.000000 0.644915 0.000000
0.000000 0.644999 0.000000
0.905360 0.911614 1.269614
0.858720 0.921157 1.270397
0.744658 0.998919 1.132627
0.625517 1.093000 0.923208
0.474773 1.027320 0.725721
0.283050 0.977450 0.557470
0.055379 0.933397 0.397100
0.000000 0.901997 0.259218
0.000000 0.814083 0.011209
0.000000 0.624970 0.000000
0.000000 0.631691 0.000000
0.000000 0.636544 0.000000
0.000000 0.639737 0.000000
0.000000 0.641647 0.000000
0.000000 0.642638 0.000000
0.000000 0.643098 0.000000
0.816444 0.857099 1.413165
0.768161 0.866120 1.413925
0.653055 0.947204 1.291084
0.498902 1.054558 1.083209
0.327394 1.161072 0.858518
0.141513 1.098826 0.683639
0.000000 1.051011 0.548608
0.000000 0.978833 0.395923
0.000000 0.904832 0.213163
0.000000 0.816840 0.000000
0.000000 0.623356 0.000000
0.000000 0.629915 0.000000
0.000000 0.634408 0.000000
0.000000 0.637254 0.000000
0.000000 0.639021 0.000000
0.000000 0.640164 0.000000
0.566635 0.727421 1.705997
0.557287 0.731062 1.702196
0.391247 0.890140 1.484385
0.242310 1.027323 1.246681
0.132211 1.137836 0.996995
0.060824 1.221779 0.800506
0.000000 1.137870 0.651342
0.000000 1.060883 0.519806
0.000000 0.988934 0.371801
0.000000 0.916852 0.203026
0.000000 0.836503 0.000000
0.000000 0.706542 0.000000
0.000000 0.626413 0.000000
0.000000 0.630874 0.000000
0.000000 0.633696 0.000000
0.000000 0.635707 0.000000
0.568702 0.735653 1.720589
0.562604 0.738093 1.718303
0.534589 0.745045 1.699813
0.407588 0.852430 1.535079
0.228957 1.035869 1.226333
0.127793 1.145319 0.984060
0.060999 1.225112 0.802763
0.000000 1.145774 0.643027
0.000000 1.071394 0.508302
0.000000 1.001946 0.368030
0.000000 0.934263 0.216456
0.000000 0.864119 0.047523
0.000000 0.781220 0.000000
0.000000 0.621619 0.000000
0.000000 0.626187 0.000000
0.000000 0.629346 0.000000
0.571287 0.742146 1.733547
0.567051 0.743959 1.731834
0.547362 0.748582 1.718875
0.509772 0.757352 1.691592
0.395208 0.850619 1.537591
0.215485 1.048151 1.202079
0.123784 1.152527 0.972814
0.061134 1.228017 0.804574
0.000000 1.152949 0.642045
0.000000 1.082256 0.508459
0.000000 1.016595 0.377350
0.000000 0.954210 0.243203
0.000000 0.893668 0.104813
0.000000 0.831934 0.000000
0.000000 0.761269 0.000000
0.000000 0.621145 0.000000
0.573760 0.747548 1.744087
0.570693 0.748650 1.743114
0.556212 0.751928 1.733327
0.527996 0.758462 1.713037
0.486611 0.767501 1.681488
0.357733 0.885461 1.485952
0.202557 1.061974 1.175767
0.119923 1.159421 0.962364
0.061242 1.230302 0.806155
0.000000 1.159854 0.645522
0.000000 1.093181 0.515935
0.000000 1.031711 0.394630
0.000000 0.974992 0.277188
0.000000 0.922155 0.162557
0.000000 0.872463 0.050935
0.000000 0.822307 0.000000
0.575850 0.751498 1.752861
0.573548 0.752494 1.751945
0.562495 0.754934 1.743956
0.540842 0.759783 1.728930
0.508220 0.766908 1.704337
0.466422 0.775532 1.670068
0.319830 0.925823 1.423190
0.190541 1.076097 1.149185
0.116153 1.165874 0.952170
0.061338 1.232198 0.807244
0.003018 1.166032 0.651603
0.000000 1.103649 0.527639
0.000000 1.046701 0.416497
0.000000 0.995102 0.313248
0.000000 0.948474 0.217198
0.000000 0.904891 0.123764
0.577554 0.754503 1.759135
0.575701 0.755314 1.758388
0.567082 0.757283 1.752466
0.549957 0.761011 1.740039
0.523905 0.766601 1.720816
0.489574 0.773828 1.693721
0.449124 0.781671 1.658840
0.287427 0.962336 1.363856
0.179321 1.089924 1.122772
0.112482 1.171820 0.942022
0.061405 1.233433 0.808162
0.007052 1.171622 0.659132
0.000000 1.113587 0.542117
0.000000 1.060825 0.440212
0.000000 1.013802 0.349136
0.000000 0.971157 0.263847
0.578684 0.756791 1.763635
0.577259 0.757348 1.763018
0.570365 0.758790 1.758372
0.556658 0.761776 1.748811
0.535402 0.766434 1.733132
0.506990 0.772328 1.710897
0.472571 0.779252 1.682731
0.434362 0.786004 1.647799
0.260497 0.993499 1.310322
0.169205 1.102705 1.097572
0.109034 1.177288 0.932564
0.061465 1.234597 0.808832
0.011065 1.176831 0.667729
0.000000 1.122755 0.557583
0.000000 1.074141 0.464608
0.000000 1.030307 0.381134
0.579461 0.758193 1.766458
0.578275 0.758599 1.766193
0.572653 0.759842 1.762201
0.561400 0.762278 1.754280
0.543958 0.766002 1.741609
0.520201 0.771024 1.723706
0.490997 0.776897 1.700130
0.457392 0.783164 1.670771
0.421852 0.788984 1.637426
0.237719 1.020495 1.261757
0.159869 1.114599 1.073499
0.105544 1.182387 0.922944
0.061489 1.235149 0.809281
0.014614 1.181254 0.675935
0.000000 1.131127 0.573336
0.000000 1.085736 0.486597
0.579718 0.758832 1.768116
0.578785 0.759171 1.767632
0.574136 0.760272 1.764614
0.564823 0.762262 1.757934
0.550237 0.765397 1.747293
0.530308 0.769601 1.732198
0.505314 0.774825 1.712874
0.476062 0.780419 1.688526
0.444091 0.786125 1.659666
0.343342 0.889475 1.483962
0.218718 1.043307 1.219054
0.151473 1.125173 1.051276
0.102476 1.186543 0.914482
0.061514 1.235487 0.809519
0.018219 1.185377 0.684824
0.000000 1.138688 0.587968
0.579728 0.759245 1.768679
0.578917 0.759438 1.768369
0.575025 0.760307 1.765652
0.567191 0.762023 1.759824
0.554893 0.764746 1.751017
0.538055 0.768255 1.738716
0.516613 0.772693 1.722099
0.491206 0.777845 1.701418
0.462632 0.783139 1.676722
0.432269 0.788309 1.648523
0.293648 0.952216 1.382680
0.202340 1.063101 1.180633
0.143860 1.134791 1.030686
0.099350 1.190511 0.905650
0.061523 1.235636 0.809632
0.021183 1.188896 0.692404
0.579575 0.759214 1.768782
0.578922 0.759448 1.768404
0.575632 0.760249 1.765812
0.569002 0.761674 1.761376
0.558561 0.763884 1.753976
0.544067 0.766990 1.743080
0.525646 0.770932 1.729402
0.503461 0.775440 1.711784
0.478055 0.780224 1.690357
0.450542 0.785230 1.666046
0.422081 0.789768 1.638728
0.263106 0.989643 1.318167
0.189028 1.079198 1.148296
0.137256 1.142984 1.012540
0.096774 1.193710 0.898506
0.061523 1.235641 0.809635
0.931529 0.917453 0.738822
0.897233 0.932714 0.746998
0.806172 0.976955 0.769784
0.653065 0.940246 0.656147
0.475422 0.908000 0.506965
0.289460 0.870168 0.343630
0.088315 0.821835 0.158986
0.000000 0.749371 0.000000
0.000000 0.604951 0.000000
0.000000 0.634246 0.000000
0.000000 0.639107 0.000000
0.000000 0.642416 0.000000
0.000000 0.644542 0.000000
0.000000 0.645708 0.000000
0.000000 0.646025 0.000000
0.000000 0.646005 0.000000
0.982914 0.917399 0.786753
0.899840 0.881618 0.648960
0.765585 0.970663 0.721738
0.612762 0.932542 0.620965
0.439511 0.902247 0.478748
0.257521 0.865261 0.320498
0.057646 0.816997 0.138435
0.000000 0.742237 0.000000
0.000000 0.610877 0.000000
0.000000 0.634546 0.000000
0.000000 0.639162 0.000000
0.000000 0.642505 0.000000
0.000000 0.644666 0.000000
0.000000 0.645702 0.000000
0.000000 0.645996 0.000000
0.000000 0.645987 0.000000
1.153434 0.915178 1.044877
1.158269 0.912405 1.046186
0.901822 0.901823 0.901822
0.562801 0.895869 0.622517
0.316995 0.879408 0.417922
0.113666 0.848206 0.245454
0.000000 0.800060 0.056838
0.000000 0.707995 0.000000
0.000000 0.630125 0.000000
0.000000 0.635730 0.000000
0.000000 0.639938 0.000000
0.000000 0.642928 0.000000
0.000000 0.644793 0.000000
0.000000 0.645740 0.000000
0.000000 0.645943 0.000000
0.000000 0.645979 0.000000
1.070065 0.872458 1.254129
1.047817 0.875573 1.263685
0.847721 0.904600 1.221962
0.646205 1.064889 0.912995
0.440627 0.999756 0.671676
0.220950 0.949374 0.482673
0.000000 0.900760 0.310563
0.000000 0.858368 0.152005
0.000000 0.740220 0.000000
0.000000 0.629132 0.000000
0.000000 0.634834 0.000000
0.000000 0.638956 0.000000
0.000000 0.641638 0.000000
0.000000 0.643062 0.000000
0.000000 0.643725 0.000000
0.000000 0.644123 0.000000
0.977445 0.818553 1.414571
0.949053 0.823022 1.419939
0.755932 0.858462 1.431067
0.517822 1.029615 1.142644
0.309586 1.165048 0.854514
0.119473 1.088293 0.663505
0.000000 1.032743 0.517772
0.000000 0.956894 0.350026
0.000000 0.877987 0.148885
0.000000 0.773879 0.000000
0.000000 0.626383 0.000000
0.000000 0.632249 0.000000
0.000000 0.636199 0.000000
0.000000 0.638705 0.000000
0.000000 0.640152 0.000000
0.000000 0.641084 0.000000
0.939276 0.653143 1.700477
0.890684 0.663219 1.703124
0.557715 0.731582 1.703350
0.291162 0.981672 1.333274
0.144003 1.124927 1.028866
0.060830 1.221909 0.800590
0.000000 1.130841 0.640471
0.000000 1.049909 0.500247
0.000000 0.975123 0.343473
0.000000 0.899953 0.163797
0.000000 0.812496 0.000000
0.000000 0.622076 0.000000
0.000000 0.628175 0.000000
0.000000 0.632194 0.000000
0.000000 0.634771 0.000000
0.000000 0.636612 0.000000
0.595745 0.725301 1.731896
0.589793 0.727643 1.729758
0.562893 0.738454 1.719193
0.504399 0.752689 1.678579
0.253763 1.010579 1.275509
0.133990 1.138193 1.001364
0.061004 1.225198 0.802677
0.000000 1.141474 0.635462
0.000000 1.064453 0.495545
0.000000 0.992989 0.349697
0.000000 0.923256 0.192056
0.000000 0.850080 0.014039
0.000000 0.757996 0.000000
0.000000 0.623072 0.000000
0.000000 0.627285 0.000000
0.000000 0.630371 0.000000
0.589866 0.735089 1.741408
0.585687 0.736784 1.739851
0.567235 0.744115 1.732324
0.526380 0.753759 1.704352
0.468741 0.766795 1.660037
0.229364 1.033069 1.231921
0.127416 1.148254 0.983160
0.061138 1.228075 0.804627
0.000000 1.150331 0.636728
0.000000 1.077609 0.499623
0.000000 1.010530 0.365212
0.000000 0.947034 0.227548
0.000000 0.885246 0.085145
0.000000 0.821083 0.000000
0.000000 0.743824 0.000000
0.000000 0.622099 0.000000
0.587244 0.742213 1.750006
0.584167 0.743419 1.748726
0.570799 0.748844 1.743449
0.540942 0.755706 1.722634
0.497038 0.765523 1.689844
0.443192 0.776643 1.644757
0.210896 1.052546 1.194904
0.122260 1.156569 0.969025
0.061244 1.230341 0.806180
0.000000 1.157940 0.641643
0.000000 1.089914 0.509673
0.000000 1.027536 0.386290
0.000000 0.970237 0.266904
0.000000 0.916592 0.150464
0.000000 0.866234 0.036497
0.000000 0.814198 0.000000
0.585998 0.747612 1.756689
0.583692 0.748478 1.755808
0.573630 0.752473 1.751978
0.550934 0.757686 1.736569
0.516827 0.765069 1.711028
0.473178 0.774302 1.675801
0.342861 0.897958 1.467939
0.195784 1.069997 1.161784
0.117717 1.164035 0.956617
0.061339 1.232166 0.807239
0.001740 1.164666 0.648785
0.000000 1.101325 0.523023
0.000000 1.043706 0.410624
0.000000 0.991744 0.306284
0.000000 0.944721 0.209216
0.000000 0.900710 0.114076
0.585446 0.751504 1.762391
0.583604 0.752137 1.761979
0.575759 0.755423 1.758765
0.558124 0.759320 1.746114
0.531080 0.765111 1.726637
0.495393 0.772636 1.698739
0.453602 0.780726 1.663129
0.299042 0.948302 1.387568
0.182792 1.085769 1.131270
0.113575 1.170626 0.945192
0.061407 1.233447 0.808171
0.006156 1.170720 0.657011
0.000000 1.111906 0.538773
0.000000 1.058601 0.435984
0.000000 1.011353 0.344317
0.000000 0.968324 0.258099
0.584950 0.754317 1.766310
0.583517 0.754927 1.765727
0.577291 0.757313 1.763124
0.563183 0.760404 1.753399
0.541399 0.765104 1.737514
0.512180 0.771339 1.715180
0.476816 0.778345 1.686155
0.437473 0.785561 1.651023
0.267231 0.985250 1.324573
0.171526 1.099884 1.103508
0.109807 1.176335 0.934805
0.061466 1.234607 0.808839
0.010397 1.176004 0.666004
0.000000 1.121439 0.555101
0.000000 1.072515 0.461457
0.000000 1.028420 0.377562
0.584510 0.756096 1.768787
0.583334 0.756568 1.768390
0.578253 0.758567 1.766083
0.566789 0.761128 1.758070
0.548913 0.764931 1.745080
0.524697 0.770051 1.727139
0.494752 0.776166 1.703140
0.460436 0.782780 1.673898
0.424084 0.788751 1.639485
0.241923 1.015443 1.271267
0.161504 1.112590 1.077819
0.106146 1.181666 0.924734
0.061489 1.235152 0.809283
0.014162 1.180660 0.674803
0.000000 1.130142 0.571487
0.000000 1.084412 0.484095
0.583949 0.757312 1.769830
0.582952 0.757588 1.769603
0.578791 0.759182 1.767671
0.569320 0.761290 1.761161
0.554453 0.764583 1.750578
0.534139 0.768869 1.735326
0.508746 0.774081 1.715779
0.479037 0.779883 1.690990
0.446359 0.785801 1.661664
0.357447 0.871046 1.512435
0.221528 1.039975 1.225518
0.152604 1.123837 1.054369
0.102909 1.185930 0.915567
0.061514 1.235488 0.809520
0.017870 1.184982 0.684022
0.000000 1.137829 0.586378
0.583242 0.757875 1.770215
0.582442 0.758079 1.769537
0.578917 0.759439 1.768371
0.570979 0.761244 1.762692
0.558511 0.763889 1.753910
0.541331 0.767588 1.741251
0.519601 0.772065 1.724794
0.493762 0.777343 1.703703
0.464754 0.782673 1.678647
0.433935 0.788113 1.650530
0.298963 0.945895 1.393621
0.204233 1.060786 1.185192
0.144727 1.133762 1.033079
0.099688 1.190143 0.906563
0.061523 1.235636 0.809632
0.020889 1.188513 0.691628
0.582562 0.757996 1.769688
0.581883 0.758241 1.769639
0.578934 0.759471 1.768279
0.572333 0.760950 1.763786
0.561707 0.763209 1.755930
0.547055 0.766332 1.745354
0.528350 0.770267 1.731256
0.505855 0.774906 1.713508
0.480245 0.779910 1.692337
0.452276 0.785092 1.667554
0.423320 0.789566 1.639799
0.266361 0.985863 1.325199
0.190471 1.077494 1.151818
0.137943 1.142204 1.014428
0.097042 1.193273 0.899197
0.061523 1.235652 0.809642
0.876620 0.852968 0.549892
0.851530 0.864253 0.554420
0.762847 0.902869 0.580992
0.655731 0.952366 0.592380
0.514695 0.904751 0.481665
0.341257 0.861840 0.327065
0.147508 0.810669 0.140540
0.000000 0.734353 0.000000
0.000000 0.592136 0.000000
0.000000 0.613043 0.000000
0.000000 0.639514 0.000000
0.000000 0.642768 0.000000
0.000000 0.645001 0.000000
0.000000 0.646031 0.000000
0.000000 0.646325 0.000000
0.000000 0.646311 0.000000
0.912999 0.853431 0.581520
0.838048 0.808156 0.424686
0.732398 0.879064 0.505267
0.626092 0.946886 0.557671
0.489779 0.898279 0.455634
0.317834 0.855894 0.304678
0.124663 0.804725 0.119366
0.000000 0.725492 0.000000
0.000000 0.593886 0.000000
0.000000 0.616576 0.000000
0.000000 0.639673 0.000000
0.000000 0.642945 0.000000
0.000000 0.645002 0.000000
0.000000 0.645983 0.000000
0.000000 0.646337 0.000000
0.000000 0.646278 0.000000
1.060985 0.850853 0.725845
1.042935 0.840218 0.681389
0.820258 0.797457 0.507291
0.618745 0.908123 0.557096
0.425737 0.867327 0.402674
0.227875 0.831019 0.229098
0.019058 0.779203 0.028127
0.000000 0.672290 0.000000
0.000000 0.604535 0.000000
0.000000 0.636293 0.000000
0.000000 0.640450 0.000000
0.000000 0.643328 0.000000
0.000000 0.645074 0.000000
0.000000 0.646028 0.000000
0.000000 0.646149 0.000000
0.000000 0.646122 0.000000
1.283203 0.836816 1.079714
1.286698 0.834571 1.080583
1.237888 0.828710 1.051266
0.827840 0.827842 0.827841
0.429801 0.826840 0.501059
0.145096 0.795805 0.261826
0.000000 0.746890 0.022585
0.000000 0.603097 0.000000
0.000000 0.618112 0.000000
0.000000 0.628968 0.000000
0.000000 0.637175 0.000000
0.000000 0.643679 0.000000
0.000000 0.645203 0.000000
0.000000 0.645910 0.000000
0.000000 0.645943 0.000000
0.000000 0.645974 0.000000
1.218963 0.763523 1.354476
1.209553 0.763303 1.363242
1.149917 0.766583 1.404263
0.755044 0.834214 1.276154
0.462857 1.062508 0.844902
0.244875 0.977970 0.597657
0.000000 0.953141 0.434620
0.000000 0.878174 0.226442
0.000000 0.784219 0.000000
0.000000 0.618863 0.000000
0.000000 0.628876 0.000000
0.000000 0.636760 0.000000
0.000000 0.639870 0.000000
0.000000 0.641499 0.000000
0.000000 0.642368 0.000000
0.000000 0.642946 0.000000
1.222706 0.594379 1.655739
1.202511 0.598548 1.661731
1.093718 0.621184 1.685743
0.538166 0.706085 1.643521
0.173088 1.055672 1.080177
0.059149 1.187938 0.778218
0.000000 1.087619 0.605316
0.000000 1.005132 0.449959
0.000000 0.929255 0.272833
0.000000 0.848650 0.062854
0.000000 0.730334 0.000000
0.000000 0.626314 0.000000
0.000000 0.631722 0.000000
0.000000 0.634977 0.000000
0.000000 0.637049 0.000000
0.000000 0.638510 0.000000
0.915740 0.659124 1.722404
0.874385 0.667043 1.726600
0.623044 0.715658 1.743181
0.550949 0.722769 1.682631
0.322339 0.916562 1.380192
0.146013 1.099617 1.021643
0.059871 1.202718 0.787994
0.000000 1.113809 0.610843
0.000000 1.035082 0.462346
0.000000 0.963433 0.305736
0.000000 0.892795 0.133904
0.000000 0.814362 0.000000
0.000000 0.649389 0.000000
0.000000 0.625839 0.000000
0.000000 0.629514 0.000000
0.000000 0.632314 0.000000
0.629427 0.720060 1.756417
0.625475 0.721760 1.755051
0.607412 0.728743 1.749013
0.558463 0.732628 1.705898
0.490477 0.748503 1.657482
0.260332 0.980558 1.282807
0.133427 1.121353 0.990479
0.060205 1.209400 0.792435
