assets/luts/VM Thermal Vice.cube
LUT_3D_SIZE 6
1.000000 1.000000 1.000091
1.096653 0.791666 0.751727
1.167963 0.472653 0.381307
1.195303 0.028819 0.000000
1.215155 0.029299 0.000000
1.217814 0.029365 0.000000
0.646017 1.044662 0.692237
0.973156 1.023144 0.592766
1.115934 0.645683 0.239759
1.181748 0.028493 0.000000
1.207936 0.029125 0.000000
1.213737 0.029267 0.000000
0.000000 1.086217 0.079663
0.189320 1.081253 0.053803
0.926474 1.051439 0.000000
1.089974 0.673913 0.000000
1.163054 0.299788 0.000000
1.195178 0.028816 0.000000
0.000000 1.107389 0.081220
0.000000 1.102386 0.080847
0.252888 1.087779 0.047533
0.931639 1.057446 0.000000
1.073209 0.741136 0.000000
1.133268 0.502544 0.000000
0.000000 1.116562 0.081892
0.000000 1.113758 0.081684
0.000000 1.101951 0.080820
0.428109 1.088917 0.029113
0.934090 1.060045 0.000000
1.052261 0.804801 0.000000
0.000000 1.117880 0.081978
0.000000 1.116234 0.081865
0.000000 1.109269 0.081362
0.000000 1.094879 0.080300
0.551453 1.085927 0.015885
0.934373 1.060442 0.000000
0.842584 0.803906 1.137103
1.117579 0.766085 1.076803
1.187144 0.453215 0.618875
1.216260 0.021519 0.123947
1.214445 0.029280 0.000000
1.217676 0.029355 0.000000
0.661469 1.022661 1.070086
0.827841 0.827841 0.827841
1.113027 0.352331 0.252536
1.185992 0.028595 0.000000
1.216645 0.029335 0.000000
1.217949 0.029368 0.000000
0.000000 1.073575 0.386365
0.000000 1.063809 0.078019
0.909412 1.032162 0.000000
1.093413 0.614925 0.000000
1.181117 0.075135 0.000000
1.199334 0.028918 0.000000
0.000000 1.105700 0.081095
0.000000 1.095974 0.080383
0.000000 1.072152 0.078632
0.920801 1.045119 0.000000
1.078601 0.724335 0.000000
1.137857 0.478086 0.000000
0.000000 1.115593 0.081820
0.000000 1.116630 0.081895
0.000000 1.104389 0.080994
0.391312 1.089561 0.033038
0.933497 1.059562 0.000000
1.054743 0.797875 0.000000
0.000000 1.117148 0.081936
0.000000 1.117878 0.081982
0.000000 1.110750 0.081466
0.000000 1.096087 0.080383
0.538928 1.086354 0.017238
0.934323 1.060455 0.000000
0.622929 0.540770 1.249011
0.795425 0.517650 1.220022
1.223045 0.378965 1.125162
1.260908 0.004969 0.684617
1.254740 0.015083 0.356068
1.221305 0.027505 0.000000
0.516757 0.676079 1.238163
0.489914 0.400476 1.171393
1.186925 0.253505 1.078713
1.246870 0.006896 0.613326
1.248824 0.017731 0.267162
1.216186 0.029326 0.000000
0.046413 1.035071 1.164833
0.045492 1.014591 1.141733
0.605740 0.605740 0.605740
0.950642 0.022922 0.000000
1.145313 0.027616 0.000000
1.041583 0.025117 0.000000
0.000000 1.086255 0.492644
0.000000 1.081345 0.304576
0.000000 0.977281 0.071678
0.833981 0.946343 0.000000
1.047007 0.590951 0.000000
0.992959 0.273951 0.000000
0.000000 1.111560 0.081529
0.000000 1.112475 0.081594
0.000000 1.064194 0.078051
0.000000 1.035993 0.075984
0.890658 1.010751 0.000000
0.917145 0.656732 0.000000
0.000000 1.114930 0.081768
0.000000 1.115489 0.081806
0.000000 0.997976 0.073193
0.000000 0.983920 0.072147
0.423443 0.971616 0.021606
0.834312 0.946663 0.000000
0.344317 0.217040 1.314367
0.543057 0.175692 1.286188
0.912514 0.000000 1.215944
1.289773 0.000000 1.139185
1.287249 0.002290 0.788145
1.271860 0.009746 0.538638
0.097787 0.375077 1.336913
0.116660 0.000000 1.294864
0.843626 0.000000 1.212418
1.281288 0.000000 1.131624
1.287228 0.002880 0.769044
1.270129 0.010448 0.514988
0.076598 0.700145 1.298862
0.079344 0.646084 1.296431
0.094795 0.000000 1.052271
1.084899 0.000000 0.958298
1.208949 0.005775 0.623917
1.086260 0.012460 0.327409
0.047122 1.050861 1.182578
0.046603 1.039468 1.169798
0.041798 0.932132 1.049062
0.383553 0.383553 0.383553
0.723932 0.017456 0.000000
0.692338 0.016692 0.000000
0.000000 1.086269 0.666797
0.000000 1.087875 0.631762
0.000000 1.047565 0.322999
0.000000 0.877760 0.064374
0.754142 0.855919 0.000000
0.625044 0.370633 0.000000
0.000000 1.110157 0.081426
0.000000 1.110515 0.081450
0.000000 0.993045 0.072843
0.000000 0.699858 0.051333
0.091527 0.682590 0.036917
0.585013 0.663989 0.000000
0.121163 0.000000 1.344772
0.222709 0.000000 1.332017
0.679085 0.000000 1.274842
1.001422 0.000000 1.221568
1.309999 0.000000 1.157077
1.294888 0.000108 0.863276
0.120479 0.000000 1.337123
0.121451 0.000000 1.348034
0.623398 0.000000 1.285453
0.986237 0.000000 1.226389
1.311293 0.000000 1.158093
1.294602 0.000344 0.855485
0.093682 0.456529 1.340996
0.097065 0.401371 1.345184
0.107183 0.000000 1.189628
0.829063 0.000000 1.144091
1.244861 0.000000 1.099566
1.129982 0.001305 0.714395
0.072605 0.764813 1.293755
0.073753 0.750092 1.297510
0.075773 0.632263 1.247481
0.073935 0.000000 0.820705
0.897051 0.000000 0.792371
0.761330 0.003056 0.411585
0.047418 1.057719 1.190272
0.047419 1.057739 1.190306
0.045214 1.008360 1.134780
0.037662 0.840006 0.945369
0.161389 0.161389 0.161389
0.271071 0.006535 0.000000
0.010735 1.081578 0.790447
0.009588 1.082146 0.777877
0.003317 0.968986 0.636860
0.000000 0.686567 0.276124
0.000000 0.287077 0.021055
0.239863 0.272242 0.000000
0.121447 0.000000 1.348010
0.121352 0.000000 1.346780
0.524198 0.000000 1.299395
0.806825 0.000000 1.258286
1.063856 0.000000 1.212826
1.312830 0.000000 1.159526
0.121049 0.000000 1.343843
0.121456 0.000000 1.348233
0.473985 0.000000 1.305861
0.789416 0.000000 1.261354
1.057518 0.000000 1.214365
1.312967 0.000000 1.159684
0.103277 0.294248 1.349325
0.106314 0.238579 1.349247
0.108451 0.000000 1.203750
0.620642 0.000000 1.138875
0.915780 0.000000 1.089433
1.172121 0.000000 1.035321
0.086125 0.576245 1.329892
0.087277 0.559198 1.332136
0.083118 0.417528 1.197652
0.076041 0.000000 0.844054
0.579980 0.000000 0.775349
0.821967 0.000000 0.726050
0.068301 0.821772 1.280340
0.068802 0.815443 1.282052
0.063531 0.701163 1.151706
0.048966 0.432464 0.820863
0.031191 0.000000 0.346173
0.337160 0.000000 0.297786
0.047465 1.058664 1.191432
0.047468 1.058699 1.191376
0.042381 0.945312 1.063678
0.029719 0.662793 0.745813
0.012190 0.271862 0.305923
0.000000 0.000000 0.000000
