assets/luts/VM Thermal Plastic.cube
LUT_3D_SIZE 6
1.000091 1.000000 1.000000
1.130037 0.757332 0.994041
1.244380 0.394166 0.934086
1.323329 0.000000 0.802686
1.345402 0.000000 0.816127
1.348510 0.000000 0.817939
1.216495 0.862166 0.819170
1.248073 0.869819 1.301866
1.362234 0.492861 1.027263
1.264765 0.000000 0.933654
1.317471 0.000000 0.884759
1.332647 0.000000 0.858777
1.577290 0.565021 0.442347
1.658832 0.548217 1.005554
1.614576 0.667684 1.749112
1.543064 0.407611 1.234772
1.359692 0.123116 1.068757
1.247487 0.000000 1.016155
1.607794 0.576075 0.450918
1.654711 0.544391 0.576721
1.647722 0.554567 1.220719
1.623795 0.671495 1.758768
1.539309 0.456994 1.379014
1.448129 0.281977 1.171825
1.621109 0.580841 0.454665
1.647238 0.563757 0.519822
1.706245 0.510710 0.754413
1.606517 0.598627 1.414976
1.628067 0.673105 1.763173
1.554784 0.502516 1.458873
1.623030 0.581502 0.455186
1.638768 0.571268 0.493697
1.687234 0.534692 0.645224
1.714839 0.490266 0.862393
1.579466 0.627691 1.526913
1.628397 0.673341 1.763799
1.075818 0.773853 0.748160
1.107219 0.802032 0.752207
1.189656 0.425411 0.887023
1.239595 0.000000 0.827646
1.358793 0.000000 0.745181
1.356498 0.000000 0.779289
0.787337 0.968859 1.231878
0.827841 0.827841 0.827842
1.196529 0.266506 0.856971
1.313083 0.000000 0.796529
1.346988 0.000000 0.817098
1.348573 0.000000 0.817994
1.086526 0.781221 0.009931
1.544564 0.553409 0.433166
1.584776 0.655416 1.716695
1.507266 0.366092 1.172404
1.223612 0.000000 1.076689
1.267980 0.000000 0.985003
1.529249 0.611629 0.312967
1.591195 0.570146 0.446282
1.682646 0.476292 0.872455
1.604775 0.663626 1.738359
1.533639 0.445114 1.361334
1.437895 0.263345 1.156426
1.584154 0.597833 0.385581
1.621234 0.580854 0.454689
1.700395 0.518887 0.715024
1.615632 0.589650 1.379475
1.627073 0.672879 1.762371
1.552838 0.497559 1.450603
1.602081 0.591213 0.414920
1.623030 0.581527 0.455199
1.679364 0.541644 0.614520
1.714757 0.492781 0.849492
1.582017 0.624902 1.516018
1.628441 0.673353 1.763844
1.118647 0.476830 0.422122
1.019814 0.540815 0.329399
1.198180 0.465095 0.345462
1.251630 0.001670 0.744399
1.237447 0.000000 0.796724
1.353292 0.000000 0.623883
1.246330 0.511616 0.717390
1.029566 0.330822 0.271346
1.159427 0.348668 0.216441
1.225672 0.000000 0.763075
1.251286 0.000000 0.781027
1.374867 0.000000 0.622068
0.391152 0.887807 1.607705
0.383332 0.870269 1.575944
0.605740 0.605740 0.605741
1.052602 0.000000 0.638535
1.268064 0.000000 0.769138
1.153286 0.000000 0.699569
0.636890 0.953972 0.000000
0.871731 0.856013 0.000000
1.418900 0.508398 0.397955
1.453253 0.601021 1.574063
1.417542 0.353017 1.196489
1.166809 0.119571 0.931393
1.359438 0.691008 0.085191
1.412444 0.670405 0.142815
1.545075 0.553585 0.433306
1.628211 0.456413 0.873486
1.552102 0.641803 1.681425
1.326963 0.407142 1.213794
1.490111 0.640093 0.237938
1.517605 0.628540 0.276559
1.449307 0.519182 0.406465
1.527123 0.452996 0.691578
1.425468 0.544561 1.301871
1.453828 0.601229 1.574959
1.112456 0.117897 0.033240
0.975626 0.189246 0.000000
0.776066 0.195773 0.000000
1.251424 0.123803 0.000000
1.308327 0.014332 0.606517
1.249969 0.000000 0.765459
1.347490 0.096780 0.412641
1.049830 0.000000 0.000000
0.766740 0.175260 0.000000
1.243058 0.123004 0.000000
1.303962 0.012448 0.624359
1.246895 0.000000 0.772332
1.481390 0.297248 1.151052
1.467776 0.261819 1.012830
0.852971 0.000000 0.000000
1.052695 0.104130 0.000000
1.203687 0.002782 0.668990
1.071043 0.000000 0.679682
0.397101 0.901356 1.632154
0.392803 0.891587 1.614456
0.352267 0.799699 1.448040
0.383552 0.383553 0.383553
0.801483 0.000000 0.486253
0.766611 0.000000 0.464997
0.279482 1.068748 0.015429
0.334004 1.053549 0.000000
0.704958 0.876900 0.000000
1.274293 0.456575 0.357437
1.314245 0.543488 1.423697
0.856377 0.223522 0.735590
1.146885 0.771022 0.000000
1.181505 0.758603 0.000000
1.188500 0.627859 0.049680
1.016160 0.364073 0.284998
1.046715 0.330948 0.706222
1.019567 0.421660 1.104462
1.090108 0.000000 0.000000
1.035329 0.000000 0.000000
0.818561 0.110180 0.000000
0.848976 0.199127 0.000000
1.271062 0.125747 0.000000
1.329780 0.025249 0.511406
1.081820 0.000000 0.000000
1.092749 0.000000 0.000000
0.840934 0.085008 0.000000
0.842160 0.197151 0.000000
1.272278 0.125864 0.000000
1.328079 0.023973 0.522089
1.406492 0.142633 0.582567
1.373966 0.109390 0.475088
0.964284 0.000000 0.000000
0.745333 0.168047 0.000000
1.207994 0.119511 0.000000
1.153463 0.016090 0.498737
1.426460 0.351798 1.398077
1.440502 0.338080 1.354022
1.402143 0.257775 1.049766
0.665271 0.000000 0.000000
0.870570 0.086122 0.000000
0.761802 0.003334 0.407356
0.399621 0.907164 1.642787
0.399638 0.907201 1.642853
0.381037 0.865018 1.566192
0.317388 0.720575 1.304583
0.161389 0.161389 0.161389
0.300132 0.000000 0.182047
0.094896 1.113338 0.227588
0.111039 1.110204 0.200949
0.179829 0.973081 0.076247
0.378304 0.606418 0.000000
0.416792 0.149328 0.116898
0.418065 0.172858 0.452882
1.092781 0.000000 0.000000
1.093782 0.000000 0.000000
0.882696 0.038855 0.000000
0.800834 0.156645 0.000000
0.900825 0.199629 0.000000
1.273837 0.126018 0.000000
1.087839 0.000000 0.000000
1.092977 0.000000 0.000000
0.906253 0.014466 0.000000
0.801998 0.150850 0.000000
0.894925 0.199871 0.000000
1.274058 0.126043 0.000000
1.306684 0.044258 0.280600
1.269984 0.010017 0.184899
0.975784 0.000000 0.000000
0.731074 0.103093 0.000000
0.775958 0.178175 0.000000
1.137463 0.112520 0.000000
1.465681 0.213139 0.861991
1.459608 0.202775 0.819422
1.262749 0.132583 0.545351
0.684266 0.000000 0.000000
0.511489 0.117630 0.000000
0.797523 0.078907 0.000000
1.338141 0.414678 1.571936
1.350151 0.406970 1.554433
1.248678 0.332979 1.308575
0.922517 0.181060 0.737693
0.280634 0.000000 0.000000
0.327148 0.032363 0.000000
0.400032 0.908114 1.644612
0.400060 0.908177 1.644726
0.357194 0.810836 1.468106
0.250444 0.568545 1.029484
0.102722 0.233191 0.422262
0.000000 0.000000 0.000000
