assets/luts/VM Thermal Fahrenheit.cube
LUT_3D_SIZE 6
1.000091 1.000000 1.000091
0.816927 0.896398 0.537336
0.530166 0.711610 0.000000
0.125355 0.429713 0.000000
0.127449 0.436892 0.000000
0.127729 0.437918 0.000000
0.673366 0.996700 1.088468
0.653787 1.101954 0.753058
0.396857 0.882895 0.007789
0.123944 0.424872 0.000000
0.126685 0.434329 0.000000
0.127294 0.436367 0.000000
0.025699 0.948765 1.211426
0.050742 1.026126 1.008875
0.126682 1.248835 0.375275
0.132893 0.968171 0.000000
0.129776 0.659956 0.000000
0.125350 0.429639 0.000000
0.026198 0.967342 1.235091
0.026080 0.963005 1.229439
0.057548 1.053377 0.963895
0.127403 1.255843 0.377402
0.133078 1.022298 0.000000
0.132487 0.830281 0.000000
0.026411 0.975331 1.245279
0.026349 0.972839 1.242233
0.026067 0.962484 1.229037
0.075839 1.113633 0.822319
0.127717 1.258907 0.378303
0.132723 1.071919 0.007258
0.026446 0.976423 1.246688
0.026405 0.974955 1.244788
0.026241 0.968919 1.237201
0.025898 0.956384 1.221132
0.088591 1.152635 0.718355
0.127758 1.259418 0.378427
1.089881 0.742816 1.013005
1.093480 0.808655 0.727478
0.732873 0.647929 0.027846
0.337060 0.375236 0.000000
0.127366 0.436615 0.000000
0.127709 0.437756 0.000000
0.992607 0.898419 1.324192
0.827841 0.827841 0.827841
0.415246 0.613765 0.000000
0.124369 0.426452 0.000000
0.127600 0.437450 0.000000
0.127738 0.437948 0.000000
0.287786 0.878811 1.396574
0.025165 0.929112 1.186447
0.124354 1.225763 0.368382
0.131564 0.916807 0.000000
0.125205 0.466122 0.000000
0.125774 0.431106 0.000000
0.026154 0.965920 1.233164
0.025924 0.957272 1.222400
0.025360 0.936624 1.195766
0.125930 1.241242 0.372980
0.133153 1.009179 0.000000
0.132270 0.810060 0.000000
0.026389 0.974457 1.244189
0.026413 0.975321 1.245297
0.026122 0.964613 1.231704
0.072023 1.101767 0.853030
0.127660 1.258410 0.378156
0.132779 1.066552 0.000000
0.026426 0.975932 1.246072
0.026441 0.976512 1.246766
0.026274 0.970047 1.238730
0.025926 0.957443 1.222460
0.087304 1.148867 0.728959
0.127761 1.259443 0.378417
1.148557 0.411108 0.985138
1.158246 0.450845 0.813063
1.165155 0.480890 0.286135
0.814769 0.251152 0.000000
0.538648 0.330536 0.000000
0.180225 0.423622 0.000000
1.115379 0.502398 1.195207
1.062088 0.259302 0.884383
1.122985 0.366187 0.150851
0.752424 0.264152 0.000000
0.463122 0.350605 0.000000
0.127552 0.437232 0.000000
0.953228 0.695279 1.859903
0.934341 0.681514 1.823233
0.605740 0.605740 0.605740
0.099713 0.341801 0.000000
0.120105 0.411799 0.000000
0.109249 0.374516 0.000000
0.377992 0.869628 1.479170
0.217744 0.901460 1.352041
0.023119 0.853678 1.089992
0.114020 1.124045 0.337773
0.126040 0.879892 0.000000
0.111322 0.579491 0.000000
0.026295 0.970881 1.239691
0.026319 0.971727 1.240706
0.025174 0.929609 1.186939
0.024506 0.904784 1.155372
0.121770 1.200417 0.360744
0.114387 0.894432 0.000000
0.026373 0.973818 1.243390
0.026387 0.974275 1.244168
0.023610 0.871845 1.113169
0.023270 0.859316 1.097185
0.071996 1.007762 0.699888
0.114060 1.124448 0.337892
1.158767 0.016087 0.905658
1.174779 0.047411 0.695953
1.192589 0.003131 0.172359
1.200730 0.148111 0.000000
0.906287 0.234293 0.000000
0.694870 0.290995 0.000000
1.125820 0.076489 1.266783
1.106035 0.000000 0.798524
1.176435 0.000000 0.219305
1.192646 0.147131 0.000000
0.890562 0.238958 0.000000
0.674678 0.296262 0.000000
1.080538 0.372335 1.588943
1.080633 0.324780 1.529719
0.898788 0.000000 0.648964
1.009987 0.124584 0.000000
0.753981 0.248846 0.000000
0.482421 0.281377 0.000000
0.967674 0.705896 1.888429
0.957221 0.698259 1.867798
0.858497 0.626171 1.675013
0.383552 0.383553 0.383552
0.075924 0.260282 0.000000
0.072612 0.248881 0.000000
0.526511 0.836226 1.591769
0.496565 0.844304 1.571103
0.234759 0.867754 1.327822
0.020765 0.766665 0.979058
0.103122 1.016478 0.305427
0.075758 0.541100 0.000000
0.026260 0.969813 1.238191
0.026273 0.970095 1.238490
0.023495 0.867620 1.107756
0.016555 0.611342 0.780581
0.029114 0.638196 0.659699
0.080000 0.788631 0.236919
1.148518 0.000000 0.829118
1.157244 0.000000 0.747513
1.197108 0.000000 0.380336
1.214381 0.031445 0.112151
1.219632 0.150442 0.000000
0.970691 0.218245 0.000000
1.142124 0.000000 0.824570
1.151406 0.000000 0.831214
1.195332 0.000000 0.427618
1.215556 0.025182 0.126371
1.220629 0.150570 0.000000
0.964138 0.220047 0.000000
1.126073 0.147952 1.356399
1.131768 0.098203 1.300105
1.016071 0.000000 0.733512
1.116446 0.000000 0.183354
1.158914 0.142962 0.000000
0.814622 0.200051 0.000000
1.073724 0.430717 1.654868
1.077550 0.416954 1.641527
1.039416 0.321886 1.483425
0.700961 0.000000 0.506086
0.835112 0.103030 0.000000
0.490480 0.152104 0.000000
0.974152 0.710481 1.900475
0.974192 0.710420 1.900529
0.928704 0.677318 1.811816
0.773525 0.564228 1.509430
0.161389 0.161389 0.161389
0.028428 0.097466 0.000000
0.632055 0.808297 1.667169
0.621300 0.811268 1.659294
0.505543 0.737679 1.447281
0.208822 0.556308 0.911864
0.006790 0.250753 0.320165
0.032803 0.323343 0.097176
1.151386 0.000000 0.831193
1.150347 0.000000 0.830587
1.187839 0.000000 0.508386
1.207804 0.000000 0.277106
1.219049 0.054426 0.061353
1.222263 0.150764 0.000000
1.147607 0.000000 0.828725
1.151517 0.000000 0.831415
1.183674 0.000000 0.548911
1.206865 0.000000 0.291752
1.219010 0.051973 0.066852
1.222336 0.150780 0.000000
1.139471 0.002367 1.188517
1.141571 0.000000 1.128877
1.028060 0.000000 0.742206
1.072063 0.000000 0.329672
1.087322 0.035608 0.083730
1.091236 0.134614 0.000000
1.111918 0.256368 1.476912
1.114515 0.240781 1.460098
1.005271 0.140897 1.221827
0.720870 0.000000 0.520473
0.760062 0.001397 0.111177
0.765179 0.094395 0.000000
1.060004 0.483759 1.707086
1.061808 0.477876 1.701421
0.954974 0.401382 1.495135
0.683402 0.226356 0.993617
0.295659 0.000000 0.213475
0.313875 0.038718 0.000000
0.974951 0.711038 1.902095
0.975022 0.711089 1.902186
0.870578 0.634898 1.698468
0.610382 0.445218 1.191014
0.250368 0.182611 0.488537
0.000000 0.000000 0.000000
