assets/luts/VM Thermal Grind.cube
LUT_3D_SIZE 16
1.000091 1.000000 1.000000
1.004270 0.969554 1.023903
1.012579 0.874406 1.090612
1.014240 0.776057 1.148667
1.009719 0.673327 1.199657
0.998950 0.562642 1.245078
0.980128 0.437101 1.286766
0.947151 0.272900 1.327843
0.871204 0.000000 1.380125
0.880249 0.000000 1.394404
0.886907 0.000000 1.405139
0.891753 0.000000 1.412780
0.894857 0.000000 1.417493
0.896575 0.000000 1.420063
0.896880 0.000000 1.420969
0.896894 0.000000 1.420985
1.011139 0.991183 0.955896
1.040520 0.984727 1.004974
1.044977 0.887068 1.077615
1.039302 0.785708 1.140911
1.031103 0.681054 1.194607
1.019060 0.569696 1.241706
1.001743 0.444310 1.284073
0.978356 0.282659 1.325797
0.870228 0.000000 1.378844
0.879409 0.000000 1.393334
0.886309 0.000000 1.404176
0.891321 0.000000 1.412144
0.894422 0.000000 1.417100
0.896090 0.000000 1.419873
0.896714 0.000000 1.420580
0.896688 0.000000 1.420607
1.044271 0.960227 0.811475
1.072067 0.955135 0.855884
1.174762 0.933674 1.020754
1.141421 0.820895 1.107642
1.118586 0.710035 1.173206
1.101585 0.595754 1.226864
1.089620 0.469951 1.273436
1.103301 0.309679 1.318743
1.040545 0.078273 1.364744
0.876620 0.000000 1.388561
0.883937 0.000000 1.400440
0.889304 0.000000 1.408916
0.892821 0.000000 1.414335
0.894808 0.000000 1.417440
0.895572 0.000000 1.418662
0.895732 0.000000 1.418964
1.076626 0.921233 0.646008
1.100996 0.917413 0.683621
1.191199 0.901842 0.821748
1.335344 0.870575 1.038213
1.286160 0.751889 1.129880
1.260775 0.631905 1.197773
1.263529 0.499465 1.254118
1.383563 0.307269 1.311900
1.232537 0.203125 1.343631
0.870117 0.000000 1.378727
0.878926 0.000000 1.392505
0.885298 0.000000 1.402521
0.889487 0.000000 1.409222
0.892114 0.000000 1.413112
0.893122 0.000000 1.415182
0.893729 0.000000 1.416054
1.110860 0.865677 0.431280
1.138960 0.862139 0.472922
1.237868 0.847693 0.615738
1.389980 0.818151 0.823218
1.592795 0.764625 1.063392
1.581387 0.626480 1.159139
1.612467 0.477832 1.232593
1.501366 0.391799 1.279402
1.379009 0.302878 1.316037
1.229140 0.199963 1.346131
0.870930 0.000000 1.379813
0.878833 0.000000 1.392181
0.884163 0.000000 1.400526
0.887685 0.000000 1.406224
0.889449 0.000000 1.409154
0.890608 0.000000 1.410978
1.166195 0.726749 0.000000
1.165154 0.726019 0.000000
1.410986 0.714376 0.345449
1.565426 0.702460 0.606070
1.702143 0.687154 0.848739
1.828086 0.667479 1.086197
1.725717 0.570560 1.172596
1.620001 0.481950 1.233764
1.510645 0.397185 1.279653
1.393155 0.311734 1.315346
1.257606 0.218185 1.343801
1.046173 0.079840 1.369387
0.876335 0.000000 1.388597
0.881161 0.000000 1.395903
0.884164 0.000000 1.400527
0.886266 0.000000 1.403874
1.177557 0.733834 0.000000
1.176638 0.733291 0.000000
1.173077 0.731097 0.000000
1.343593 0.720307 0.229666
1.563741 0.704964 0.597671
1.709083 0.688727 0.855752
1.832783 0.669271 1.089175
1.733447 0.575385 1.172685
1.631406 0.489491 1.232466
1.527020 0.408206 1.276927
1.418517 0.328756 1.310935
1.301134 0.246984 1.337447
1.160237 0.153106 1.359038
0.872647 0.000000 1.382569
0.876892 0.000000 1.389403
0.880043 0.000000 1.394270
1.186891 0.739601 0.000000
1.186120 0.739243 0.000000
1.183526 0.737479 0.000000
1.177934 0.734042 0.000000
1.322064 0.723158 0.190395
1.572711 0.706056 0.608436
1.717831 0.689618 0.866516
1.837103 0.670844 1.091662
1.741951 0.580870 1.171557
1.644701 0.498789 1.229065
1.547106 0.422378 1.271849
1.448603 0.349721 1.304244
1.348845 0.279334 1.329116
1.244289 0.208353 1.348160
1.124131 0.129370 1.363477
0.872431 0.000000 1.382096
1.194461 0.744388 0.000000
1.193998 0.744101 0.000000
1.191787 0.742713 0.000000
1.187577 0.740060 0.000000
1.180723 0.735758 0.000000
1.349984 0.723318 0.231837
1.587620 0.706303 0.630021
1.727329 0.690159 0.879257
1.840777 0.672073 1.093747
1.750234 0.586760 1.169544
1.658912 0.509243 1.224504
1.568446 0.438005 1.265426
1.480446 0.372329 1.295999
1.394969 0.311167 1.319427
1.312295 0.254074 1.336782
1.226757 0.196619 1.350880
1.200425 0.748129 0.000000
1.200166 0.747835 0.000000
1.198397 0.746773 0.000000
1.194939 0.744601 0.000000
1.189502 0.741191 0.000000
1.181660 0.736355 0.000000
1.395823 0.722010 0.303848
1.604844 0.705896 0.657082
1.736509 0.690285 0.892781
1.843434 0.673064 1.095387
1.758034 0.592582 1.166931
1.672853 0.519847 1.219122
1.590130 0.454096 1.257861
1.511120 0.394543 1.287129
1.437249 0.340953 1.308822
1.366010 0.290954 1.325951
1.205079 0.751015 0.000000
1.204716 0.750750 0.000000
1.203408 0.750014 0.000000
1.200644 0.748248 0.000000
1.196191 0.745473 0.000000
1.189918 0.741592 0.000000
1.181441 0.736298 0.000000
1.442241 0.720086 0.377926
1.623179 0.704964 0.686821
1.745320 0.690065 0.906547
1.845627 0.673819 1.096685
1.765385 0.598162 1.163957
1.686465 0.530471 1.213127
1.610615 0.469732 1.249858
1.540060 0.415772 1.277453
1.473152 0.366694 1.298847
1.208286 0.752954 0.000000
1.208048 0.752913 0.000000
1.206901 0.752069 0.000000
1.204708 0.750715 0.000000
1.201191 0.748577 0.000000
1.195984 0.745249 0.000000
1.189157 0.741070 0.000000
1.180359 0.735590 0.000000
1.484023 0.717850 0.446242
1.641036 0.703856 0.716439
1.753549 0.689700 0.919612
1.846922 0.674416 1.097551
1.772410 0.603668 1.160405
1.699010 0.540604 1.206856
1.629809 0.484822 1.241688
1.565050 0.434630 1.268452
1.210439 0.754297 0.000000
1.210128 0.754149 0.000000
1.209181 0.753531 0.000000
1.207357 0.752483 0.000000
1.204402 0.750528 0.000000
1.200224 0.747947 0.000000
1.194541 0.744396 0.000000
1.187453 0.739902 0.000000
1.178534 0.734444 0.000000
1.521549 0.715399 0.508253
1.658350 0.702372 0.745474
1.761256 0.689034 0.932774
1.848047 0.674804 1.098089
1.777879 0.608498 1.157005
1.710507 0.550132 1.200653
1.646381 0.497908 1.234010
1.211503 0.754873 0.000000
1.211307 0.754873 0.000000
1.210584 0.754389 0.000000
1.209015 0.753431 0.000000
1.206538 0.751865 0.000000
1.203073 0.749641 0.000000
1.198323 0.746705 0.000000
1.192378 0.743075 0.000000
1.184995 0.738468 0.000000
1.332647 0.727491 0.195493
1.553815 0.712919 0.562667
1.674037 0.700833 0.772742
1.767758 0.688350 0.944360
1.848811 0.674997 1.098417
1.783331 0.613411 1.153207
1.720763 0.558708 1.194606
1.211822 0.755143 0.000000
1.211631 0.754997 0.000000
1.210939 0.754632 0.000000
1.209685 0.753856 0.000000
1.207554 0.752522 0.000000
1.204698 0.750709 0.000000
1.200722 0.748180 0.000000
1.195795 0.745192 0.000000
1.189712 0.741412 0.000000
1.182371 0.736856 0.000000
1.422105 0.722668 0.341345
1.582117 0.710499 0.611521
1.687854 0.699281 0.797881
1.774197 0.687531 0.956082
1.848598 0.675039 1.098530
1.787798 0.617391 1.149948
1.211828 0.755146 0.000000
1.211673 0.755023 0.000000
1.211066 0.754756 0.000000
1.209928 0.754012 0.000000
1.208198 0.752928 0.000000
1.205762 0.751419 0.000000
1.202494 0.749391 0.000000
1.198213 0.746701 0.000000
1.193085 0.743432 0.000000
1.186902 0.739687 0.000000
1.179638 0.735116 0.000000
1.475810 0.719230 0.430749
1.605405 0.708212 0.652044
1.700304 0.697671 0.820300
1.779359 0.686662 0.965550
1.848600 0.675040 1.098490
0.936486 0.990471 0.970935
0.964485 0.984337 1.019026
0.979311 0.886801 1.086838
0.989848 0.785277 1.145945
0.989805 0.680766 1.197674
0.980598 0.569470 1.243399
0.961342 0.444137 1.284999
0.921683 0.282480 1.325614
0.871237 0.000000 1.379879
0.880056 0.000000 1.394280
0.886798 0.000000 1.405025
0.891631 0.000000 1.412580
0.894901 0.000000 1.417541
0.896480 0.000000 1.420014
0.896806 0.000000 1.420889
0.896831 0.000000 1.420916
0.970678 1.006205 0.950733
0.976081 0.976082 0.976082
1.013862 0.840003 1.111993
1.013587 0.748562 1.163097
1.008133 0.652447 1.208912
0.996694 0.545763 1.251342
0.977457 0.421587 1.291128
0.942770 0.253417 1.331839
0.871923 0.000000 1.381125
0.880746 0.000000 1.395241
0.887167 0.000000 1.405577
0.891964 0.000000 1.413035
0.894966 0.000000 1.417744
0.896502 0.000000 1.419996
0.896884 0.000000 1.420974
0.896919 0.000000 1.420833
1.008083 0.973973 0.806814
1.046123 0.958410 0.802715
1.176741 0.933063 1.020961
1.132020 0.807804 1.117074
1.105830 0.694384 1.182134
1.086981 0.579837 1.234088
1.073121 0.453821 1.279279
1.082962 0.290061 1.323678
0.913512 0.000000 1.373046
0.877525 0.000000 1.390250
0.884801 0.000000 1.401747
0.889918 0.000000 1.409858
0.893306 0.000000 1.415199
0.895021 0.000000 1.417959
0.895792 0.000000 1.419080
0.896048 0.000000 1.419487
1.046268 0.933013 0.642063
1.077746 0.919631 0.639686
1.180716 0.903016 0.799905
1.336984 0.869743 1.038392
1.281705 0.746078 1.134041
1.253300 0.623765 1.202420
1.254592 0.489862 1.258207
1.369614 0.297458 1.315375
1.212312 0.189650 1.346611
0.871187 0.000000 1.380160
0.879776 0.000000 1.393620
0.885852 0.000000 1.403338
0.889896 0.000000 1.409825
0.892286 0.000000 1.413670
0.893561 0.000000 1.415308
0.893988 0.000000 1.416100
1.077587 0.879000 0.426875
1.111718 0.863857 0.424717
1.223200 0.848655 0.587832
1.385684 0.818300 0.812038
1.596335 0.762965 1.063679
1.580309 0.622715 1.161397
1.607249 0.473608 1.235306
1.494120 0.386458 1.281852
1.369797 0.296385 1.318238
1.215368 0.190790 1.348250
0.871635 0.000000 1.380828
0.879361 0.000000 1.392943
0.884635 0.000000 1.401345
0.887793 0.000000 1.406498
0.889582 0.000000 1.409340
0.890870 0.000000 1.411189
1.165830 0.726602 0.000000
1.166449 0.726989 0.000000
1.380108 0.716179 0.294697
1.554703 0.703493 0.587929
1.698483 0.687674 0.842240
1.828143 0.667499 1.086220
1.723718 0.568842 1.173781
1.616764 0.479284 1.235397
1.505941 0.393725 1.281282
1.387067 0.307481 1.316653
1.249074 0.212465 1.345016
1.021054 0.063826 1.371237
0.876829 0.000000 1.389173
0.881404 0.000000 1.396426
0.884368 0.000000 1.401075
0.886356 0.000000 1.404211
1.177229 0.733524 0.000000
1.177700 0.733943 0.000000
1.174019 0.731573 0.000000
1.308151 0.722105 0.172474
1.556882 0.705538 0.585834
1.706908 0.689015 0.851611
1.832819 0.669360 1.089189
1.732470 0.574283 1.173531
1.629187 0.487644 1.233357
1.523804 0.405883 1.277988
1.414437 0.325929 1.311896
1.295848 0.243500 1.338430
1.152290 0.147829 1.360051
0.872995 0.000000 1.382781
0.877325 0.000000 1.389778
0.880375 0.000000 1.394398
1.186573 0.739486 0.000000
1.186962 0.739742 0.000000
1.184230 0.737957 0.000000
1.178723 0.734489 0.000000
1.292045 0.724630 0.141902
1.568239 0.706517 0.600742
1.716624 0.689903 0.863857
1.837130 0.670854 1.091673
1.741392 0.580139 1.172079
1.643489 0.497577 1.229859
1.544779 0.420823 1.272532
1.445994 0.347831 1.304929
1.345747 0.277132 1.329654
1.240301 0.205616 1.348836
1.117888 0.125302 1.364268
0.872571 0.000000 1.382511
1.194313 0.744247 0.000000
1.194543 0.744421 0.000000
1.192396 0.743092 0.000000
1.188098 0.740429 0.000000
1.181171 0.736027 0.000000
1.334282 0.724126 0.206674
1.584597 0.706491 0.624936
1.726525 0.690290 0.877354
1.840793 0.672078 1.093704
1.749818 0.586205 1.169918
1.657921 0.508416 1.225033
1.567204 0.436937 1.265941
1.478556 0.371045 1.296652
1.392818 0.309702 1.319728
1.309909 0.252416 1.337131
1.223640 0.194556 1.351395
1.200313 0.748101 0.000000
1.200539 0.748092 0.000000
1.198870 0.747022 0.000000
1.195383 0.745037 0.000000
1.189915 0.741589 0.000000
1.182017 0.736655 0.000000
1.387839 0.722398 0.291038
1.602966 0.706048 0.653651
1.735883 0.690348 0.891557
1.843446 0.673068 1.095392
1.758007 0.592206 1.167114
1.672194 0.519266 1.219570
1.589049 0.453385 1.258269
1.509928 0.393702 1.287421
1.435692 0.339965 1.309239
1.364166 0.289802 1.326203
1.204979 0.750954 0.000000
1.205119 0.751039 0.000000
1.203786 0.750024 0.000000
1.200922 0.748352 0.000000
1.196486 0.745587 0.000000
1.190127 0.741736 0.000000
1.181706 0.736387 0.000000
1.437795 0.720344 0.370833
1.622143 0.705132 0.684397
1.745047 0.690162 0.905623
1.845636 0.673822 1.096689
1.765068 0.597899 1.164101
1.685853 0.530036 1.213452
1.609888 0.469211 1.250153
1.539188 0.415136 1.277734
1.472019 0.365941 1.299193
1.208099 0.753039 0.000000
1.208306 0.752967 0.000000
1.207184 0.752330 0.000000
1.205004 0.750970 0.000000
1.201331 0.748628 0.000000
1.196144 0.745430 0.000000
1.189389 0.741105 0.000000
1.180540 0.735763 0.000000
1.481267 0.718086 0.441856
1.640264 0.703950 0.714717
1.753039 0.689780 0.918891
1.846923 0.674417 1.097551
1.771913 0.603479 1.160578
1.698577 0.540261 1.207157
1.629338 0.484360 1.241848
1.564245 0.434081 1.268621
1.210324 0.754339 0.000000
1.210448 0.754302 0.000000
1.209386 0.753669 0.000000
1.207592 0.752501 0.000000
1.204721 0.750662 0.000000
1.200291 0.748071 0.000000
1.194761 0.744561 0.000000
1.187559 0.740043 0.000000
1.178725 0.734491 0.000000
1.519659 0.715530 0.505451
1.657470 0.702483 0.744185
1.761056 0.689092 0.932360
1.848048 0.674805 1.098089
1.777704 0.608386 1.157194
1.710263 0.549863 1.200788
1.646267 0.497561 1.234158
1.211389 0.754874 0.000000
1.211507 0.754875 0.000000
1.210745 0.754393 0.000000
1.209111 0.753485 0.000000
1.206670 0.751987 0.000000
1.203115 0.749759 0.000000
1.198404 0.746871 0.000000
1.192446 0.743174 0.000000
1.185247 0.738616 0.000000
1.327177 0.727812 0.186757
1.552615 0.713032 0.560832
1.673186 0.700881 0.771723
1.767364 0.688396 0.943955
1.848811 0.674997 1.098417
1.783088 0.613329 1.153311
1.720499 0.558447 1.194699
1.211787 0.755093 0.000000
1.211821 0.755142 0.000000
1.211105 0.754779 0.000000
1.209846 0.753885 0.000000
1.207757 0.752618 0.000000
1.204867 0.750843 0.000000
1.200928 0.748367 0.000000
1.195925 0.745196 0.000000
1.189746 0.741521 0.000000
1.182441 0.736869 0.000000
1.419892 0.722858 0.337815
1.581429 0.710542 0.610141
1.687283 0.699196 0.797346
1.773885 0.687565 0.955712
1.848597 0.675039 1.098530
1.787688 0.617333 1.150000
1.211805 0.755104 0.000000
1.211838 0.755152 0.000000
1.211202 0.754839 0.000000
1.210115 0.754140 0.000000
1.208449 0.753057 0.000000
1.205906 0.751428 0.000000
1.202584 0.749394 0.000000
1.198390 0.746766 0.000000
1.193250 0.743585 0.000000
1.186964 0.739828 0.000000
1.179666 0.735144 0.000000
1.474632 0.719219 0.428554
1.604915 0.708270 0.651104
1.700261 0.697732 0.819835
1.779301 0.686692 0.965264
1.848604 0.675042 1.098492
0.746124 0.958309 0.881709
0.768932 0.953368 0.921357
0.853470 0.932291 1.071937
0.895313 0.819868 1.135616
0.912073 0.709286 1.189589
0.911133 0.595171 1.236640
0.891621 0.469830 1.278759
0.836730 0.312984 1.318401
0.681627 0.051393 1.363329
0.879861 0.000000 1.393723
0.886785 0.000000 1.404641
0.891587 0.000000 1.412226
0.894462 0.000000 1.417139
0.896268 0.000000 1.419896
0.896807 0.000000 1.420800
0.896796 0.000000 1.420879
0.772661 0.972289 0.864921
0.658434 0.934556 0.834876
0.822458 0.917161 1.085015
0.896104 0.794880 1.148936
0.918920 0.686967 1.199123
0.918722 0.575395 1.243569
0.899398 0.450888 1.284068
0.842243 0.290311 1.323177
0.729376 0.031083 1.368739
0.880537 0.000000 1.394548
0.886899 0.000000 1.405133
0.891672 0.000000 1.412627
0.894799 0.000000 1.417485
0.896355 0.000000 1.419806
0.896800 0.000000 1.420882
0.896884 0.000000 1.420974
0.873706 1.024260 0.788735
0.869597 1.024944 0.781847
0.901823 0.901823 0.901823
0.956486 0.732309 1.082993
0.981862 0.603303 1.195491
0.981778 0.487535 1.260880
0.964887 0.355358 1.308805
0.916098 0.146114 1.350883
0.875046 0.000000 1.386071
0.882706 0.000000 1.398438
0.888524 0.000000 1.407693
0.892723 0.000000 1.414182
0.895295 0.000000 1.418439
0.896623 0.000000 1.420537
0.896893 0.000000 1.420984
0.896995 0.000000 1.420916
0.934808 0.976062 0.626804
0.949345 0.969552 0.623030
1.046877 0.903276 0.648641
1.283511 0.864968 1.015991
1.239985 0.713980 1.148505
1.211982 0.579755 1.225602
1.206574 0.439004 1.278617
1.293270 0.244636 1.331586
1.079180 0.102677 1.362236
0.875873 0.000000 1.387568
0.883276 0.000000 1.399336
0.888471 0.000000 1.407591
0.891979 0.000000 1.413046
0.893702 0.000000 1.416024
0.894447 0.000000 1.417128
0.895105 0.000000 1.417912
0.963634 0.923971 0.410353
0.982032 0.915518 0.406784
1.115212 0.855984 0.396699
1.357258 0.819886 0.748151
1.611618 0.756548 1.065082
1.571408 0.605123 1.172791
1.580124 0.452424 1.247380
1.458639 0.360339 1.293082
1.323648 0.264269 1.328421
1.139221 0.140644 1.358342
0.874763 0.000000 1.385740
0.881756 0.000000 1.396823
0.886379 0.000000 1.404229
0.889242 0.000000 1.408869
0.890843 0.000000 1.411169
0.891836 0.000000 1.412844
0.868259 0.853525 0.000000
0.905078 0.838232 0.000000
1.167400 0.727558 0.000000
1.496515 0.708474 0.487915
1.680764 0.690065 0.809660
1.827916 0.667464 1.086252
1.714449 0.560783 1.180019
1.600481 0.466534 1.242978
1.484193 0.377539 1.288568
1.358501 0.287489 1.323292
1.207064 0.184511 1.351265
0.871931 0.000000 1.381658
0.878615 0.000000 1.391982
0.882794 0.000000 1.398659
0.885497 0.000000 1.402758
0.887210 0.000000 1.405610
1.176005 0.732836 0.000000
1.176445 0.733080 0.000000
1.178289 0.734297 0.000000
1.170271 0.729271 0.000000
1.523025 0.708676 0.527469
1.696592 0.690445 0.832528
1.832946 0.669407 1.089241
1.726564 0.569298 1.177368
1.619254 0.479500 1.238210
1.509828 0.395430 1.282852
1.396492 0.313167 1.316470
1.271956 0.227291 1.342760
1.111700 0.121555 1.364259
0.874246 0.000000 1.384896
0.878303 0.000000 1.391385
0.881294 0.000000 1.396044
1.185600 0.738837 0.000000
1.185953 0.739103 0.000000
1.187296 0.739889 0.000000
1.181463 0.736319 0.000000
1.172017 0.730448 0.000000
1.547426 0.708443 0.564636
1.710091 0.690862 0.851965
1.837192 0.670885 1.091707
1.737135 0.576890 1.174691
1.636653 0.492236 1.233228
1.535594 0.413803 1.276042
1.434437 0.339394 1.308235
1.331335 0.267230 1.332741
1.221709 0.193230 1.351598
1.087313 0.105631 1.367276
0.873598 0.000000 1.383793
1.193573 0.743821 0.000000
1.193691 0.743986 0.000000
1.194823 0.744618 0.000000
1.190328 0.741683 0.000000
1.183088 0.737359 0.000000
1.172818 0.730946 0.000000
1.571463 0.707897 0.601600
1.722058 0.690958 0.869465
1.840851 0.672100 1.093728
1.747010 0.583961 1.171790
1.653246 0.504628 1.227452
1.560632 0.432109 1.268432
1.470793 0.365369 1.298858
1.383770 0.303320 1.321854
1.299135 0.245144 1.339155
1.209749 0.185348 1.353287
1.199752 0.747589 0.000000
1.200010 0.747730 0.000000
1.200670 0.748243 0.000000
1.197225 0.746133 0.000000
1.191452 0.742551 0.000000
1.183473 0.737431 0.000000
1.347210 0.724658 0.224444
1.594198 0.707000 0.638166
1.732965 0.690863 0.886108
1.843481 0.673081 1.095406
1.755781 0.590584 1.168483
1.668895 0.516510 1.221334
1.584635 0.449956 1.260128
1.504704 0.389689 1.289147
1.429747 0.335586 1.310679
1.357071 0.284772 1.328031
1.204487 0.750623 0.000000
1.204672 0.750633 0.000000
1.205133 0.750981 0.000000
1.202346 0.749300 0.000000
1.197825 0.746517 0.000000
1.191446 0.742453 0.000000
1.182815 0.737084 0.000000
1.417687 0.721806 0.337216
1.615996 0.705772 0.673810
1.742954 0.690411 0.901832
1.845657 0.673829 1.096697
1.763495 0.596682 1.165041
1.683502 0.528038 1.214731
1.606603 0.466605 1.251709
1.535117 0.412323 1.279273
1.467659 0.362735 1.300542
1.207783 0.752676 0.000000
1.208004 0.752810 0.000000
1.208403 0.753028 0.000000
1.206014 0.751614 0.000000
1.202439 0.749357 0.000000
1.197257 0.746064 0.000000
1.190206 0.741685 0.000000
1.181373 0.736190 0.000000
1.469759 0.718875 0.422248
1.635981 0.704356 0.707364
1.751770 0.689906 0.916094
1.846938 0.674422 1.097557
1.770757 0.602517 1.161208
1.696603 0.538789 1.208046
1.626979 0.482380 1.243007
1.561398 0.431916 1.269591
1.209953 0.754028 0.000000
1.210002 0.754056 0.000000
1.210399 0.754272 0.000000
1.208458 0.753037 0.000000
1.205496 0.751281 0.000000
1.201242 0.748537 0.000000
1.195479 0.745114 0.000000
1.188247 0.740434 0.000000
1.179328 0.734858 0.000000
1.512398 0.716105 0.492869
1.654452 0.702771 0.738860
1.759726 0.689338 0.930064
1.848053 0.674807 1.098091
1.777067 0.607771 1.157649
1.708977 0.548739 1.201474
1.644341 0.496074 1.234962
1.211108 0.754781 0.000000
1.211132 0.754796 0.000000
1.211525 0.754886 0.000000
1.209959 0.753954 0.000000
1.207396 0.752433 0.000000
1.203866 0.750134 0.000000
1.199183 0.747345 0.000000
1.193161 0.743504 0.000000
1.185699 0.738886 0.000000
1.299607 0.729051 0.142187
1.547803 0.713503 0.552391
1.671027 0.701192 0.767874
1.766565 0.688413 0.942366
1.848813 0.674998 1.098417
1.782715 0.612764 1.153683
1.719307 0.557583 1.195325
1.211587 0.754927 0.000000
1.211592 0.754930 0.000000
1.211823 0.755143 0.000000
1.210502 0.754339 0.000000
1.208434 0.753047 0.000000
1.205315 0.751169 0.000000
1.201477 0.748709 0.000000
1.196384 0.745650 0.000000
1.190263 0.741623 0.000000
1.182923 0.737140 0.000000
1.410156 0.723488 0.321918
1.577981 0.710978 0.604305
1.686002 0.699474 0.794372
1.773551 0.687592 0.954591
1.848597 0.675039 1.098530
1.787096 0.616900 1.150329
1.211582 0.754925 0.000000
1.211592 0.754973 0.000000
1.211925 0.755175 0.000000
1.210752 0.754398 0.000000
1.208945 0.753390 0.000000
1.206393 0.751889 0.000000
1.203142 0.749683 0.000000
1.198893 0.747044 0.000000
1.193597 0.743829 0.000000
1.187468 0.739915 0.000000
1.180066 0.735288 0.000000
1.468897 0.719658 0.418945
1.602661 0.708536 0.646628
1.698832 0.697831 0.817386
1.778461 0.686790 0.964391
1.848621 0.675048 1.098499
0.562224 0.922030 0.792261
0.578115 0.918559 0.820822
0.639395 0.904325 0.931522
0.737983 0.874984 1.117555
0.782295 0.755342 1.175821
0.795302 0.636155 1.225061
0.779912 0.508797 1.268394
0.714514 0.352556 1.308199
0.531814 0.115936 1.349583
0.686703 0.052585 1.376667
0.886257 0.000000 1.403868
0.891132 0.000000 1.411639
0.894268 0.000000 1.416785
0.895897 0.000000 1.419590
0.896373 0.000000 1.420194
0.896592 0.000000 1.420504
0.580065 0.932517 0.780005
0.440300 0.895404 0.731358
0.568943 0.887612 0.902291
0.715083 0.863267 1.125518
0.775370 0.739881 1.183079
0.793593 0.620842 1.230926
0.779325 0.493706 1.272885
0.709296 0.333822 1.312043
0.549043 0.108772 1.352348
0.717886 0.039291 1.379881
0.886564 0.000000 1.404224
0.891356 0.000000 1.412197
0.894393 0.000000 1.416982
0.895918 0.000000 1.419612
0.896545 0.000000 1.420379
0.896676 0.000000 1.420595
0.649327 0.973304 0.725839
0.613027 0.964837 0.713299
0.519112 0.863697 0.739265
0.699094 0.832510 1.069097
0.775126 0.685266 1.177088
0.801719 0.557871 1.244119
0.785912 0.423608 1.292132
0.668828 0.229214 1.330896
0.646279 0.068027 1.365374
0.881984 0.000000 1.397267
0.888009 0.000000 1.406868
0.892282 0.000000 1.413610
0.895056 0.000000 1.417866
0.896328 0.000000 1.419777
0.896660 0.000000 1.420578
0.896772 0.000000 1.420736
0.758998 1.041112 0.599729
0.755859 1.041507 0.594552
0.757395 1.015910 0.611324
0.827841 0.827841 0.827842
0.899116 0.631878 1.049910
0.914093 0.476308 1.161237
0.907479 0.313499 1.242851
0.837410 0.000000 1.326641
0.858256 0.000000 1.359550
0.873386 0.000000 1.383575
0.884872 0.000000 1.401589
0.893723 0.000000 1.416048
0.895990 0.000000 1.419377
0.896799 0.000000 1.420881
0.896893 0.000000 1.420984
0.896982 0.000000 1.420901
0.796423 0.987459 0.381704
0.802092 0.984087 0.376760
0.837881 0.965071 0.356617
1.032337 0.832280 0.477843
1.375652 0.776106 0.992441
1.314608 0.606561 1.126158
1.459738 0.387539 1.227208
1.331095 0.286964 1.283238
1.162504 0.167213 1.327391
0.863284 0.000000 1.367635
0.876150 0.000000 1.387926
0.886554 0.000000 1.404217
0.890257 0.000000 1.410305
0.892142 0.000000 1.413323
0.893083 0.000000 1.415139
0.893682 0.000000 1.416003
0.675346 0.933497 0.000000
0.689113 0.928193 0.000000
0.764439 0.897856 0.000000
1.126451 0.701987 0.000000
1.583962 0.673854 0.704959
1.777188 0.648953 1.056110
1.652366 0.529635 1.164070
1.533364 0.429410 1.234087
1.411151 0.334851 1.284850
1.272797 0.235231 1.324328
1.063680 0.094641 1.359015
0.876088 0.000000 1.387785
0.882115 0.000000 1.397391
0.885754 0.000000 1.403117
0.887593 0.000000 1.406250
0.889070 0.000000 1.408616
0.935506 0.834405 0.000000
0.968671 0.820278 0.000000
1.175605 0.732597 0.000000
1.153267 0.718670 0.000000
1.394415 0.701441 0.352798
1.640658 0.680140 0.774353
1.799479 0.657068 1.069209
1.686437 0.549610 1.166208
1.575245 0.455632 1.231801
1.463206 0.368297 1.280336
1.345957 0.281945 1.318299
1.210444 0.187019 1.350203
0.921743 0.001072 1.378164
0.876907 0.000000 1.389233
0.880472 0.000000 1.394880
0.883064 0.000000 1.398994
1.183746 0.737725 0.000000
1.184106 0.737941 0.000000
1.185332 0.738641 0.000000
1.168997 0.728526 0.000000
1.158956 0.722234 0.000000
1.473611 0.701777 0.470458
1.670302 0.682025 0.813793
1.809830 0.660744 1.075213
