assets/luts/VM Thermal Negative.cube
LUT_3D_SIZE 6
1.000000 1.000000 1.000000
0.894944 0.894944 0.894944
0.789828 0.789828 0.789828
0.684777 0.684777 0.684777
0.579718 0.579718 0.579718
0.475027 0.475027 0.475027
0.825848 0.825848 0.825848
0.805866 0.805866 0.805866
0.741942 0.741942 0.741942
0.655136 0.655136 0.655136
0.559313 0.559313 0.559313
0.459896 0.459896 0.459896
0.651620 0.651620 0.651620
0.643618 0.643618 0.643618
0.611672 0.611672 0.611672
0.556300 0.556300 0.556300
0.483868 0.483868 0.483868
0.400932 0.400932 0.400932
0.477410 0.477410 0.477410
0.472832 0.472832 0.472832
0.453754 0.453754 0.453754
0.417580 0.417580 0.417580
0.365531 0.365531 0.365531
0.301108 0.301108 0.301108
0.303250 0.303250 0.303250
0.300163 0.300163 0.300163
0.287202 0.287202 0.287202
0.261747 0.261747 0.261747
0.223452 0.223452 0.223452
0.173865 0.173865 0.173865
0.129696 0.129696 0.129696
0.127427 0.127427 0.127427
0.117869 0.117869 0.117869
0.098861 0.098861 0.098861
0.069592 0.069592 0.069592
0.030066 0.030066 0.030066
0.933017 0.933017 0.933017
0.881323 0.881323 0.881323
0.784331 0.784331 0.784331
0.681586 0.681586 0.681586
0.577577 0.577577 0.577577
0.473522 0.473522 0.473522
0.818693 0.818693 0.818693
0.799701 0.799701 0.799701
0.737759 0.737759 0.737759
0.652278 0.652278 0.652278
0.557278 0.557278 0.557278
0.458371 0.458371 0.458371
0.648886 0.648886 0.648886
0.640921 0.640921 0.640921
0.609361 0.609361 0.609361
0.554375 0.554375 0.554375
0.482253 0.482253 0.482253
0.399531 0.399531 0.399531
0.475858 0.475858 0.475858
0.471251 0.471251 0.471251
0.452276 0.452276 0.452276
0.416244 0.416244 0.416244
0.364355 0.364355 0.364355
0.300011 0.300011 0.300011
0.302219 0.302219 0.302219
0.299171 0.299171 0.299171
0.286188 0.286188 0.286188
0.260753 0.260753 0.260753
0.222574 0.222574 0.222574
0.173013 0.173013 0.173013
0.128919 0.128919 0.128919
0.126641 0.126641 0.126641
0.117165 0.117165 0.117165
0.098102 0.098102 0.098102
0.068833 0.068833 0.068833
0.029406 0.029406 0.029406
0.865986 0.865986 0.865986
0.838766 0.838766 0.838766
0.762626 0.762626 0.762626
0.668495 0.668495 0.668495
0.568663 0.568663 0.568663
0.466909 0.466909 0.466909
0.791889 0.791889 0.791889
0.775939 0.775939 0.775939
0.720783 0.720783 0.720783
0.640690 0.640690 0.640690
0.548911 0.548911 0.548911
0.451974 0.451974 0.451974
0.637414 0.637414 0.637414
0.629756 0.629756 0.629756
0.599392 0.599392 0.599392
0.546063 0.546063 0.546063
0.475493 0.475493 0.475493
0.393959 0.393993 0.393993
0.469231 0.469231 0.469231
0.464682 0.464682 0.464682
0.446003 0.446003 0.446003
0.410505 0.410505 0.410505
0.359224 0.359224 0.359224
0.295499 0.295499 0.295499
0.297758 0.297758 0.297758
0.294692 0.294692 0.294692
0.281803 0.281803 0.281803
0.256582 0.256582 0.256582
0.218740 0.218740 0.218740
0.169489 0.169489 0.169489
0.125674 0.125674 0.125674
0.123424 0.123424 0.123424
0.113886 0.113886 0.113886
0.094950 0.094950 0.094950
0.065820 0.065820 0.065820
0.026539 0.026539 0.026539
0.798963 0.798963 0.798963
0.782358 0.782358 0.782358
0.725501 0.725501 0.725501
0.643947 0.643947 0.643947
0.551309 0.551309 0.551309
0.453852 0.453852 0.453852
0.748684 0.748684 0.748684
0.736216 0.736216 0.736216
0.690307 0.690307 0.690307
0.618562 0.618562 0.618562
0.532499 0.532499 0.532499
0.439478 0.439478 0.439478
0.615517 0.615517 0.615517
0.608474 0.608474 0.608474
0.580208 0.580208 0.580208
0.529805 0.529805 0.529805
0.462153 0.462153 0.462153
0.383018 0.383018 0.383018
0.456049 0.456049 0.456049
0.451722 0.451722 0.451722
0.433586 0.433586 0.433586
0.399071 0.399071 0.399071
0.349138 0.349138 0.349138
0.286488 0.286488 0.286488
0.288776 0.288776 0.288776
0.285792 0.285792 0.285792
0.273090 0.273090 0.273090
0.248333 0.248333 0.248333
0.211009 0.211009 0.211009
0.162263 0.162263 0.162263
0.119081 0.119081 0.119081
0.116864 0.116864 0.116864
0.107370 0.107370 0.107370
0.088654 0.088654 0.088654
0.059823 0.059823 0.059823
0.020838 0.020838 0.020838
0.732009 0.732009 0.732009
0.720578 0.720578 0.720578
0.677649 0.677649 0.677649
0.608933 0.608933 0.608933
0.525258 0.525258 0.525258
0.433845 0.433845 0.433845
0.695755 0.695755 0.695756
0.686153 0.686153 0.686153
0.648786 0.648786 0.648786
0.586483 0.586483 0.586483
0.507881 0.507881 0.507881
0.420133 0.420133 0.420133
0.583769 0.583769 0.583769
0.577486 0.577486 0.577486
0.551893 0.551893 0.551893
0.505331 0.505331 0.505331
0.441670 0.441670 0.441670
0.366057 0.366057 0.366057
0.435904 0.435904 0.435904
0.431772 0.431772 0.431772
0.414481 0.414481 0.414481
0.381453 0.381453 0.381453
0.333307 0.333307 0.333307
0.272487 0.272487 0.272487
0.274751 0.274751 0.274751
0.271916 0.271916 0.271916
0.259556 0.259556 0.259556
0.235339 0.235339 0.235339
0.198801 0.198801 0.198801
0.150776 0.150776 0.150776
0.108693 0.108693 0.108693
0.106456 0.106456 0.106456
0.097148 0.097148 0.097148
0.078700 0.078700 0.078700
0.050202 0.050202 0.050202
0.011817 0.011817 0.011817
0.665227 0.665227 0.665227
0.656760 0.656760 0.656760
0.623451 0.623451 0.623451
0.566077 0.566077 0.566077
0.491858 0.491858 0.491858
0.407069 0.407069 0.407069
0.637816 0.637816 0.637816
0.630126 0.630126 0.630126
0.599794 0.599794 0.599794
0.546464 0.546464 0.546464
0.475983 0.475983 0.475983
0.394179 0.394179 0.394179
0.544158 0.544158 0.544158
0.538547 0.538547 0.538547
0.515598 0.515598 0.515598
0.473512 0.473512 0.473512
0.414649 0.414649 0.414649
0.342989 0.342989 0.342989
0.409410 0.409410 0.409410
0.405436 0.405436 0.405436
0.389147 0.389147 0.389147
0.357745 0.357745 0.357745
0.311870 0.311870 0.311870
0.253371 0.253371 0.253371
0.256072 0.256072 0.256072
0.253252 0.253252 0.253252
0.241352 0.241352 0.241352
0.217864 0.217864 0.217864
0.182106 0.182106 0.182106
0.135332 0.135332 0.135332
0.094140 0.094140 0.094140
0.091970 0.091970 0.091970
0.082866 0.082866 0.082866
0.064822 0.064822 0.064822
0.036910 0.036910 0.036910
0.000000 0.000000 0.000000
