assets/luts/VM Thermal Negative.cube
LUT_3D_SIZE 16
1.000000 1.000000 1.000000
0.964924 0.964924 0.964924
0.929940 0.929940 0.929940
0.894944 0.894944 0.894944
0.859898 0.859898 0.859898
0.824888 0.824888 0.824888
0.789828 0.789828 0.789828
0.754901 0.754901 0.754901
0.719828 0.719828 0.719828
0.684777 0.684777 0.684777
0.649750 0.649750 0.649750
0.614708 0.614708 0.614708
0.579718 0.579718 0.579718
0.544626 0.544626 0.544626
0.509716 0.509716 0.509716
0.475027 0.475027 0.475027
0.941904 0.941904 0.941904
0.935270 0.935270 0.935270
0.913963 0.913963 0.913963
0.885052 0.885052 0.885052
0.853094 0.853094 0.853094
0.819810 0.819810 0.819810
0.785881 0.785881 0.785881
0.751671 0.751671 0.751671
0.717184 0.717184 0.717184
0.682562 0.682562 0.682562
0.647835 0.647835 0.647835
0.613000 0.613000 0.613000
0.578239 0.578239 0.578239
0.543285 0.543285 0.543285
0.508489 0.508489 0.508489
0.473950 0.473950 0.473950
0.883880 0.883880 0.883880
0.881239 0.881239 0.881239
0.870589 0.870589 0.870589
0.852146 0.852146 0.852146
0.827974 0.827974 0.827974
0.800110 0.800110 0.800110
0.770075 0.770075 0.770075
0.738663 0.738663 0.738663
0.706191 0.706191 0.706191
0.673072 0.673072 0.673072
0.639667 0.639667 0.639667
0.605828 0.605828 0.605828
0.571829 0.571829 0.571829
0.537588 0.537588 0.537588
0.503341 0.503341 0.503341
0.469268 0.469268 0.469268
0.825848 0.825848 0.825848
0.824301 0.824301 0.824301
0.817903 0.817903 0.817903
0.805866 0.805866 0.805866
0.788538 0.788538 0.788538
0.766840 0.766840 0.766840
0.741942 0.741942 0.741942
0.714606 0.714606 0.714606
0.685510 0.685510 0.685510
0.655136 0.655136 0.655136
0.623800 0.623800 0.623800
0.591803 0.591803 0.591803
0.559313 0.559313 0.559313
0.526245 0.526245 0.526245
0.493083 0.493083 0.493083
0.459896 0.459896 0.459896
0.767790 0.767790 0.767790
0.766682 0.766682 0.766682
0.762359 0.762359 0.762359
0.753922 0.753922 0.753922
0.741156 0.741156 0.741156
0.724399 0.724399 0.724399
0.704226 0.704226 0.704226
0.681203 0.681203 0.681203
0.655918 0.655918 0.655918
0.628801 0.628801 0.628801
0.600338 0.600338 0.600338
0.570662 0.570662 0.570662
0.540150 0.540150 0.540150
0.508896 0.508896 0.508896
0.477259 0.477259 0.477259
0.445409 0.445409 0.445409
0.709728 0.709728 0.709728
0.708912 0.708912 0.708912
0.705776 0.705776 0.705776
0.699434 0.699434 0.699434
0.689625 0.689625 0.689625
0.676473 0.676473 0.676473
0.660060 0.660060 0.660060
0.640866 0.640866 0.640866
0.619217 0.619217 0.619217
0.595379 0.595379 0.595379
0.569911 0.569911 0.569911
0.542931 0.542931 0.542931
0.514817 0.514817 0.514817
0.485684 0.485684 0.485684
0.455852 0.455852 0.455852
0.425654 0.425654 0.425654
0.651620 0.651620 0.651620
0.651010 0.651010 0.651010
0.648576 0.648576 0.648576
0.643618 0.643618 0.643618
0.635855 0.635855 0.635855
0.625193 0.625193 0.625193
0.611672 0.611672 0.611672
0.595606 0.595606 0.595606
0.577097 0.577097 0.577097
0.556300 0.556300 0.556300
0.533756 0.533756 0.533756
0.509479 0.509479 0.509479
0.483868 0.483868 0.483868
0.456979 0.456979 0.456979
0.429189 0.429189 0.429189
0.400932 0.400932 0.400932
0.593595 0.593595 0.593595
0.593140 0.593140 0.593140
0.591136 0.591136 0.591136
0.587086 0.587086 0.587086
0.580762 0.580762 0.580762
0.571967 0.571967 0.571967
0.560681 0.560681 0.560681
0.547033 0.547033 0.547033
0.531126 0.531126 0.531126
0.513045 0.513045 0.513045
0.493066 0.493066 0.493066
0.471342 0.471342 0.471342
0.448116 0.448116 0.448116
0.423526 0.423526 0.423526
0.397875 0.397875 0.397875
0.371533 0.371533 0.371533
0.535489 0.535489 0.535489
0.535138 0.535138 0.535138
0.533472 0.533472 0.533472
0.530105 0.530105 0.530105
0.524778 0.524778 0.524778
0.517425 0.517425 0.517425
0.507814 0.507814 0.507814
0.496136 0.496136 0.496136
0.482352 0.482352 0.482352
0.466490 0.466490 0.466490
0.448805 0.448805 0.448805
0.429402 0.429402 0.429402
0.408418 0.408418 0.408418
0.386029 0.386029 0.386029
0.362434 0.362434 0.362434
0.338059 0.338059 0.338059
0.477410 0.477410 0.477410
0.477113 0.477113 0.477113
0.475687 0.475687 0.475687
0.472832 0.472832 0.472832
0.468289 0.468289 0.468289
0.461971 0.461971 0.461971
0.453754 0.453754 0.453754
0.443568 0.443568 0.443568
0.431500 0.431500 0.431500
0.417580 0.417580 0.417580
0.401876 0.401876 0.401876
0.384504 0.384504 0.384504
0.365531 0.365531 0.365531
0.345145 0.345145 0.345145
0.323537 0.323537 0.323537
0.301108 0.301108 0.301108
0.419375 0.419375 0.419375
0.419081 0.419081 0.419081
0.417868 0.417868 0.417868
0.415415 0.415415 0.415415
0.411508 0.411508 0.411508
0.405967 0.405967 0.405967
0.398808 0.398808 0.398808
0.389921 0.389921 0.389921
0.379274 0.379274 0.379274
0.366939 0.366939 0.366939
0.352878 0.352878 0.352878
0.337258 0.337258 0.337258
0.320092 0.320092 0.320092
0.301560 0.301560 0.301560
0.281656 0.281656 0.281656
0.261085 0.261085 0.261085
0.361317 0.361317 0.361317
0.361032 0.361032 0.361032
0.360014 0.360014 0.360014
0.357775 0.357775 0.357775
0.354373 0.354373 0.354373
0.349528 0.349528 0.349528
0.343167 0.343167 0.343167
0.335298 0.335298 0.335298
0.325844 0.325844 0.325844
0.314798 0.314798 0.314798
0.302243 0.302243 0.302243
0.288121 0.288121 0.288121
0.272477 0.272477 0.272477
0.255643 0.255643 0.255643
0.237451 0.237451 0.237451
0.218538 0.218538 0.218538
0.303250 0.303250 0.303250
0.303071 0.303071 0.303071
0.302051 0.302051 0.302051
0.300163 0.300163 0.300163
0.297104 0.297104 0.297104
0.292866 0.292866 0.292866
0.287202 0.287202 0.287202
0.280076 0.280076 0.280076
0.271674 0.271674 0.271674
0.261747 0.261747 0.261747
0.250409 0.250409 0.250409
0.237621 0.237621 0.237621
0.223452 0.223452 0.223452
0.207924 0.207924 0.207924
0.191226 0.191226 0.191226
0.173865 0.173865 0.173865
0.245146 0.245146 0.245146
0.244915 0.244915 0.244915
0.244042 0.244042 0.244042
0.242350 0.242350 0.242350
0.239655 0.239655 0.239655
0.235772 0.235772 0.235772
0.230692 0.230692 0.230692
0.224376 0.224376 0.224376
0.216726 0.216726 0.216726
0.207775 0.207775 0.207775
0.197410 0.197410 0.197410
0.185830 0.185830 0.185830
0.172849 0.172849 0.172849
0.158669 0.158669 0.158669
0.143318 0.143318 0.143318
0.127269 0.127269 0.127269
0.187198 0.187198 0.187198
0.187030 0.187030 0.187030
0.186268 0.186268 0.186268
0.184697 0.184697 0.184697
0.182279 0.182279 0.182279
0.178770 0.178770 0.178770
0.174121 0.174121 0.174121
0.168488 0.168488 0.168488
0.161470 0.161470 0.161470
0.153353 0.153353 0.153353
0.143904 0.143904 0.143904
0.133275 0.133275 0.133275
0.121431 0.121431 0.121431
0.108315 0.108315 0.108315
0.094110 0.094110 0.094110
0.079374 0.079374 0.079374
0.129696 0.129696 0.129696
0.129561 0.129561 0.129561
0.128873 0.128873 0.128873
0.127427 0.127427 0.127427
0.125205 0.125205 0.125205
0.122019 0.122019 0.122019
0.117869 0.117869 0.117869
0.112681 0.112681 0.112681
0.106357 0.106357 0.106357
0.098861 0.098861 0.098861
0.090262 0.090262 0.090262
0.080468 0.080468 0.080468
0.069592 0.069592 0.069592
0.057494 0.057494 0.057494
0.044346 0.044346 0.044346
0.030066 0.030066 0.030066
0.977687 0.977687 0.977687
0.960458 0.960458 0.960458
0.928081 0.928081 0.928081
0.893854 0.893854 0.893854
0.859216 0.859216 0.859216
0.824385 0.824385 0.824385
0.789474 0.789474 0.789474
0.754521 0.754521 0.754521
0.719465 0.719465 0.719465
0.684528 0.684528 0.684528
0.649586 0.649586 0.649586
0.614520 0.614520 0.614520
0.579566 0.579566 0.579566
0.544514 0.544514 0.544514
0.509598 0.509598 0.509598
0.474947 0.474947 0.474947
0.939572 0.939572 0.939572
0.933190 0.933190 0.933190
0.912575 0.912575 0.912575
0.884143 0.884143 0.884143
0.852392 0.852393 0.852393
0.819325 0.819325 0.819325
0.785523 0.785523 0.785523
0.751303 0.751303 0.751303
0.716905 0.716905 0.716905
0.682274 0.682274 0.682274
0.647627 0.647627 0.647627
0.612859 0.612859 0.612859
0.578059 0.578059 0.578059
0.543141 0.543141 0.543141
0.508335 0.508335 0.508335
0.473805 0.473805 0.473805
0.882902 0.882902 0.882902
0.880296 0.880296 0.880296
0.869784 0.869784 0.869784
0.851470 0.851470 0.851470
0.827402 0.827402 0.827402
0.799732 0.799732 0.799732
0.769769 0.769769 0.769769
0.738345 0.738345 0.738345
0.705936 0.705936 0.705936
0.672927 0.672927 0.672927
0.639438 0.639438 0.639438
0.605657 0.605657 0.605657
0.571687 0.571687 0.571687
0.537457 0.537457 0.537457
0.503183 0.503183 0.503183
0.469141 0.469141 0.469141
0.825274 0.825274 0.825274
0.823757 0.823757 0.823757
0.817400 0.817400 0.817400
0.805436 0.805436 0.805436
0.788157 0.788157 0.788157
0.766550 0.766550 0.766550
0.741598 0.741598 0.741598
0.714361 0.714361 0.714361
0.685253 0.685253 0.685253
0.654923 0.654923 0.654923
0.623651 0.623651 0.623651
0.591628 0.591628 0.591628
0.559101 0.559101 0.559101
0.526141 0.526141 0.526141
0.492934 0.492934 0.492934
0.459760 0.459760 0.459760
0.767396 0.767396 0.767396
0.766374 0.766374 0.766374
0.762074 0.762074 0.762074
0.753624 0.753624 0.753624
0.740884 0.740884 0.740884
0.724111 0.724111 0.724111
0.704010 0.704010 0.704010
0.681052 0.681052 0.681052
0.655714 0.655715 0.655715
0.628629 0.628629 0.628629
0.600150 0.600150 0.600150
0.570521 0.570521 0.570521
0.540037 0.540037 0.540037
0.508774 0.508774 0.508774
0.477126 0.477126 0.477126
0.445306 0.445306 0.445306
0.709403 0.709403 0.709403
0.708745 0.708745 0.708745
0.705475 0.705475 0.705475
0.699146 0.699146 0.699146
0.689409 0.689409 0.689409
0.676234 0.676234 0.676234
0.659856 0.659856 0.659856
0.640713 0.640713 0.640713
0.618973 0.618973 0.618973
0.595251 0.595251 0.595251
0.569746 0.569746 0.569746
0.542765 0.542765 0.542765
0.514711 0.514711 0.514711
0.485576 0.485576 0.485576
0.455730 0.455730 0.455730
0.425531 0.425531 0.425531
0.651398 0.651398 0.651398
0.650798 0.650798 0.650798
0.648367 0.648367 0.648367
0.643370 0.643370 0.643370
0.635637 0.635637 0.635637
0.625039 0.625039 0.625039
0.611544 0.611544 0.611544
0.595468 0.595468 0.595468
0.576919 0.576919 0.576919
0.556180 0.556180 0.556180
0.533602 0.533602 0.533602
0.509360 0.509360 0.509360
0.483761 0.483761 0.483761
0.456866 0.456866 0.456866
0.429083 0.429083 0.429083
0.400809 0.400809 0.400809
0.593467 0.593467 0.593467
0.592965 0.592965 0.592965
0.590951 0.590951 0.590951
0.586947 0.586947 0.586947
0.580609 0.580609 0.580609
0.571814 0.571814 0.571814
0.560528 0.560528 0.560528
0.546941 0.546941 0.546941
0.530977 0.530977 0.530977
0.512890 0.512890 0.512890
0.492942 0.492942 0.492942
0.471264 0.471264 0.471264
0.448023 0.448023 0.448023
0.423424 0.423424 0.423424
0.397769 0.397769 0.397769
0.371434 0.371434 0.371434
0.535418 0.535418 0.535418
0.535009 0.535009 0.535009
0.533308 0.533308 0.533308
0.529980 0.529980 0.529980
0.524649 0.524649 0.524649
0.517309 0.517309 0.517309
0.507703 0.507703 0.507703
0.496029 0.496029 0.496029
0.482244 0.482244 0.482244
0.466376 0.466376 0.466376
0.448720 0.448720 0.448720
0.429306 0.429306 0.429306
0.408338 0.408338 0.408338
0.385881 0.385881 0.385881
0.362333 0.362333 0.362333
0.338017 0.338017 0.338017
0.477313 0.477313 0.477313
0.476990 0.476990 0.476990
0.475579 0.475579 0.475579
0.472740 0.472740 0.472740
0.468187 0.468187 0.468187
0.461850 0.461850 0.461850
0.453573 0.453573 0.453573
0.443448 0.443448 0.443448
0.431394 0.431394 0.431394
0.417488 0.417488 0.417488
0.401792 0.401792 0.401792
0.384403 0.384403 0.384403
0.365481 0.365481 0.365481
0.345071 0.345071 0.345071
0.323425 0.323425 0.323425
0.301044 0.301044 0.301044
0.419294 0.419294 0.419294
0.418979 0.418979 0.418979
0.417781 0.417781 0.417781
0.415313 0.415313 0.415313
0.411403 0.411403 0.411403
0.405864 0.405864 0.405864
0.398733 0.398733 0.398733
0.389814 0.389814 0.389814
0.379201 0.379201 0.379201
0.366852 0.366852 0.366852
0.352841 0.352841 0.352841
0.337182 0.337182 0.337182
0.320063 0.320063 0.320063
0.301475 0.301475 0.301475
0.281683 0.281683 0.281683
0.261053 0.261053 0.261053
0.361189 0.361189 0.361189
0.360885 0.360885 0.360885
0.359867 0.359867 0.359867
0.357757 0.357757 0.357757
0.354303 0.354303 0.354303
0.349492 0.349492 0.349492
0.343109 0.343109 0.343109
0.335215 0.335215 0.335215
0.325764 0.325764 0.325764
0.314715 0.314715 0.314715
0.302176 0.302176 0.302176
0.288067 0.288067 0.288067
0.272451 0.272451 0.272451
0.255528 0.255528 0.255528
0.237371 0.237371 0.237371
0.218444 0.218444 0.218444
0.303223 0.303223 0.303223
0.302986 0.302986 0.302986
0.301997 0.301997 0.301997
0.300065 0.300065 0.300065
0.297052 0.297052 0.297052
0.292770 0.292770 0.292770
0.287062 0.287062 0.287062
0.280047 0.280047 0.280047
0.271633 0.271633 0.271633
0.261715 0.261715 0.261715
0.250290 0.250290 0.250290
0.237541 0.237541 0.237541
0.223370 0.223370 0.223370
0.207850 0.207850 0.207850
0.191237 0.191237 0.191237
0.173803 0.173803 0.173803
0.245067 0.245067 0.245067
0.244837 0.244837 0.244837
0.243963 0.243963 0.243963
0.242270 0.242270 0.242270
0.239580 0.239580 0.239580
0.235686 0.235686 0.235686
0.230623 0.230623 0.230623
0.224283 0.224283 0.224283
0.216634 0.216634 0.216634
0.207701 0.207701 0.207701
0.197354 0.197354 0.197354
0.185742 0.185742 0.185742
0.172776 0.172776 0.172776
0.158606 0.158606 0.158606
0.143244 0.143244 0.143244
0.127189 0.127189 0.127189
0.187172 0.187172 0.187172
0.186980 0.186980 0.186980
0.186181 0.186181 0.186181
0.184638 0.184638 0.184638
0.182190 0.182190 0.182190
0.178713 0.178713 0.178713
0.174122 0.174122 0.174122
0.168414 0.168414 0.168414
0.161448 0.161448 0.161448
0.153275 0.153275 0.153275
0.143885 0.143885 0.143885
0.133205 0.133205 0.133205
0.121366 0.121366 0.121366
0.108247 0.108247 0.108247
0.094033 0.094033 0.094033
0.079307 0.079307 0.079307
0.129633 0.129633 0.129633
0.129477 0.129477 0.129477
0.128808 0.128808 0.128808
0.127416 0.127416 0.127416
0.125178 0.125178 0.125178
0.122014 0.122014 0.122014
0.117844 0.117844 0.117844
0.112605 0.112605 0.112605
0.106289 0.106289 0.106289
0.098783 0.098783 0.098783
0.090191 0.090191 0.090191
0.080394 0.080394 0.080394
0.069527 0.069527 0.069527
0.057425 0.057425 0.057425
0.044279 0.044279 0.044279
0.029999 0.029999 0.029999
0.955311 0.955311 0.955311
0.946325 0.946325 0.946325
0.920845 0.920845 0.920845
0.889493 0.889493 0.889493
0.856208 0.856208 0.856208
0.822135 0.822135 0.822135
0.787704 0.787704 0.787704
0.753102 0.753102 0.753102
0.718333 0.718333 0.718333
0.683591 0.683591 0.683591
0.648755 0.648755 0.648755
0.613829 0.613829 0.613829
0.578925 0.578925 0.578925
0.543930 0.543930 0.543930
0.509048 0.509048 0.509048
0.474456 0.474456 0.474456
0.930599 0.930599 0.930599
0.925340 0.925340 0.925340
0.906913 0.906913 0.906913
0.880247 0.880247 0.880247
0.849617 0.849617 0.849617
0.817201 0.817201 0.817201
0.783799 0.783799 0.783799
0.750022 0.750022 0.750022
0.715753 0.715753 0.715753
0.681369 0.681369 0.681369
0.646774 0.646774 0.646774
0.612086 0.612086 0.612086
0.577422 0.577422 0.577422
0.542538 0.542538 0.542538
0.507814 0.507814 0.507814
0.473362 0.473362 0.473362
0.879100 0.879100 0.879100
0.876622 0.876622 0.876622
0.866473 0.866473 0.866473
0.848664 0.848664 0.848664
0.825197 0.825197 0.825197
0.797884 0.797884 0.797884
0.768232 0.768232 0.768232
0.737040 0.737040 0.737040
0.704820 0.704820 0.704820
0.671971 0.671971 0.671971
0.638674 0.638674 0.638674
0.604963 0.604963 0.604963
0.571048 0.571048 0.571048
0.536845 0.536845 0.536845
0.502675 0.502675 0.502675
0.468621 0.468621 0.468621
0.823095 0.823095 0.823095
0.821588 0.821588 0.821588
0.815355 0.815355 0.815355
0.803473 0.803473 0.803473
0.786387 0.786387 0.786387
0.765037 0.765037 0.765037
0.740398 0.740398 0.740398
0.713199 0.713199 0.713199
0.684338 0.684338 0.684338
0.654057 0.654057 0.654057
0.622849 0.622849 0.622849
0.590953 0.590953 0.590953
0.558504 0.558504 0.558504
0.525564 0.525564 0.525564
0.492449 0.492449 0.492449
0.459315 0.459315 0.459315
0.765967 0.765967 0.765967
0.764858 0.764858 0.764858
0.760589 0.760589 0.760589
0.752209 0.752209 0.752209
0.739618 0.739618 0.739618
0.722914 0.722914 0.722914
0.702889 0.702889 0.702889
0.680033 0.680033 0.680033
0.654821 0.654821 0.654821
0.627831 0.627831 0.627831
0.599402 0.599402 0.599402
0.569901 0.569901 0.569901
0.539441 0.539441 0.539441
0.508268 0.508268 0.508268
0.476632 0.476632 0.476632
0.444799 0.444799 0.444799
0.708333 0.708333 0.708333
0.707599 0.707599 0.707599
0.704436 0.704436 0.704436
0.698081 0.698081 0.698081
0.688425 0.688425 0.688425
0.675269 0.675269 0.675269
0.658974 0.658974 0.658974
0.639850 0.639850 0.639850
0.618287 0.618287 0.618287
0.594538 0.594538 0.594538
0.569128 0.569128 0.569128
0.542164 0.542164 0.542164
0.514173 0.514173 0.514173
0.485050 0.485050 0.485050
0.455310 0.455310 0.455310
0.425106 0.425106 0.425106
0.650605 0.650605 0.650605
0.649990 0.649990 0.649990
0.647532 0.647532 0.647532
0.642562 0.642562 0.642562
0.634799 0.634799 0.634799
0.624271 0.624271 0.624271
0.610844 0.610844 0.610844
0.594804 0.594804 0.594804
0.576287 0.576287 0.576287
0.555599 0.555599 0.555599
0.533051 0.533051 0.533051
0.508847 0.508847 0.508847
0.483218 0.483218 0.483218
0.456406 0.456406 0.456406
0.428675 0.428675 0.428675
0.400396 0.400396 0.400396
0.592730 0.592730 0.592730
0.592229 0.592229 0.592229
0.590287 0.590287 0.590287
0.586246 0.586246 0.586246
0.579950 0.579950 0.579950
0.571197 0.571197 0.571197
0.559973 0.559973 0.559973
0.546333 0.546333 0.546333
0.530385 0.530385 0.530385
0.512364 0.512364 0.512364
0.492433 0.492433 0.492433
0.470742 0.470742 0.470742
0.447595 0.447595 0.447595
0.422990 0.422990 0.422990
0.397405 0.397405 0.397405
0.371110 0.371110 0.371110
0.534800 0.534800 0.534800
0.534398 0.534398 0.534398
0.532751 0.532751 0.532751
0.529386 0.529386 0.529386
0.524138 0.524138 0.524138
0.516727 0.516727 0.516727
0.507198 0.507198 0.507198
0.495496 0.495496 0.495496
0.481696 0.481696 0.481696
0.465910 0.465910 0.465910
0.448261 0.448261 0.448261
0.428865 0.428865 0.428865
0.407970 0.407970 0.407970
0.385500 0.385500 0.385500
0.362022 0.362022 0.362022
0.337679 0.337679 0.337679
0.476838 0.476838 0.476838
0.476499 0.476499 0.476499
0.475088 0.475088 0.475088
0.472200 0.472200 0.472200
0.467724 0.467724 0.467724
0.461389 0.461389 0.461389
0.453133 0.453133 0.453133
0.443021 0.443021 0.443021
0.430955 0.430955 0.430955
0.417060 0.417060 0.417060
0.401380 0.401380 0.401380
0.384023 0.384023 0.384023
0.365092 0.365092 0.365092
0.344746 0.344746 0.344746
0.323105 0.323105 0.323105
0.300728 0.300728 0.300728
0.418902 0.418902 0.418902
0.418581 0.418581 0.418581
0.417352 0.417352 0.417352
0.414919 0.414919 0.414919
0.410978 0.410978 0.410978
0.405424 0.405424 0.405424
0.398332 0.398332 0.398332
0.389415 0.389415 0.389415
0.378758 0.378758 0.378758
0.366436 0.366436 0.366436
0.352449 0.352449 0.352449
0.336850 0.336850 0.336850
0.319747 0.319747 0.319747
0.301147 0.301147 0.301147
0.281330 0.281330 0.281330
0.260842 0.260842 0.260842
0.360852 0.360852 0.360852
0.360565 0.360565 0.360565
0.359514 0.359514 0.359514
0.357359 0.357359 0.357359
0.353934 0.353934 0.353934
0.349141 0.349141 0.349141
0.342761 0.342761 0.342761
0.334888 0.334888 0.334888
0.325442 0.325442 0.325442
0.314407 0.314407 0.314407
0.301841 0.301841 0.301841
0.287790 0.287790 0.287790
0.272229 0.272229 0.272229
0.255240 0.255240 0.255240
0.237150 0.237150 0.237150
0.218247 0.218247 0.218247
0.302906 0.302906 0.302906
0.302658 0.302658 0.302658
0.301742 0.301742 0.301742
0.299767 0.299767 0.299767
0.296694 0.296694 0.296694
0.292422 0.292422 0.292422
0.286739 0.286739 0.286739
0.279818 0.279818 0.279818
0.271369 0.271369 0.271369
0.261393 0.261393 0.261393
0.249974 0.249974 0.249974
0.237215 0.237215 0.237215
0.223149 0.223149 0.223149
0.207633 0.207633 0.207633
0.190947 0.190947 0.190947
0.173534 0.173534 0.173534
0.244735 0.244735 0.244735
0.244501 0.244501 0.244501
0.243706 0.243706 0.243706
0.242009 0.242009 0.242009
0.239246 0.239246 0.239246
0.235366 0.235366 0.235366
0.230301 0.230301 0.230301
0.223978 0.223978 0.223978
0.216337 0.216337 0.216337
0.207385 0.207385 0.207385
0.197144 0.197144 0.197144
0.185464 0.185464 0.185464
0.172564 0.172564 0.172564
0.158327 0.158327 0.158327
0.142971 0.142971 0.142971
0.127008 0.127008 0.127008
0.186888 0.186888 0.186888
0.186654 0.186654 0.186654
0.185888 0.185888 0.185888
0.184413 0.184413 0.184413
0.181904 0.181904 0.181904
0.178429 0.178429 0.178429
0.173860 0.173860 0.173860
0.168148 0.168148 0.168148
0.161190 0.161190 0.161190
0.153018 0.153018 0.153018
0.143627 0.143627 0.143627
0.133010 0.133010 0.133010
0.121119 0.121119 0.121119
0.108019 0.108019 0.108019
0.093826 0.093826 0.093826
0.079107 0.079107 0.079107
0.129390 0.129390 0.129390
0.129292 0.129292 0.129292
0.128615 0.128615 0.128615
0.127164 0.127164 0.127164
0.124943 0.124943 0.124943
0.121803 0.121803 0.121803
0.117603 0.117603 0.117603
0.112346 0.112346 0.112346
0.106063 0.106063 0.106063
0.098579 0.098579 0.098579
0.089983 0.089983 0.089983
0.080206 0.080206 0.080206
0.069297 0.069297 0.069297
0.057207 0.057207 0.057207
0.044063 0.044063 0.044063
0.029804 0.029804 0.029804
0.933017 0.933017 0.933017
0.927431 0.927431 0.927431
0.908530 0.908530 0.908530
0.881323 0.881323 0.881323
0.850414 0.850414 0.850414
0.817824 0.817824 0.817824
0.784331 0.784331 0.784331
0.750361 0.750361 0.750361
0.716016 0.716016 0.716016
0.681586 0.681586 0.681586
0.647025 0.647025 0.647025
0.612276 0.612276 0.612276
0.577577 0.577577 0.577577
0.542730 0.542730 0.542730
0.507977 0.507977 0.507977
0.473522 0.473522 0.473522
0.916212 0.916212 0.916212
0.912039 0.912039 0.912039
0.896770 0.896770 0.896770
0.872895 0.872895 0.872895
0.844204 0.844204 0.844204
0.812988 0.812988 0.812988
0.780569 0.780569 0.780569
0.747284 0.747284 0.747284
0.713462 0.713462 0.713462
0.679396 0.679396 0.679396
0.645063 0.645063 0.645063
0.610659 0.610659 0.610659
0.576082 0.576082 0.576082
0.541394 0.541394 0.541394
0.506770 0.506770 0.506770
0.472345 0.472345 0.472345
0.871857 0.871857 0.871857
0.869453 0.869453 0.869453
0.860053 0.860053 0.860053
0.843260 0.843260 0.843260
0.820700 0.820700 0.820700
0.794174 0.794174 0.794174
0.765184 0.765184 0.765184
0.734546 0.734546 0.734546
0.702696 0.702696 0.702696
0.670130 0.670130 0.670130
0.637032 0.637032 0.637032
0.603497 0.603497 0.603497
0.569769 0.569769 0.569769
0.535687 0.535687 0.535687
0.501636 0.501636 0.501636
0.467683 0.467683 0.467683
0.818693 0.818693 0.818693
0.817232 0.817232 0.817232
0.811188 0.811188 0.811188
0.799701 0.799701 0.799701
0.783085 0.783085 0.783085
0.762087 0.762087 0.762087
0.737759 0.737759 0.737759
0.710987 0.710987 0.710987
0.682296 0.682296 0.682296
0.652278 0.652278 0.652278
0.621313 0.621313 0.621313
0.589579 0.589579 0.589579
0.557278 0.557278 0.557278
0.524448 0.524448 0.524448
0.491412 0.491412 0.491412
0.458371 0.458371 0.458371
0.762873 0.762873 0.762873
0.761930 0.761930 0.761930
0.757739 0.757739 0.757739
0.749407 0.749407 0.749407
0.736951 0.736951 0.736951
0.720655 0.720655 0.720655
0.700798 0.700798 0.700798
0.678046 0.678046 0.678046
0.653108 0.653108 0.653108
0.626248 0.626248 0.626248
0.598005 0.598005 0.598005
0.568597 0.568597 0.568597
0.538321 0.538321 0.538321
0.507204 0.507204 0.507204
0.475657 0.475657 0.475657
0.443887 0.443887 0.443887
0.706135 0.706135 0.706135
0.705437 0.705437 0.705437
0.702322 0.702322 0.702322
0.696055 0.696055 0.696055
0.686370 0.686370 0.686370
0.673399 0.673399 0.673399
0.657210 0.657210 0.657210
0.638194 0.638194 0.638194
0.616715 0.616715 0.616715
0.593146 0.593146 0.593146
0.567802 0.567802 0.567802
0.541012 0.541012 0.541012
0.513046 0.513046 0.513046
0.484061 0.484061 0.484061
0.454334 0.454334 0.454334
0.424245 0.424245 0.424245
0.648886 0.648886 0.648886
0.648306 0.648306 0.648306
0.645794 0.645794 0.645794
0.640921 0.640921 0.640921
0.633238 0.633238 0.633238
0.622672 0.622672 0.622672
0.609361 0.609361 0.609361
0.593360 0.593360 0.593360
0.574971 0.574971 0.574971
0.554375 0.554375 0.554375
0.531903 0.531903 0.531903
0.507774 0.507774 0.507774
0.482253 0.482253 0.482253
0.455510 0.455510 0.455510
0.427811 0.427811 0.427811
0.399531 0.399531 0.399531
0.591398 0.591398 0.591398
0.590915 0.590915 0.590915
0.588895 0.588895 0.588895
0.584919 0.584919 0.584919
0.578601 0.578601 0.578601
0.569917 0.569917 0.569917
0.558749 0.558749 0.558749
0.545153 0.545153 0.545153
