assets/luts/VM Thermal Plastic.cube
LUT_3D_SIZE 16
1.000091 1.000000 1.000000
1.021190 0.966878 1.001314
1.079828 0.863351 1.000831
1.130037 0.757332 0.994041
1.173432 0.646675 0.981123
1.211055 0.528143 0.961898
1.244380 0.394166 0.934086
1.275092 0.219535 0.889783
1.309908 0.000000 0.794485
1.323329 0.000000 0.802686
1.333458 0.000000 0.808940
1.340877 0.000000 0.813345
1.345402 0.000000 0.816127
1.347835 0.000000 0.817591
1.348499 0.000000 0.817930
1.348510 0.000000 0.817939
1.029103 0.983695 0.978118
1.030110 0.984944 1.036516
1.076745 0.882281 1.032227
1.129670 0.771458 1.015492
1.175001 0.658305 0.995685
1.214563 0.538805 0.971875
1.249938 0.405275 0.940173
1.286624 0.234893 0.890416
1.305110 0.000000 0.807625
1.319732 0.000000 0.812663
1.330640 0.000000 0.816639
1.338503 0.000000 0.819502
1.343592 0.000000 0.821097
1.346256 0.000000 0.821774
1.347354 0.000000 0.821612
1.347475 0.000000 0.820952
1.119959 0.928257 0.905068
1.135842 0.921116 1.005506
1.129618 0.933486 1.157327
1.147612 0.820291 1.096098
1.190935 0.700554 1.054410
1.234381 0.577782 1.013669
1.278099 0.444891 0.967096
1.340795 0.282114 0.892148
1.367144 0.036042 0.820765
1.303342 0.000000 0.854206
1.318067 0.000000 0.849374
1.328366 0.000000 0.845752
1.335329 0.000000 0.842487
1.339699 0.000000 0.839407
1.341661 0.000000 0.836453
1.342814 0.000000 0.833584
1.216495 0.862166 0.819170
1.238489 0.854486 0.902710
1.228607 0.858110 1.145087
1.248073 0.869819 1.301866
1.262393 0.753399 1.186758
1.302116 0.628880 1.106161
1.362234 0.492861 1.027263
1.514555 0.311187 0.887437
1.443287 0.187506 0.877465
1.264765 0.000000 0.933654
1.288951 0.000000 0.912558
1.305926 0.000000 0.896942
1.317471 0.000000 0.884759
1.324956 0.000000 0.874559
1.329426 0.000000 0.865764
1.332647 0.000000 0.858777
1.331600 0.772410 0.704621
1.355085 0.766421 0.785080
1.386997 0.758446 1.059568
1.340920 0.779050 1.355481
1.437289 0.763413 1.532894
1.523782 0.623781 1.355390
1.623227 0.479131 1.188447
1.565317 0.394815 1.061579
1.501914 0.298839 0.994449
1.426865 0.179489 0.966472
1.234626 0.000000 1.005629
1.264559 0.000000 0.973719
1.285137 0.000000 0.948843
1.299218 0.000000 0.928387
1.308577 0.000000 0.911617
1.315249 0.000000 0.897759
1.562080 0.559600 0.438108
1.577912 0.550065 0.475416
1.651197 0.574910 1.018213
1.595390 0.610094 1.432425
1.511453 0.660366 1.676542
1.610285 0.665826 1.744424
1.633856 0.566474 1.483295
1.604301 0.481442 1.286043
1.552615 0.396811 1.159141
1.493077 0.305538 1.081861
1.424306 0.199340 1.039194
1.310954 0.035032 1.033021
1.232450 0.000000 1.031982
1.257556 0.000000 0.999430
1.275167 0.000000 0.972879
1.288023 0.000000 0.950791
1.577290 0.565021 0.442347
1.587726 0.558698 0.466700
1.624592 0.534402 0.566227
1.658832 0.548217 1.005554
1.581923 0.611980 1.465442
1.524065 0.661064 1.675804
1.614576 0.667684 1.749112
1.617037 0.573825 1.531504
1.588954 0.489583 1.357429
1.543064 0.407611 1.234772
1.490510 0.323336 1.152128
1.432091 0.232185 1.098390
1.359692 0.123116 1.068757
1.194866 0.000000 1.084152
1.225305 0.000000 1.047254
1.247487 0.000000 1.016155
1.589737 0.569537 0.445804
1.596688 0.564997 0.462855
1.624447 0.547299 0.533328
1.661807 0.518006 0.662589
1.665514 0.535063 1.042966
1.575314 0.616366 1.490782
1.535267 0.662158 1.677460
1.618201 0.669182 1.752700
1.606304 0.581389 1.566288
1.577980 0.500262 1.411025
1.538318 0.422877 1.294066
1.492868 0.346176 1.208773
1.445672 0.268822 1.147843
1.395484 0.187951 1.105036
1.335221 0.095329 1.078650
1.190288 0.000000 1.090676
1.599773 0.573218 0.448737
1.605110 0.569873 0.461125
1.625914 0.556530 0.513106
1.658085 0.533064 0.611841
1.686687 0.504795 0.745651
1.660690 0.540374 1.128898
1.572298 0.621802 1.511672
1.544434 0.663577 1.681462
1.621474 0.670450 1.756226
1.599975 0.588732 1.592921
1.572322 0.512080 1.452072
1.537173 0.439774 1.340888
1.499230 0.370831 1.255443
1.461584 0.304411 1.189594
1.424871 0.240515 1.139303
1.385864 0.174421 1.102022
1.607794 0.576075 0.450918
1.612017 0.573565 0.460364
1.627918 0.563207 0.500023
1.654711 0.544391 0.576721
1.683286 0.519789 0.686777
1.700205 0.495093 0.810693
1.647722 0.554567 1.220719
1.570468 0.627749 1.532733
1.551913 0.664987 1.686428
1.623795 0.671495 1.758768
1.596670 0.595570 1.613125
1.569779 0.523778 1.484551
1.539309 0.456994 1.379014
1.508026 0.394792 1.294006
1.478079 0.337171 1.226080
1.448129 0.281977 1.171825
1.613875 0.578248 0.452595
1.617241 0.576286 0.459951
1.629840 0.568141 0.491017
1.652291 0.552822 0.551838
1.678613 0.531865 0.641892
1.699886 0.508735 0.751509
1.707098 0.487988 0.858429
1.632873 0.570443 1.299122
1.568501 0.633818 1.553803
1.558320 0.666491 1.691559
1.625658 0.672228 1.760996
1.595613 0.601646 1.628825
1.570172 0.535072 1.510664
1.543785 0.473493 1.410082
1.517982 0.417360 1.326927
1.492301 0.365111 1.258223
1.618291 0.579806 0.453840
1.620937 0.578254 0.459703
1.631128 0.571674 0.484608
1.649625 0.559119 0.533592
1.673385 0.541383 0.607672
1.695545 0.520523 0.702086
1.708978 0.499938 0.804200
1.709002 0.483088 0.891579
1.618885 0.585338 1.362443
1.566758 0.639344 1.574097
1.563257 0.667787 1.697299
1.626896 0.672789 1.762392
1.596251 0.607398 1.641846
1.572133 0.545539 1.531818
1.549647 0.489012 1.436494
1.527130 0.437124 1.355474
1.621109 0.580841 0.454665
1.623129 0.579530 0.459447
1.631616 0.574160 0.479653
1.647238 0.563757 0.519822
1.668060 0.548659 0.581320
1.689581 0.530237 0.661967
1.706245 0.510710 0.754413
1.713198 0.492875 0.845351
1.708598 0.479424 0.913377
1.606517 0.598627 1.414976
1.565238 0.644474 1.593259
1.567445 0.668982 1.703249
1.628067 0.673105 1.763173
1.597217 0.612274 1.651911
1.575247 0.555140 1.549597
1.554784 0.502516 1.458873
1.622569 0.581356 0.455041
1.624257 0.580250 0.458913
1.631299 0.575805 0.475716
1.644676 0.567091 0.509072
1.662655 0.554200 0.560631
1.682914 0.538072 0.629444
1.701176 0.520095 0.711542
1.712071 0.502560 0.798362
1.713570 0.487464 0.876199
1.668791 0.532066 1.142046
1.596166 0.609959 1.458535
1.563502 0.648999 1.610994
1.570496 0.669908 1.708956
1.628216 0.673369 1.763500
1.599013 0.617053 1.660780
1.578129 0.563691 1.564584
1.623019 0.581501 0.455184
1.624465 0.580578 0.458519
1.630386 0.576837 0.472488
1.641642 0.569469 0.500551
1.657535 0.558446 0.544216
1.676069 0.544236 0.603298
1.694424 0.527986 0.675378
1.707930 0.511264 0.755311
1.714724 0.495848 0.834065
1.712459 0.483098 0.898644
1.641487 0.563366 1.273212
1.587072 0.619808 1.496356
1.562313 0.652903 1.627049
1.572809 0.670807 1.714018
1.628393 0.673340 1.763795
1.600654 0.620840 1.667646
1.623030 0.581502 0.455186
1.624236 0.580711 0.457997
1.629248 0.577559 0.469868
1.638768 0.571268 0.493697
1.652890 0.561718 0.531012
1.669966 0.549275 0.581966
1.687234 0.534692 0.645224
1.702263 0.519049 0.717386
1.712093 0.503772 0.792871
1.714839 0.490266 0.862393
1.709899 0.479818 0.914066
1.623243 0.582490 1.350699
1.579466 0.627691 1.526913
1.561435 0.656175 1.640770
1.575100 0.671379 1.718525
1.628397 0.673341 1.763799
1.013621 0.968270 0.964405
1.017557 0.973665 0.966618
1.071251 0.871137 0.970950
1.122651 0.762874 0.975987
1.166167 0.651120 0.971131
1.203480 0.532100 0.957456
1.235347 0.398070 0.934780
1.260989 0.224623 0.898848
1.311545 0.000000 0.786514
1.324665 0.000000 0.796440
1.334962 0.000000 0.802663
1.342050 0.000000 0.806962
1.346849 0.000000 0.809843
1.349324 0.000000 0.811260
1.349758 0.000000 0.811552
1.349783 0.000000 0.811567
0.974309 0.996993 1.030185
0.976081 0.976082 0.976082
1.098482 0.826225 0.998942
1.142568 0.727530 0.991025
1.181143 0.624423 0.977848
1.216216 0.510055 0.958531
1.247928 0.377562 0.930294
1.278111 0.198874 0.884115
1.310806 0.000000 0.795161
1.324237 0.000000 0.803273
1.333990 0.000000 0.809216
1.340951 0.000000 0.813576
1.345568 0.000000 0.816249
1.347713 0.000000 0.817596
1.348503 0.000000 0.817933
1.348528 0.000000 0.817955
1.036826 0.963840 0.824740
1.125189 0.924882 0.900702
1.130986 0.932535 1.159080
1.149574 0.805571 1.086301
1.192985 0.682567 1.042922
1.234761 0.559278 1.002763
1.276275 0.425826 0.957532
1.336232 0.259193 0.883040
1.310864 0.000000 0.839515
1.307887 0.000000 0.845182
1.321516 0.000000 0.842191
1.330898 0.000000 0.839898
1.337383 0.000000 0.837714
1.341139 0.000000 0.835429
1.343003 0.000000 0.832997
1.343831 0.000000 0.830680
1.162270 0.887337 0.753302
1.220080 0.859543 0.815904
1.237894 0.853458 1.121074
1.249284 0.869252 1.303421
1.262351 0.747320 1.180044
1.301375 0.620099 1.097661
1.360666 0.482515 1.018118
1.507944 0.300463 0.878109
1.434297 0.171439 0.872461
1.269700 0.000000 0.925833
1.292665 0.000000 0.906256
1.308643 0.000000 0.891585
1.319591 0.000000 0.880148
1.326578 0.000000 0.870603
1.331132 0.000000 0.862603
1.333669 0.000000 0.855796
1.282912 0.795854 0.644807
1.334940 0.769563 0.701042
1.390746 0.755664 1.014871
1.344680 0.776171 1.348681
1.439993 0.761785 1.535894
1.525527 0.620104 1.349228
1.620910 0.475185 1.178452
1.561735 0.389388 1.053462
1.497668 0.291665 0.988418
1.420520 0.168679 0.962995
1.238610 0.000000 1.000223
1.267580 0.000000 0.969135
1.287480 0.000000 0.944640
1.300875 0.000000 0.924866
1.309954 0.000000 0.908440
1.316483 0.000000 0.894928
1.542122 0.569128 0.399435
1.562377 0.559765 0.438243
1.648283 0.571205 0.941754
1.602970 0.606422 1.407803
1.512284 0.659259 1.672218
1.610357 0.665884 1.743891
1.633939 0.564799 1.478595
1.603024 0.478811 1.280541
1.550611 0.393316 1.154211
1.490427 0.300877 1.077721
1.420292 0.192676 1.036405
1.296967 0.015741 1.034602
1.234858 0.000000 1.028488
1.259669 0.000000 0.996677
1.276910 0.000000 0.970297
1.289358 0.000000 0.948326
1.564294 0.571133 0.417187
1.577146 0.565093 0.442423
1.617761 0.539388 0.545163
1.660365 0.540042 0.938291
1.586090 0.609483 1.452709
1.524245 0.660528 1.673601
1.614624 0.667697 1.748972
1.616745 0.572769 1.529235
1.587960 0.487727 1.354226
1.542091 0.405266 1.231397
1.488673 0.320324 1.149168
1.429641 0.228141 1.096164
1.355641 0.116866 1.067541
1.197002 0.000000 1.081593
1.227071 0.000000 1.044955
1.249046 0.000000 1.013914
1.580703 0.573744 0.428317
1.589732 0.569588 0.445862
1.619098 0.551114 0.517924
1.659268 0.520595 0.650561
1.670021 0.526387 0.992279
1.577022 0.614706 1.483802
1.535298 0.661893 1.676379
1.618234 0.669191 1.752736
1.605998 0.580640 1.565057
1.577791 0.499049 1.408815
1.537161 0.421190 1.291740
1.491640 0.344163 1.206599
1.444264 0.266381 1.145945
1.393610 0.184814 1.103652
1.332075 0.090508 1.077923
1.191855 0.000000 1.088852
1.593406 0.576239 0.435980
1.599843 0.573230 0.448750
1.621687 0.559479 0.501541
1.655308 0.535310 0.602049
1.685414 0.506198 0.738685
1.664461 0.535454 1.103722
1.573656 0.620782 1.507722
1.544385 0.663375 1.680582
1.621320 0.670456 1.756247
1.599736 0.588218 1.591958
1.571867 0.511223 1.450668
1.536498 0.438658 1.339232
1.498535 0.369446 1.253789
1.460841 0.302802 1.188213
1.423860 0.238597 1.138059
1.384497 0.172005 1.100939
1.602865 0.578361 0.441282
1.607924 0.576097 0.450943
1.624625 0.565520 0.491067
1.652325 0.546303 0.568817
1.682194 0.521146 0.680510
1.700255 0.495941 0.806675
1.650409 0.551886 1.208318
1.571469 0.627103 1.530015
1.551872 0.664917 1.685426
1.623810 0.671500 1.758785
1.596778 0.595218 1.612208
1.569451 0.523158 1.483274
1.539027 0.456270 1.377884
1.507591 0.393868 1.292874
1.477375 0.336097 1.224790
1.447456 0.280718 1.170741
1.610358 0.580066 0.445137
1.613952 0.578261 0.452610
1.627184 0.569985 0.483950
1.650014 0.554449 0.545378
1.677172 0.533119 0.636428
1.699398 0.509558 0.747615
1.706889 0.488461 0.856218
1.634365 0.568924 1.292618
1.569082 0.633278 1.552068
1.558201 0.666414 1.691479
1.625669 0.672231 1.761009
1.595777 0.601452 1.628277
1.570018 0.534667 1.509824
1.543407 0.472944 1.409111
1.517394 0.416655 1.325872
1.491980 0.364296 1.257277
1.615187 0.581226 0.447892
1.618330 0.579812 0.453852
1.628967 0.573197 0.478904
1.647742 0.560505 0.528286
1.671870 0.542457 0.602989
1.694641 0.521337 0.698311
1.708970 0.500428 0.801600
1.709056 0.483349 0.890416
1.619744 0.584416 1.358839
1.567204 0.639080 1.572685
1.563220 0.667717 1.697123
1.626897 0.672789 1.762394
1.596090 0.607261 1.641558
1.571904 0.545193 1.531390
1.549321 0.488529 1.435711
1.526772 0.436514 1.354623
1.618869 0.582006 0.449809
1.621126 0.580843 0.454669
1.629934 0.575388 0.475029
1.645398 0.564891 0.515426
1.666883 0.549641 0.577349
1.688668 0.530970 0.658535
1.706301 0.511259 0.751896
1.713194 0.493325 0.843683
1.708782 0.479529 0.912499
1.607291 0.598047 1.412497
1.565453 0.644281 1.592364
1.567284 0.668896 1.703094
1.628069 0.673105 1.763176
1.597203 0.612171 1.651568
1.575126 0.554897 1.548971
1.554745 0.502182 1.458157
1.620431 0.582268 0.451060
1.622584 0.581357 0.455042
1.629882 0.576837 0.471933
1.643098 0.568079 0.505431
1.661631 0.555050 0.557231
1.682195 0.538676 0.626471
1.700496 0.520598 0.708952
1.711889 0.502930 0.796429
1.713860 0.487725 0.875174
1.670295 0.530133 1.134096
1.596565 0.609621 1.457113
1.563691 0.648890 1.610391
1.570363 0.669915 1.708626
1.628216 0.673369 1.763500
1.598794 0.616883 1.660320
1.577976 0.563458 1.564261
1.621381 0.582283 0.451885
1.623017 0.581500 0.455183
1.628710 0.577697 0.469232
1.640532 0.570310 0.497425
1.656330 0.559133 0.541242
1.675429 0.544909 0.600629
1.693602 0.528476 0.673071
1.707948 0.511609 0.753383
1.714658 0.496030 0.832854
1.712478 0.483309 0.897974
1.642326 0.562602 1.270090
1.587038 0.619550 1.495295
1.562455 0.652835 1.626468
1.572682 0.670783 1.713812
1.628393 0.673340 1.763795
1.600650 0.620748 1.667607
1.621673 0.582158 0.452420
1.623049 0.581506 0.455190
1.627801 0.578292 0.467011
1.637653 0.571974 0.491012
1.651994 0.562422 0.528363
1.669032 0.549868 0.579538
1.686629 0.535137 0.643042
1.702126 0.519424 0.715638
1.711924 0.504059 0.791607
1.714901 0.490443 0.861611
1.710103 0.479981 0.913617
1.623831 0.582027 1.348824
1.579690 0.627472 1.526098
1.561487 0.656138 1.640619
1.574998 0.671356 1.718288
1.628402 0.673343 1.763805
1.048869 0.870875 0.855747
1.030277 0.883552 0.842746
1.066000 0.890352 0.861809
1.107166 0.779602 0.909979
1.147614 0.665891 0.925647
1.182569 0.545476 0.928481
1.210229 0.411168 0.921046
1.224572 0.239204 0.906022
1.207098 0.000000 0.882763
1.333369 0.000000 0.751926
1.341289 0.000000 0.770613
1.346712 0.000000 0.783948
1.350109 0.000000 0.793551
1.351611 0.000000 0.799939
1.351548 0.000000 0.804193
1.350823 0.000000 0.807351
1.066609 0.879959 0.911704
1.052619 0.820747 0.801174
1.077896 0.866707 0.832322
1.116848 0.753319 0.911659
1.155578 0.643707 0.930261
1.189328 0.526398 0.931785
1.216199 0.393314 0.921997
1.229937 0.217359 0.903991
1.233127 0.000000 0.856673
1.332100 0.000000 0.762934
1.340119 0.000000 0.779254
1.345658 0.000000 0.790905
1.349294 0.000000 0.798972
1.350654 0.000000 0.804493
1.350666 0.000000 0.808185
1.350203 0.000000 0.810674
0.888858 0.985762 1.126083
0.885248 0.985208 1.129987
0.901822 0.901823 0.901823
1.065475 0.714630 0.937449
1.166058 0.573347 0.949773
1.222253 0.448382 0.939714
1.261441 0.307147 0.913075
1.290852 0.085161 0.850646
1.315427 0.000000 0.797951
1.327232 0.000000 0.805055
1.336029 0.000000 0.810376
1.342264 0.000000 0.814175
1.346068 0.000000 0.816531
1.348117 0.000000 0.817823
1.348509 0.000000 0.817938
1.348583 0.000000 0.818003
0.854858 1.000275 0.621892
0.903406 0.984156 0.614215
1.176302 0.848585 0.808868
1.204973 0.864336 1.253213
1.246861 0.713441 1.133441
1.296620 0.571829 1.054694
1.352078 0.426487 0.974201
1.473832 0.240642 0.838579
1.376832 0.064882 0.859793
1.290872 0.000000 0.890475
1.308449 0.000000 0.877371
1.320570 0.000000 0.867714
1.328969 0.000000 0.860317
1.334081 0.000000 0.853848
1.336899 0.000000 0.848245
1.338955 0.000000 0.843183
1.048293 0.894454 0.453652
1.097454 0.874078 0.476131
1.348693 0.757364 0.685520
1.371026 0.760453 1.295707
1.451284 0.755452 1.549648
1.530321 0.602880 1.316704
1.608710 0.455529 1.131951
1.544793 0.362624 1.016998
1.476337 0.255668 0.962929
1.385010 0.108596 0.951173
1.255805 0.000000 0.975995
1.280760 0.000000 0.948340
1.297593 0.000000 0.926677
1.308892 0.000000 0.909305
1.316395 0.000000 0.895118
1.322045 0.000000 0.883211
1.151571 0.753427 0.080567
1.215885 0.725922 0.124165
1.563518 0.560195 0.438490
1.635516 0.589159 1.261174
1.517204 0.653839 1.649582
1.610524 0.665925 1.744150
1.632743 0.556983 1.457625
1.596711 0.466368 1.255135
1.540865 0.376539 1.131715
1.477386 0.278702 1.060163
1.400300 0.159944 1.025201
1.213432 0.000000 1.050459
1.246124 0.000000 1.013381
1.268413 0.000000 0.982880
1.283826 0.000000 0.958089
1.295256 0.000000 0.937573
1.500509 0.600123 0.307016
1.515969 0.593382 0.331515
1.578206 0.565417 0.442647
1.649550 0.515719 0.652354
1.605614 0.597397 1.386695
1.525470 0.657723 1.661762
1.614785 0.667701 1.748903
1.616187 0.567800 1.517766
1.584385 0.479687 1.338963
1.535884 0.394335 1.216823
1.480453 0.306325 1.136632
1.418544 0.209602 1.086594
1.334631 0.085687 1.063259
1.206334 0.000000 1.070555
1.234642 0.000000 1.034643
1.255535 0.000000 1.004429
1.538504 0.593110 0.352171
1.548730 0.588610 0.369376
1.590199 0.569773 0.446050
1.644745 0.533373 0.593553
1.682639 0.494634 0.780567
1.587509 0.607173 1.450283
1.535306 0.660371 1.669486
1.618342 0.669222 1.752855
1.605491 0.577457 1.558388
1.575290 0.493627 1.399139
1.533303 0.413895 1.281466
1.486557 0.335065 1.197377
1.437682 0.255227 1.138181
1.384614 0.170438 1.097548
1.315735 0.067129 1.075471
1.198611 0.000000 1.080837
1.563408 0.590032 0.380585
1.570592 0.586855 0.393195
1.600256 0.573336 0.448796
1.641737 0.546002 0.556913
1.680554 0.512764 0.706578
1.695102 0.483852 0.856352
1.579072 0.616072 1.488740
1.543874 0.662466 1.675899
1.621395 0.670444 1.756329
1.599248 0.585978 1.587487
1.570398 0.507408 1.444197
1.534099 0.433584 1.331975
1.495259 0.363356 1.246768
1.456765 0.295731 1.181733
1.419095 0.230372 1.132529
1.377928 0.161256 1.096652
1.580963 0.588636 0.399458
1.586035 0.586248 0.409153
1.608213 0.576185 0.451040
1.640737 0.555056 0.533024
1.675735 0.527382 0.651930
1.698725 0.499420 0.788486
1.662141 0.538225 1.144291
1.574227 0.624066 1.518485
1.551597 0.664320 1.682517
1.623854 0.671512 1.758834
1.596220 0.593626 1.609398
1.568469 0.520435 1.478820
1.537132 0.452617 1.372541
1.505552 0.389654 1.287341
1.474946 0.331287 1.219634
1.444605 0.275093 1.166046
1.593352 0.587978 0.412650
1.597222 0.586102 0.420203
1.614178 0.578324 0.452677
1.639780 0.561635 0.516636
1.670928 0.538664 0.611985
1.696316 0.513279 0.729291
1.706916 0.490469 0.845726
1.641314 0.561862 1.261757
1.570888 0.631308 1.544345
1.557592 0.666071 1.689379
1.625695 0.672239 1.761037
1.595013 0.600293 1.626197
1.568966 0.532627 1.506461
1.542069 0.470250 1.405354
1.516296 0.413672 1.321691
1.490390 0.360822 1.252926
1.601790 0.587484 0.421995
1.605143 0.586021 0.427971
1.618517 0.579844 0.453888
1.639442 0.566440 0.504922
1.666007 0.547355 0.582260
1.691342 0.524928 0.681532
1.708031 0.502721 0.790022
1.709900 0.484501 0.884689
1.624037 0.580229 1.341845
1.568167 0.637692 1.567600
1.562699 0.667505 1.695692
1.626915 0.672833 1.762414
1.595683 0.606401 1.639820
1.571239 0.543724 1.528590
1.548454 0.486664 1.432611
1.525736 0.434332 1.351221
1.607777 0.587013 0.428774
1.610595 0.585812 0.433618
1.621033 0.580828 0.454641
1.638193 0.569846 0.496065
1.661251 0.553854 0.559755
1.685328 0.534297 0.643512
1.704457 0.513631 0.740405
1.712960 0.494676 0.836323
1.709013 0.480167 0.909667
1.609761 0.595433 1.402393
1.565889 0.643366 1.588938
1.566781 0.668750 1.702045
1.628076 0.673107 1.763183
1.596798 0.611550 1.650406
1.574543 0.553763 1.547043
1.554164 0.500654 1.455700
1.611567 0.586417 0.433734
1.613549 0.585418 0.437771
1.622619 0.581363 0.455049
1.636808 0.572264 0.489289
1.656363 0.558745 0.542277
1.678577 0.541748 0.613311
1.698582 0.522946 0.698221
1.711595 0.504480 0.788588
1.714096 0.488593 0.870548
1.677684 0.520522 1.093900
1.598217 0.607907 1.450466
1.563920 0.648244 1.607635
1.570116 0.669817 1.707862
1.628218 0.673370 1.763503
1.598787 0.616436 1.659680
1.577946 0.562582 1.562596
1.613809 0.585766 0.437310
1.615645 0.584939 0.440651
1.623019 0.581501 0.455184
1.634900 0.573832 0.483892
1.651932 0.562361 0.528504
1.671729 0.547604 0.589009
1.691389 0.530708 0.663140
1.706852 0.513203 0.745608
1.714447 0.497142 0.827254
1.712750 0.483829 0.895019
1.645326 0.559224 1.255989
1.588216 0.618370 1.490969
1.562545 0.652309 1.624598
1.572524 0.670659 1.713301
1.628393 0.673340 1.763795
1.600456 0.620324 1.666871
1.615163 0.585078 0.440102
1.616766 0.584384 0.443061
1.622976 0.581518 0.455188
1.632822 0.575158 0.479100
1.647717 0.565267 0.517010
1.665988 0.552374 0.569038
1.684391 0.537246 0.633801
1.700816 0.521039 0.707960
1.711795 0.505215 0.785655
1.714801 0.491164 0.857665
1.710491 0.480301 0.911864
1.625793 0.579962 1.340662
1.580498 0.626619 1.522827
1.561525 0.655741 1.639040
1.574790 0.671372 1.717677
1.628425 0.673349 1.763828
1.075818 0.773853 0.748160
1.060764 0.783781 0.736154
1.025154 0.812067 0.708650
1.107219 0.802032 0.752207
1.144557 0.681480 0.839714
1.169788 0.560412 0.872153
1.189656 0.425411 0.887023
1.195349 0.251199 0.895860
1.162375 0.000000 0.913549
1.239595 0.000000 0.827646
1.352789 0.000000 0.695570
1.356677 0.000000 0.724368
1.358793 0.000000 0.745181
1.359017 0.000000 0.760367
1.357911 0.000000 0.771072
1.356498 0.000000 0.779289
1.088276 0.781129 0.783175
1.090017 0.707999 0.675459
1.026879 0.776019 0.658145
1.114384 0.784305 0.730423
1.149586 0.663474 0.838474
1.172686 0.544082 0.873917
1.191409 0.409824 0.889127
1.194851 0.231197 0.898153
1.167777 0.000000 0.909080
1.254895 0.000000 0.809670
1.352252 0.000000 0.704077
1.356152 0.000000 0.731255
1.358054 0.000000 0.750656
1.358287 0.000000 0.764661
1.357246 0.000000 0.774936
1.355808 0.000000 0.782718
1.139233 0.801203 0.988682
1.144876 0.782831 0.949136
1.010812 0.721624 0.697135
1.059041 0.761444 0.712835
1.134811 0.612284 0.840994
1.175731 0.483000 0.883769
1.199758 0.340106 0.899266
1.186206 0.117793 0.910187
1.205630 0.000000 0.873758
1.343477 0.000000 0.713719
1.349021 0.000000 0.741171
1.352575 0.000000 0.760591
1.354580 0.000000 0.774461
1.354973 0.000000 0.784199
1.354209 0.000000 0.791074
1.353058 0.000000 0.796746
0.787337 0.968859 1.231878
0.784558 0.968228 1.234730
0.783223 0.949845 1.190804
0.827841 0.827841 0.827842
1.029089 0.610770 0.876455
1.127183 0.441675 0.877004
1.196529 0.266506 0.856971
1.259036 0.000000 0.763747
1.290379 0.000000 0.782627
1.313083 0.000000 0.796529
1.330162 0.000000 0.806855
1.343758 0.000000 0.815151
1.346988 0.000000 0.817098
1.348363 0.000000 0.817860
1.348509 0.000000 0.817938
1.348573 0.000000 0.817994
0.552348 1.049820 0.481719
0.570705 1.044775 0.457232
0.697889 1.005987 0.364302
1.212594 0.756217 0.700877
1.263154 0.775398 1.332264
1.312826 0.606594 1.130307
1.522375 0.394732 0.970655
1.463920 0.285569 0.905027
1.389856 0.143285 0.894436
1.251101 0.000000 0.935828
1.282824 0.000000 0.915531
1.306451 0.000000 0.901840
1.317836 0.000000 0.887635
1.324727 0.000000 0.876272
1.329073 0.000000 0.866883
1.332477 0.000000 0.858906
0.624454 0.948856 0.000000
0.668117 0.934571 0.000000
0.885244 0.858411 0.000000
1.508765 0.540531 0.423118
1.494010 0.617475 1.530098
1.565347 0.647437 1.695803
1.594709 0.526247 1.368030
1.553146 0.429944 1.169929
1.495628 0.331939 1.064329
1.429769 0.220044 1.012526
1.324188 0.052876 1.005505
1.241501 0.000000 1.012466
1.268264 0.000000 0.980093
1.285853 0.000000 0.953922
1.297939 0.000000 0.932575
1.306724 0.000000 0.915137
1.086526 0.781221 0.009931
1.139725 0.759033 0.034498
1.426551 0.632460 0.200667
1.544564 0.553409 0.433166
1.614167 0.556005 1.147308
1.499963 0.638398 1.602631
1.584776 0.655416 1.716695
1.589698 0.548111 1.466696
1.556214 0.455812 1.286556
1.507266 0.366092 1.172404
1.452643 0.271962 1.103255
1.387587 0.162937 1.066463
1.223612 0.000000 1.076689
1.225435 0.000000 1.046588
1.249907 0.000000 1.012848
1.267980 0.000000 0.985003
1.430805 0.639378 0.194506
1.443282 0.634394 0.210382
1.495232 0.612783 0.282272
1.565460 0.560956 0.439121
1.642650 0.504661 0.679083
1.588100 0.580005 1.340109
1.512189 0.646925 1.629377
1.593872 0.659153 1.726457
