assets/luts/VM Thermal Picasso.cube
LUT_3D_SIZE 6
1.000090 1.000000 1.000091
0.596037 0.949799 0.659551
0.026333 0.833348 0.171129
0.000000 0.633866 0.000000
0.000000 0.644443 0.000000
0.000000 0.645943 0.000000
0.861416 0.922766 1.265962
0.627507 1.092539 0.923800
0.068965 0.939521 0.413079
0.000000 0.624071 0.000000
0.000000 0.639366 0.000000
0.000000 0.642985 0.000000
0.562530 0.737976 1.718025
0.384681 0.877466 1.498789
0.060998 1.225087 0.802747
0.000000 1.003902 0.371964
0.000000 0.785684 0.000000
0.000000 0.629163 0.000000
0.573520 0.752453 1.751802
0.538548 0.760210 1.727159
0.315325 0.931210 1.414589
0.061338 1.232190 0.807239
0.000000 1.047352 0.417807
0.000000 0.905984 0.125960
0.578272 0.758593 1.766174
0.560108 0.762536 1.753366
0.490018 0.777133 1.699125
0.236772 1.021638 1.259663
0.061489 1.235148 0.809280
0.000000 1.086003 0.487062
0.578919 0.759442 1.768383
0.568222 0.761667 1.761020
0.524992 0.771011 1.728676
0.450171 0.785321 1.665588
0.188732 1.079614 1.147507
0.061523 1.235638 0.809633
0.876620 0.852968 0.549892
0.655731 0.952366 0.592380
0.147508 0.810669 0.140540
0.000000 0.613043 0.000000
0.000000 0.645001 0.000000
0.000000 0.646311 0.000000
1.283203 0.836816 1.079714
0.827840 0.827842 0.827841
0.000000 0.746890 0.022585
0.000000 0.628968 0.000000
0.000000 0.645203 0.000000
0.000000 0.645974 0.000000
0.915740 0.659124 1.722404
0.550949 0.722769 1.682631
0.059871 1.202718 0.787994
0.000000 0.963433 0.305736
0.000000 0.649389 0.000000
0.000000 0.632314 0.000000
0.607207 0.739269 1.765332
0.567602 0.744613 1.733618
0.429411 0.773135 1.623549
0.060634 1.217682 0.797827
0.000000 1.037396 0.398398
0.000000 0.891580 0.093878
0.595008 0.751891 1.772989
0.578293 0.758633 1.766311
0.502935 0.774627 1.710198
0.251311 1.004193 1.291888
0.061462 1.234516 0.808855
0.000000 1.081867 0.479213
0.588643 0.755551 1.772312
0.578952 0.759489 1.768328
0.533988 0.769075 1.735665
0.455780 0.784353 1.670714
0.193428 1.073885 1.159094
0.061521 1.235660 0.809648
0.695413 0.645127 0.000977
0.524808 0.718058 0.032003
0.113607 0.826260 0.000000
0.000000 0.605103 0.000000
0.000000 0.613083 0.000000
0.000000 0.641853 0.000000
0.972609 0.643635 0.216473
0.568864 0.514112 0.000000
0.000000 0.748195 0.000000
0.000000 0.597871 0.000000
0.000000 0.617791 0.000000
0.000000 0.646906 0.000000
1.747911 0.526368 1.191150
1.713615 0.515933 1.167537
0.605740 0.605740 0.605740
0.000000 0.504185 0.000000
0.000000 0.607389 0.000000
0.000000 0.552385 0.000000
1.103304 0.628733 1.728679
0.919358 0.652686 1.747909
0.506147 0.664042 1.545809
0.054897 1.102768 0.722559
0.000000 0.925558 0.264940
0.000000 0.682596 0.000000
0.671919 0.722352 1.800097
0.656210 0.728549 1.795290
0.551126 0.723056 1.683344
0.399620 0.752672 1.558599
0.058631 1.177773 0.771669
0.000000 0.912598 0.378664
0.632269 0.738722 1.788836
0.622613 0.742448 1.785431
0.516899 0.678092 1.578810
0.432098 0.695677 1.513693
0.194833 0.932192 1.087536
0.054925 1.103239 0.722781
0.456689 0.378788 0.000000
0.252259 0.453634 0.000000
0.000000 0.536485 0.000000
0.000000 0.679519 0.000000
0.000000 0.626988 0.000000
0.000000 0.613396 0.000000
0.848355 0.331597 0.000000
0.253149 0.158538 0.000000
0.000000 0.504312 0.000000
0.000000 0.675036 0.000000
0.000000 0.625762 0.000000
0.000000 0.613086 0.000000
1.354051 0.431270 0.198549
1.271063 0.413067 0.093309
0.205689 0.128827 0.000000
0.000000 0.571581 0.000000
0.000000 0.583250 0.000000
0.000000 0.529893 0.000000
1.774832 0.534381 1.209287
1.755608 0.528587 1.196178
1.574321 0.474050 1.072760
0.383552 0.383553 0.383552
0.000000 0.383958 0.000000
0.000000 0.367191 0.000000
1.301158 0.597275 1.676757
1.266256 0.603357 1.691253
0.941472 0.621116 1.690502
0.454606 0.596340 1.388484
0.049651 0.997173 0.653369
0.000000 0.565407 0.176906
0.728792 0.702302 1.817566
0.720134 0.705483 1.815426
0.608007 0.642926 1.611411
0.362453 0.475539 1.107021
0.216247 0.555148 0.931939
0.038513 0.773606 0.506895
0.262879 0.164620 0.000000
0.187785 0.214672 0.000000
0.000000 0.431000 0.000000
0.000000 0.577032 0.000000
0.000000 0.690162 0.000000
0.000000 0.637722 0.000000
0.273667 0.159532 0.000000
0.263526 0.165044 0.000000
0.000000 0.405020 0.000000
0.000000 0.570858 0.000000
0.000000 0.690849 0.000000
0.000000 0.636734 0.000000
0.994550 0.353057 0.000000
0.912607 0.333502 0.000000
0.232536 0.145634 0.000000
0.000000 0.491388 0.000000
0.000000 0.655800 0.000000
0.000000 0.552685 0.000000
1.464272 0.444615 0.366929
1.443321 0.440445 0.330824
1.251154 0.395461 0.129611
0.160429 0.100460 0.000000
0.000000 0.472690 0.000000
0.000000 0.367890 0.000000
1.786407 0.537868 1.217106
1.786457 0.537883 1.217140
1.703184 0.512789 1.160360
1.418732 0.427175 0.966641
0.161389 0.161389 0.161389
0.000000 0.143758 0.000000
1.428504 0.576689 1.615329
1.415782 0.578756 1.622636
1.205940 0.526313 1.478984
0.678997 0.397888 1.096572
0.148685 0.195057 0.454130
0.015793 0.317235 0.207845
0.263521 0.165040 0.000000
0.256451 0.167189 0.000000
0.000000 0.357676 0.000000
0.000000 0.491365 0.000000
0.000000 0.602758 0.000000
0.000000 0.691676 0.000000
0.269781 0.162102 0.000000
0.263555 0.165055 0.000000
0.017477 0.333701 0.000000
0.000000 0.483305 0.000000
0.000000 0.600264 0.000000
0.000000 0.691754 0.000000
0.754418 0.294064 0.000000
0.672860 0.272634 0.000000
0.235288 0.147354 0.000000
0.000000 0.392067 0.000000
0.000000 0.524397 0.000000
0.000000 0.617552 0.000000
1.181188 0.390462 0.000000
1.154958 0.385224 0.000000
0.905814 0.317744 0.000000
0.165014 0.103336 0.000000
0.000000 0.341310 0.000000
0.000000 0.433076 0.000000
1.545809 0.459659 0.514269
1.537159 0.457971 0.497808
1.335005 0.401513 0.374766
0.849095 0.265315 0.119673
0.067676 0.042381 0.000000
0.000000 0.177616 0.000000
1.788155 0.538347 1.218286
1.787845 0.538373 1.218344
1.596510 0.480667 1.087758
1.119431 0.337044 0.762662
0.459154 0.138245 0.312856
0.000000 0.000000 0.000000
