assets/luts/Warm Cinema.cube
TITLE "Generated by Resolve"
LUT_3D_SIZE 33
0.0386664 0.0590219 0.0709087
0.0386664 0.0590219 0.0709087
0.0384833 0.0598001 0.0713359
0.0380102 0.0636912 0.0725109
0.051133 0.0674601 0.0726635
0.0725109 0.0711528 0.0720378
0.0969558 0.0758679 0.0708934
0.123384 0.0817578 0.068925
0.151904 0.0881819 0.0661631
0.182391 0.0938125 0.0621195
0.215228 0.0977798 0.0575418
0.249729 0.101305 0.0522774
0.286046 0.104234 0.0471199
0.323751 0.10724 0.0429236
0.358282 0.112322 0.0400702
0.389166 0.120073 0.0386816
0.427558 0.124971 0.0417639
0.468086 0.127382 0.0476539
0.509987 0.129412 0.0545968
0.552819 0.131624 0.061799
0.595651 0.133806 0.0693523
0.638651 0.135882 0.0774701
0.6795 0.13872 0.085008
0.719112 0.141955 0.0916762
0.75787 0.145327 0.0983597
0.795346 0.14934 0.104112
0.834348 0.155093 0.106889
0.872282 0.160739 0.109346
0.909194 0.166659 0.110964
0.945281 0.172793 0.112016
0.980758 0.17937 0.112093
1 0.186252 0.111192
1 0.190875 0.110536
0.0386664 0.0590219 0.0709087
0.0386664 0.0590219 0.0709087
0.0384833 0.0598001 0.0713359
0.0380255 0.0637522 0.0725261
0.0514076 0.0675212 0.0726635
0.0729076 0.0712139 0.0720073
0.0975662 0.0759899 0.0708629
0.124056 0.0818952 0.068864
0.152331 0.0882887 0.0661021
0.18294 0.0938735 0.0620279
0.215717 0.0978408 0.0574655
0.250248 0.101366 0.0522164
0.286885 0.104311 0.0469978
0.3243 0.107286 0.0428779
0.358709 0.112428 0.0400549
0.389685 0.120195 0.0386664
0.428229 0.125017 0.0418555
0.468772 0.127428 0.0477607
0.510903 0.129458 0.0547494
0.553521 0.131655 0.0619211
0.596353 0.133837 0.0694896
0.639277 0.135897 0.0776074
0.680079 0.138766 0.0850996
0.719768 0.142016 0.0917983
0.758648 0.145388 0.098497
0.795972 0.149416 0.104189
0.834928 0.155169 0.10692
0.872847 0.16083 0.109377
0.909819 0.166766 0.110979
0.946166 0.172961 0.112016
0.981476 0.179492 0.112078
1 0.186358 0.111192
1 0.190875 0.110536
0.0386664 0.0590219 0.0709087
0.0386664 0.0590219 0.0709087
0.0384833 0.0597848 0.0713207
0.0380255 0.0637369 0.0725261
0.0513313 0.0675059 0.0726635
0.0729992 0.0712291 0.0720073
0.0974746 0.0759747 0.0708629
0.123949 0.0818799 0.0688792
0.152224 0.0882582 0.0661173
0.182818 0.0938582 0.0620584
0.215595 0.0978256 0.0574807
0.250446 0.101381 0.0521859
0.286748 0.104295 0.047013
0.324163 0.107271 0.0428779
0.358602 0.112398 0.0400549
0.389563 0.120165 0.0386664
0.428382 0.125032 0.0418708
0.468925 0.127428 0.0477913
0.51075 0.129458 0.0547189
0.553368 0.13164 0.0618906
0.596201 0.133837 0.0694591
0.6392 0.135897 0.0775921
0.680217 0.138781 0.0851301
0.719844 0.142016 0.0918135
0.758511 0.145373 0.0984665
0.795819 0.149401 0.104173
0.834791 0.155154 0.106905
0.87277 0.160815 0.109361
0.909957 0.166796 0.110979
0.946029 0.17293 0.112016
0.981353 0.179477 0.112078
1 0.186328 0.111192
1 0.190875 0.110536
0.0386664 0.0590219 0.0709087
0.0386664 0.0590219 0.0709087
0.0384833 0.0597848 0.0713207
0.0380255 0.0637522 0.0725261
0.0514687 0.0675364 0.0726635
0.0729534 0.0712139 0.0720073
0.0974136 0.0759594 0.0708629
0.123903 0.0818647 0.0688792
0.152224 0.0882582 0.0661173
0.183001 0.0938888 0.0620279
0.215839 0.0978561 0.0574502
0.250385 0.101381 0.0521859
0.286748 0.104295 0.047013
0.324163 0.107271 0.0428779
0.358557 0.112398 0.0400549
0.389746 0.120195 0.0386664
0.428305 0.125017 0.0418708
0.468849 0.127428 0.047776
0.510674 0.129442 0.0547189
0.553292 0.13164 0.0618753
0.596124 0.133837 0.0694438
0.639429 0.135912 0.0776379
0.680217 0.138781 0.0851301
0.719844 0.142016 0.0918135
0.758434 0.145373 0.0984665
0.795758 0.149386 0.104173
0.834791 0.155154 0.106905
0.872984 0.160845 0.109377
0.90988 0.166781 0.110979
0.945968 0.172915 0.112016
0.981277 0.179461 0.112093
1 0.186328 0.111192
1 0.190875 0.110536
0.0360571 0.0700084 0.0685893
0.0360723 0.0699779 0.0685893
0.0360113 0.0701152 0.0694896
0.0371557 0.0698253 0.0707713
0.0510872 0.0722667 0.0710918
0.0714275 0.0771954 0.0702525
0.0963455 0.0804761 0.0704356
0.123919 0.0832074 0.0686351
0.153597 0.0869154 0.0661326
0.184817 0.0916457 0.0625162
0.218097 0.0961624 0.0576944
0.252445 0.100725 0.0522774
0.288914 0.104326 0.0469215
0.326406 0.107408 0.0426947
0.360616 0.112276 0.0404822
0.392508 0.117952 0.0413977
0.430793 0.12163 0.0457923
0.470802 0.124865 0.0510567
0.512489 0.127825 0.0569467
0.555077 0.130694 0.0634318
0.597711 0.133547 0.070161
0.640238 0.136172 0.0776379
0.681193 0.139345 0.0844129
0.720897 0.142794 0.0906081
0.759762 0.146853 0.0962539
0.798352 0.152163 0.0994583
0.837217 0.157626 0.102556
0.874861 0.163363 0.104967
0.911711 0.169253 0.106996
0.948302 0.175586 0.107851
0.983566 0.182345 0.107744
1 0.189441 0.106996
1 0.19408 0.10602
0.032639 0.0843366 0.0657511
0.0326238 0.0844282 0.0657206
0.0325933 0.0844434 0.0666514
0.0337987 0.0845502 0.0702525
0.0473182 0.083772 0.0694896
0.0751659 0.0826429 0.0635386
0.0990616 0.0865797 0.0648508
0.124422 0.0928359 0.0635691
0.15314 0.0975509 0.0615091
0.185412 0.100557 0.0587472
0.22002 0.10251 0.0549325
0.256855 0.103365 0.05037
0.294697 0.104921 0.046128
0.333455 0.107103 0.0425269
0.365301 0.112322 0.0415351
0.398474 0.117983 0.0427863
0.437171 0.121904 0.0469215
0.476936 0.125536 0.0514687
0.518502 0.129183 0.0567483
0.560327 0.132418 0.0625772
0.60267 0.135515 0.068864
0.644587 0.13846 0.075639
0.684993 0.141939 0.0818036
0.72433 0.146258 0.0863355
0.7635 0.151415 0.0901808
0.801709 0.156466 0.0935836
0.840131 0.161944 0.0965286
0.877989 0.167468 0.0990768
0.914778 0.17351 0.100938
0.950927 0.180087 0.101579
0.986404 0.187121 0.101381
1 0.194293 0.100755
1 0.199161 0.0998703
0.028397 0.102159 0.061677
0.0284123 0.102098 0.0616922
0.028397 0.102083 0.0624094
0.0277714 0.105135 0.0648051
0.0395819 0.10602 0.0664988
0.0618448 0.102968 0.0616159
0.103716 0.0946822 0.0567483
0.132631 0.0978714 0.0552834
0.160922 0.103655 0.0522316
0.191135 0.109743 0.0492561
0.223407 0.115084 0.0453498
0.259419 0.117296 0.0417639
0.298695 0.117586 0.0377508
0.338918 0.118563 0.0341802
0.374487 0.122255 0.0332952
0.407324 0.127153 0.035172
0.446342 0.130465 0.0400397
0.486961 0.133608 0.045304
0.528176 0.136706 0.0508125
0.569558 0.139696 0.0565347
0.611185 0.142687 0.0626383
0.652613 0.145785 0.0686046
0.692866 0.150072 0.0731365
0.732235 0.154635 0.0771649
0.770352 0.159411 0.0808423
0.808148 0.164111 0.0845502
0.845975 0.169299 0.0876783
0.883452 0.17499 0.0899214
0.920165 0.181338 0.0914321
0.955932 0.18793 0.0920882
0.991012 0.194766 0.0923018
1 0.202289 0.0913405
1 0.207156 0.0903334
0.0236973 0.12192 0.056733
0.0237125 0.121874 0.0567483
0.0236973 0.121859 0.0571603
0.0223087 0.127718 0.0556191
0.0316472 0.130983 0.0537118
0.0528725 0.127016 0.0570382
0.0884108 0.119982 0.0574655
0.133471 0.109834 0.049073
0.169177 0.110445 0.0442359
0.203189 0.115633 0.0383764
0.23682 0.121447 0.0328527
0.271138 0.127184 0.0272984
0.306584 0.132494 0.021912
0.344121 0.136492 0.0188602
0.383932 0.140108 0.0170138
0.41619 0.145769 0.0173953
0.455863 0.148867 0.0229191
0.496925 0.150973 0.0293736
0.538811 0.152605 0.0364233
0.580591 0.154604 0.0431525
0.622599 0.156634 0.0499275
0.663767 0.159274 0.0560311
0.703731 0.162951 0.0608835
0.742321 0.166888 0.0652476
0.78024 0.171283 0.0691081
0.81796 0.176165 0.0722515
0.855756 0.18172 0.0746777
0.89276 0.187762 0.0764782
0.928847 0.193698 0.0782483
0.963607 0.200336 0.0788128
0.997391 0.207019 0.078996
1 0.214588 0.0782025
1 0.219516 0.077348
0.0188296 0.142443 0.0502785
0.0188449 0.142397 0.0502937
0.0187381 0.142855 0.0501259
0.0168307 0.151186 0.0444495
0.024567 0.155062 0.0402228
0.0482795 0.151415 0.0429236
0.0807355 0.147051 0.0514076
0.121263 0.136584 0.05066
0.168124 0.126436 0.0393378
0.20911 0.124269 0.0324865
0.249119 0.128756 0.0226902
0.286671 0.13402 0.0141451
0.323415 0.139513 0.00827039
0.360449 0.145373 0.00605783
0.394827 0.151675 0.00585946
0.428687 0.157916 0.00688182
0.467384 0.162387 0.0107729
0.508034 0.165927 0.016083
0.549905 0.169055 0.0217288
0.592111 0.171481 0.0281071
0.634791 0.173312 0.0351415
0.675776 0.176699 0.0402533
0.715602 0.180514 0.0447242
0.754772 0.185138 0.0482338
0.793042 0.189807 0.051545
0.8309 0.195209 0.0540627
0.868299 0.200443 0.0569924
0.904601 0.206165 0.0589456
0.940032 0.212253 0.06009
0.973678 0.218479 0.0609598
1 0.225147 0.0609751
1 0.232395 0.0603647
1 0.237247 0.0595407
0.0138857 0.163287 0.0429541
0.013901 0.16321 0.0429847
0.0135042 0.16495 0.0416724
0.0115053 0.173877 0.0336156
0.016083 0.179355 0.0269017
0.0411231 0.176394 0.0294499
0.0790417 0.171588 0.0384833
0.114199 0.163714 0.0551919
0.160464 0.155123 0.0371862
0.207111 0.142809 0.0303044
0.252461 0.13904 0.0195773
0.296727 0.142672 0.00633249
0.339071 0.147784 0
0.374395 0.154177 0
0.411551 0.160311 0
0.450614 0.165606 0.00328069
0.490166 0.170245 0.00733959
0.528283 0.17467 0.0110781
0.568383 0.178897 0.0153201
0.608209 0.182773 0.0197147
0.648753 0.187533 0.0234836
0.687892 0.19379 0.0251621
0.727764 0.200061 0.027039
0.766369 0.206912 0.0282139
0.805219 0.21326 0.0299077
0.843153 0.219837 0.0314031
0.881102 0.225895 0.0331121
0.917311 0.231449 0.0350805
0.95172 0.237415 0.0364233
0.984955 0.243549 0.0370947
1 0.25008 0.0371557
1 0.257252 0.036286
1 0.261753 0.0357671
0.00856031 0.185626 0.0355688
0.00857557 0.18558 0.035584
0.00822461 0.187091 0.0343023
0.00643931 0.195071 0.0265812
0.00724804 0.203372 0.0159609
0.032105 0.201892 0.017258
0.0713512 0.19826 0.0249332
0.115602 0.18732 0.043946
0.14963 0.181979 0.0550546
0.202884 0.172152 0.0255283
0.25034 0.15967 0.0198062
0.299199 0.154528 0.00451667
0.345693 0.157214 0
0.388525 0.162814 0
0.43151 0.16791 0
0.472679 0.173068 0
0.513481 0.177859 0.00424201
0.554559 0.181949 0.00894179
0.595987 0.18613 0.0135653
0.635401 0.19147 0.0163882
0.672984 0.198093 0.0175937
0.710979 0.205295 0.0180667
0.747997 0.213138 0.0178531
0.785214 0.221332 0.0172732
0.822019 0.229953 0.0163119
0.858137 0.238941 0.0147402
0.894301 0.247822 0.0133364
0.929229 0.257618 0.0106508
0.963058 0.266896 0.00836194
0.996124 0.276127 0.00576791
1 0.283055 0.00511177
1 0.289937 0.0043946
1 0.293309 0.00375372
0.00350958 0.206592 0.0301366
0.00350958 0.206561 0.0301518
0.00325017 0.207752 0.0289464
0.00157168 0.215228 0.0211185
0 0.22591 0.00715648
0.0222324 0.227512 0.00476081
0.0625467 0.225025 0.0105135
0.110018 0.214008 0.0294652
0.153552 0.202853 0.0491493
0.196399 0.205188 0.0376287
0.248081 0.188083 0.016434
0.298054 0.17641 0.0059205
0.349462 0.170443 0
0.395193 0.172274 0
0.443824 0.176562 0
0.492668 0.18088 0
0.538705 0.185138 0.00204471
0.581201 0.189914 0.00633249
0.62208 0.195865 0.00888075
0.662058 0.202243 0.0107729
0.699306 0.209384 0.0113527
0.735958 0.216709 0.0115358
0.772992 0.224292 0.0116579
0.808927 0.232822 0.0104524
0.843122 0.242008 0.00822461
0.879042 0.251667 0.00584421
0.913436 0.263081 0.00143435
0.945449 0.275425 0
0.977829 0.287922 0
1 0.30042 0
1 0.312108 0
1 0.323171 0
1 0.324102 0
0 0.226154 0.0252689
0 0.226108 0.0252689
0 0.227283 0.0240635
0 0.234531 0.0158541
0 0.245319 0.000976577
0.0124971 0.252277 0
0.0536202 0.250507 0
0.103609 0.240162 0.0141756
0.15172 0.227741 0.0361486
0.201419 0.22414 0.0323339
0.247425 0.22504 0.0160678
0.295384 0.20354 0.00993362
0.349432 0.19292 0
0.400412 0.186542 0
0.450797 0.18674 0
0.502495 0.189532 0
0.553735 0.19443 0
0.604059 0.200504 0
0.650111 0.20621 0.00384527
0.688319 0.213687 0.00448615
0.724788 0.221424 0.00401312
0.760449 0.229435 0.00349432
0.795575 0.23743 0.00265507
0.830198 0.245716 0.00151064
0.865003 0.254841 0
0.898436 0.264897 0
0.931579 0.27715 0
0.963058 0.289296 0
0.994537 0.302968 0
1 0.317021 0
1 0.331426 0
1 0.344182 0
1 0.344625 0
0 0.244923 0.0204166
0 0.244846 0.0204318
0 0.245914 0.019379
0 0.252552 0.0113375
0 0.263661 0
0.00958267 0.270191 0
0.0462806 0.274815 0
0.0975509 0.265568 0
0.150729 0.252659 0.021088
0.201114 0.242771 0.0323033
0.255177 0.245228 0.00335698
0.296941 0.241459 0.00267033
0.34667 0.218372 0.00454719
0.403983 0.208972 0
0.456138 0.201694 0
0.510597 0.202808 0
0.563622 0.205875 0
0.615824 0.211917 0
0.664485 0.217868 0
0.708629 0.226032 0
0.748241 0.234134 0
0.783429 0.24181 0
0.817075 0.250309 0
0.84979 0.259052 0
0.882307 0.268742 0
0.914946 0.27953 0
0.947204 0.291417 0
0.978393 0.303975 0
1 0.317845 0
1 0.333349 0
1 0.348608 0
1 0.359869 0
1 0.359655 0
0 0.265019 0.0141909
0 0.265095 0.0141604
0 0.265202 0.0139315
0 0.270466 0.00672923
0 0.281514 0
0.00689708 0.287434 0
0.0442664 0.291997 0
0.0898451 0.294301 0
0.147723 0.28159 0
0.197925 0.270115 0.0199283
0.256626 0.272328 0
0.304326 0.273335 0
0.349157 0.266285 0
0.403143 0.242283 0
0.461082 0.232486 0
0.517372 0.224857 0
0.573678 0.22388 0
0.62594 0.226612 0
0.675761 0.231006 0
0.719997 0.238666 0
0.761395 0.246769 0
0.799924 0.255436 0
0.837385 0.263828 0
0.869337 0.272908 0
0.899794 0.282689 0
0.930694 0.294423 0
0.960967 0.306722 0
0.991394 0.319844 0
1 0.334218 0
1 0.349462 0
1 0.365484 0
1 0.375174 0
1 0.375128 0
0 0.285359 0.00772107
0 0.285283 0.00773632
0 0.285405 0.00746166
0 0.287984 0.0033875
0 0.298939 0
0.00299077 0.305165 0
0.0415351 0.309972 0
0.0901045 0.314748 0
0.146441 0.30988 0
0.199039 0.298482 0
0.251591 0.296086 0
0.313512 0.300755 0
0.358953 0.303853 0
0.403922 0.291325 0
0.464729 0.267582 0
0.524102 0.257572 0
0.581979 0.249577 0
0.636255 0.246571 0
0.684749 0.249851 0
0.729366 0.254673 0
0.771008 0.260746 0
0.810193 0.268894 0
0.84744 0.278202 0
0.883711 0.288045 0
0.91632 0.298482 0
0.945632 0.309422 0
0.975067 0.321782 0
1 0.336278 0
1 0.350942 0
1 0.366323 0
1 0.382528 0
1 0.391577 0
1 0.391379 0
0 0.304585 0.00299077
0 0.304524 0.00300603
0 0.304662 0.00277714
0 0.306035 0
0 0.316518 0
0 0.323247 0
0.0440986 0.327581 0
0.0945449 0.333043 0
0.14786 0.335439 0
0.202686 0.325429 0
0.252766 0.319524 0
0.314488 0.327642 0
0.367117 0.328649 0
0.417304 0.336492 0
0.463539 0.316381 0
0.529702 0.293996 0
0.58854 0.284276 0
0.643153 0.276173 0
0.6925 0.272251 0
0.737346 0.274647 0
0.779599 0.279759 0
0.818738 0.285771 0
0.855802 0.293126 0
0.891508 0.302739 0
0.925246 0.313771 0
0.959091 0.325353 0
0.987564 0.338308 0
1 0.35201 0
1 0.367575 0
1 0.38381 0
1 0.40116 0
1 0.409842 0
1 0.409689 0
0 0.322774 0.00103761
0 0.322713 0.00105287
0 0.322789 0.000686656
0 0.324285 0
0 0.334279 0
0 0.34229 0
0.0494698 0.346944 0
0.0998398 0.353307 0
0.153231 0.358907 0
0.20885 0.350118 0
0.257923 0.343374 0
0.314229 0.350881 0
0.378134 0.357488 0
0.42269 0.360433 0
0.475639 0.368963 0
0.527886 0.343328 0
0.593942 0.321782 0
0.648478 0.312551 0
0.697459 0.306279 0
0.743465 0.301503 0
0.786328 0.30164 0
0.825696 0.30692 0
0.862806 0.312917 0
0.897978 0.319768 0
0.931914 0.329015 0
0.964874 0.341512 0
0.997238 0.354818 0
1 0.369451 0
1 0.384543 0
1 0.400641 0
1 0.418235 0
1 0.426139 0
1 0.426184 0
0 0.339727 0.0031281
0 0.339818 0.00314336
0 0.339925 0.00271611
0 0.341924 0
0 0.355734 0
0.00640879 0.361898 0
0.0559548 0.366964 0
0.106279 0.373922 0
0.159503 0.380606 0
0.215259 0.373281 0
0.264714 0.367361 0
0.316472 0.372015 0
0.379156 0.383413 0
0.43711 0.38735 0
0.482628 0.396246 0
0.533074 0.401587 0
0.586633 0.37293 0
0.651637 0.352163 0
0.701015 0.344274 0
0.74667 0.33814 0
0.789288 0.333089 0
0.829984 0.330617 0
0.868116 0.334691 0
0.90338 0.341665 0
0.936797 0.349233 0
0.970672 0.357992 0
1 0.370932 0
1 0.386191 0
1 0.402243 0
1 0.418433 0
1 0.43624 0
1 0.441901 0
1 0.441932 0
0 0.355673 0.00410468
0 0.355642 0.00410468
0 0.355978 0.00321965
0 0.363409 0
0 0.377035 0
0.0149844 0.381216 0
0.0631418 0.386679 0
0.113664 0.393744 0
0.166949 0.400351 0
0.222263 0.394705 0
0.272023 0.389273 0
0.320821 0.392691 0
0.380362 0.405509 0
0.441657 0.414145 0
0.489403 0.418143 0
0.541451 0.433738 0
0.58648 0.435325 0
0.638788 0.406531 0
0.700587 0.385672 0
0.747387 0.377981 0
0.789944 0.371649 0
0.83035 0.36611 0
0.869566 0.36199 0
0.906249 0.364385 0
0.940932 0.371679 0
0.973678 0.380087 0
1 0.38941 0
1 0.401831 0
1 0.417792 0
1 0.435126 0
1 0.453025 0
1 0.456367 0
1 0.456382 0
0 0.376883 0
0 0.376791 0
0 0.377844 0
0 0.388159 0
0 0.397192 0
0.0235599 0.400671 0
0.0706798 0.406073 0
0.120974 0.413108 0
0.17496 0.418875 0
0.229526 0.414511 0
0.279393 0.410025 0
0.327413 0.413581 0
0.381231 0.424918 0
0.442069 0.438178 0
0.500832 0.445838 0
0.538994 0.451408 0
0.593484 0.473487 0
0.632227 0.472435 0
0.681956 0.443748 0
0.743374 0.422614 0
0.789334 0.413886 0
0.829786 0.407126 0
0.869032 0.401419 0
0.905806 0.39588 0
0.941787 0.395499 0
0.975052 0.403189 0
1 0.412268 0
1 0.421561 0
1 0.433906 0
1 0.450996 0
1 0.467201 0
1 0.46923 0
1 0.468879 0
0 0.401877 0
0 0.401785 0
0 0.402945 0
0 0.41265 0
0 0.416281 0
0.0327916 0.42002 0
0.0791485 0.425391 0
0.129259 0.432212 0
0.18378 0.435721 0
0.236988 0.433127 0
0.285176 0.431067 0
0.33196 0.433661 0
0.381201 0.443763 0
0.439078 0.459388 0
0.497581 0.47158 0
0.552972 0.480812 0
0.582605 0.488624 0
0.634928 0.513588 0
0.672221 0.512139 0
0.718395 0.483818 0
0.780224 0.463035 0
0.824659 0.452781 0
0.865736 0.444923 0
0.903227 0.437903 0
0.939284 0.431159 0
0.974044 0.426902 0
1 0.435691 0
1 0.44509 0
1 0.455238 0
1 0.467079 0
1 0.481956 0
1 0.48307 0
1 0.482765 0
0 0.427466 0
0 0.427436 0
0 0.428656 0
0 0.435355 0
0 0.438025 0
0.0343175 0.442863 0
0.080293 0.449317 0
0.130587 0.456748 0
0.187533 0.455528 0
0.239963 0.453727 0
0.288808 0.452506 0
0.334462 0.45388 0
0.382208 0.464012 0
0.434531 0.478462 0
0.492775 0.495109 0
0.547494 0.506844 0
0.594049 0.51693 0
0.622629 0.526802 0
0.67219 0.554559 0
0.708064 0.554665 0
0.753079 0.527016 0
0.813886 0.50396 0
0.857313 0.491463 0
0.89836 0.483726 0
0.935943 0.475151 0
0.970901 0.467155 0
1 0.460853 0
1 0.468757 0
1 0.477745 0
1 0.488411 0
1 0.496635 0
1 0.496147 0
1 0.496147 0
0 0.452003 0
0 0.452049 0
0 0.45304 0
0 0.461021 0
0 0.464027 0
0.0289769 0.468894 0
0.0778973 0.475135 0
0.133303 0.475074 0
0.189731 0.473671 0
0.242832 0.473075 0
0.291493 0.472953 0
0.33698 0.47422 0
0.383978 0.484382 0
0.432364 0.497002 0
0.487633 0.514534 0
0.54316 0.530999 0
0.592782 0.543725 0
0.630945 0.55404 0
0.661051 0.568078 0
0.70486 0.594095 0
0.740215 0.596704 0
0.78291 0.57113 0
0.84358 0.548424 0
0.884916 0.53167 0
0.92517 0.522011 0
0.965621 0.512291 0
1 0.50222 0
1 0.49482 0
1 0.501167 0
1 0.511589 0
1 0.518471 0
1 0.517281 0
1 0.517281 0
0 0.476234 0
0 0.476173 0
0 0.476982 0
0 0.479377 0
0 0.482689 0
0.0308537 0.488106 0
0.079942 0.493202 0
0.137682 0.49131 0
0.192782 0.490455 0
0.245335 0.491066 0
0.294453 0.492515 0
0.340444 0.494713 0
0.387045 0.504005 0
0.434516 0.517342 0
0.484474 0.532921 0
0.538689 0.5523 0
0.588907 0.567254 0
0.634287 0.581598 0
0.665431 0.591196 0
0.694347 0.607202 0
0.735073 0.633295 0
0.769116 0.638422 0
0.811566 0.616968 0
0.871946 0.592203 0
0.912688 0.571496 0
0.951537 0.559167 0
0.991424 0.547829 0
1 0.537011 0
1 0.528496 0
1 0.535241 0
1 0.541817 0
1 0.540322 0
1 0.54049 0
0 0.489082 0
0 0.489067 0
0 0.489128 0
0 0.490578 0
0 0.494545 0
0.0389563 0.500618 0
0.0860609 0.506691 0
0.142565 0.505776 0
0.197284 0.506264 0
0.249058 0.508553 0
0.298787 0.511467 0
0.345113 0.514855 0
0.389548 0.522332 0
0.437491 0.537148 0
0.485023 0.551995 0
0.534997 0.570382 0
0.584817 0.589105 0
0.629343 0.604288 0
0.670298 0.618357 0
0.698528 0.629282 0
0.725261 0.645472 0
0.763745 0.673518 0
0.795773 0.679667 0
0.835264 0.660456 0
0.899077 0.635676 0
0.941207 0.610819 0
0.977615 0.595499 0
1 0.582681 0
1 0.571206 0
1 0.563882 0
1 0.566049 0
1 0.564141 0
1 0.564355 0
0 0.499123 0
0 0.499092 0
0 0.499168 0
0 0.501122 0
0.00761425 0.50547 0
0.0474556 0.511986 0
0.09337 0.519646 0
0.148043 0.519493 0
0.20267 0.520943 0
0.254063 0.524269 0
0.303319 0.528511 0
0.349508 0.533135 0
0.394934 0.540429 0
0.441978 0.556054 0
0.488792 0.572198 0
0.534127 0.588022 0
0.581064 0.60676 0
0.626383 0.624903 0
0.666499 0.640574 0
0.70399 0.656168 0
0.730526 0.668421 0
0.753796 0.683162 0
0.78967 0.712535 0
0.821546 0.720745 0
0.858045 0.702785 0
0.924285 0.677272 0
0.970596 0.647517 0
1 0.630823 0
1 0.617105 0
1 0.606577 0
1 0.596551 0
1 0.592187 0
1 0.592996 0
0 0.508324 0
0 0.508385 0
0 0.508492 0
0 0.510567 0
0.0208896 0.515206 0
0.0588083 0.522225 0
0.102495 0.53106 0
0.156298 0.532113 0
0.208942 0.534188 0
