assets/luts/Warm Cinema.cube
TITLE "Generated by Resolve"
LUT_3D_SIZE 5
0.0386664 0.0590219 0.0709087
0.151904 0.0881819 0.0661631
0.427558 0.124971 0.0417639
0.75787 0.145327 0.0983597
1 0.190875 0.110536
0.0188296 0.142443 0.0502785
0.168124 0.126436 0.0393378
0.467384 0.162387 0.0107729
0.793042 0.189807 0.051545
1 0.237247 0.0595407
0 0.304585 0.00299077
0.14786 0.335439 0
0.58854 0.284276 0
0.925246 0.313771 0
1 0.409689 0
0 0.476234 0
0.192782 0.490455 0
0.588907 0.567254 0
0.912688 0.571496 0
1 0.54049 0
0 0.762676 0
0.107439 0.802991 0
0.528664 0.875471 0
0.81088 0.885496 0
0.992111 0.865461 0
0.0272679 0.100114 0.127062
0.196323 0.101701 0.129137
0.492546 0.107012 0.0799878
0.774334 0.142748 0.111284
1 0.182239 0.125597
0.0170748 0.140185 0.14844
0.142489 0.15346 0.157092
0.498192 0.148196 0.0630961
0.791302 0.161852 0.0834058
1 0.216968 0.08159
0 0.315862 0.0849775
0.0666056 0.367987 0
0.588861 0.307652 0
0.906386 0.335149 0
1 0.431418 0
0 0.407675 0.0968185
0.133654 0.503594 0
0.5823 0.581857 0
0.909438 0.586633 0
1 0.551736 0
0 0.781537 0
0.0646677 0.808103 0
0.506477 0.867445 0
0.806867 0.887205 0
0.992187 0.865156 0
1.5259e-05 0.19881 0.258274
0.11043 0.191638 0.263783
0.621332 0.187518 0.190753
0.887098 0.195239 0.162387
1 0.237415 0.159136
0 0.207553 0.262654
0.0619211 0.231693 0.298375
0.607965 0.212345 0.223651
0.884047 0.214313 0.187442
1 0.253941 0.180316
0 0.340963 0.347738
0 0.395117 0.392172
0.466209 0.406577 0.402182
0.828824 0.388998 0.32845
1 0.411048 0.26331
0 0.619287 0.458015
0 0.555123 0.361334
0.462898 0.593408 0.249516
0.858381 0.618036 0.166033
1 0.62063 0.147234
0 0.829892 0.305287
0 0.834928 0.196399
0.34818 0.952117 0
0.765225 0.899351 0.118898
0.986603 0.856657 0.0789349
0 0.299245 0.389883
0.0475471 0.288975 0.369116
0.499748 0.301976 0.319005
0.929656 0.285801 0.237018
1 0.336385 0.334691
0 0.308034 0.403067
0 0.32076 0.420676
0.47805 0.317403 0.361837
0.914321 0.300679 0.29453
1 0.370047 0.397742
0 0.379355 0.467689
0 0.42739 0.529809
0.314122 0.436057 0.6047
0.846632 0.436774 0.526864
0.993942 0.489235 0.565805
0 0.571694 0.626764
0 0.613458 0.653849
0.125826 0.67071 0.723674
0.773083 0.692805 0.681651
0.990768 0.684855 0.644129
0 0.868666 0.80177
0 0.925566 0.800244
0 0.938369 0.595605
0.687984 0.934569 0.446967
0.973678 0.881071 0.466712
0 0.415167 0.547997
0 0.410483 0.516686
0.353292 0.40087 0.49221
0.817655 0.414939 0.540688
1 0.463081 0.719753
0 0.424811 0.583368
0 0.432395 0.591165
0.288838 0.4 0.547646
0.831037 0.407202 0.609262
1 0.467567 0.759869
0 0.47599 0.645411
0 0.508553 0.696574
0.140139 0.517555 0.782467
0.760143 0.455833 0.824018
1 0.524804 0.853193
0 0.599283 0.784329
0 0.641825 0.829938
0 0.656046 0.858366
0.673243 0.665217 0.876356
1 0.679271 0.888014
0 0.77203 0.915251
0 0.808377 0.932113
0 0.852934 0.952026
0.54258 0.873869 0.917784
0.956802 0.926711 0.87805
