assets/luts/Warm Cinema.cube
TITLE "Generated by Resolve"
LUT_3D_SIZE 9
0.0386664 0.0590219 0.0709087
0.051133 0.0674601 0.0726635
0.151904 0.0881819 0.0661631
0.286046 0.104234 0.0471199
0.427558 0.124971 0.0417639
0.595651 0.133806 0.0693523
0.75787 0.145327 0.0983597
0.909194 0.166659 0.110964
1 0.190875 0.110536
0.0360571 0.0700084 0.0685893
0.0510872 0.0722667 0.0710918
0.153597 0.0869154 0.0661326
0.288914 0.104326 0.0469215
0.430793 0.12163 0.0457923
0.597711 0.133547 0.070161
0.759762 0.146853 0.0962539
0.911711 0.169253 0.106996
1 0.19408 0.10602
0.0188296 0.142443 0.0502785
0.024567 0.155062 0.0402228
0.168124 0.126436 0.0393378
0.323415 0.139513 0.00827039
0.467384 0.162387 0.0107729
0.634791 0.173312 0.0351415
0.793042 0.189807 0.051545
0.940032 0.212253 0.06009
1 0.237247 0.0595407
0 0.226154 0.0252689
0 0.245319 0.000976577
0.15172 0.227741 0.0361486
0.349432 0.19292 0
0.553735 0.19443 0
0.724788 0.221424 0.00401312
0.865003 0.254841 0
0.994537 0.302968 0
1 0.344625 0
0 0.304585 0.00299077
0 0.316518 0
0.14786 0.335439 0
0.367117 0.328649 0
0.58854 0.284276 0
0.779599 0.279759 0
0.925246 0.313771 0
1 0.367575 0
1 0.409689 0
0 0.376883 0
0 0.397192 0
0.17496 0.418875 0
0.381231 0.424918 0
0.593484 0.473487 0
0.789334 0.413886 0
0.941787 0.395499 0
1 0.433906 0
1 0.468879 0
0 0.476234 0
0 0.482689 0
0.192782 0.490455 0
0.387045 0.504005 0
0.588907 0.567254 0
0.735073 0.633295 0
0.912688 0.571496 0
1 0.528496 0
1 0.54049 0
0 0.516518 0
0.0359197 0.525063 0
0.201968 0.56968 0
0.389715 0.616907 0
0.567895 0.67335 0
0.719493 0.727001 0
0.837293 0.785077 0
1 0.718166 0
1 0.677989 0
0 0.762676 0
0 0.774823 0
0.107439 0.802991 0
0.327474 0.845045 0
0.528664 0.875471 0
0.681315 0.878996 0
0.81088 0.885496 0
0.935897 0.918196 0
0.992111 0.865461 0
0.0370947 0.064683 0.0793011
0.0556191 0.0681468 0.0843366
0.157382 0.0751812 0.0720836
0.286488 0.104402 0.0477455
0.428824 0.12018 0.0469673
0.596689 0.130404 0.0740215
0.756649 0.142718 0.10367
0.908751 0.16492 0.114107
1 0.188632 0.113741
0.0355077 0.0708629 0.0825208
0.0495308 0.0755474 0.0839551
0.151827 0.0945602 0.0755474
0.289097 0.109743 0.0500343
0.432303 0.127916 0.0396429
0.599954 0.135409 0.0684062
0.760784 0.146517 0.097261
0.912428 0.168414 0.108705
1 0.192966 0.107927
0.0187686 0.142397 0.0529946
0.0220188 0.156497 0.0557565
0.171511 0.127993 0.0479744
0.320424 0.142824 0.0166934
0.467826 0.163317 0.00996414
0.635431 0.172305 0.0363317
0.792782 0.188083 0.0533761
0.938918 0.210056 0.06215
1 0.235309 0.0614023
0 0.225208 0.0301976
0 0.244205 0.0132296
0.149081 0.23151 0.0402991
0.360265 0.194812 0
0.560998 0.196567 0
0.721553 0.223407 0.0012665
0.861021 0.256901 0
0.990784 0.304402 0
1 0.347143 0
0 0.305211 0.00787366
0 0.315511 0
0.144411 0.338003 0
0.368063 0.33077 0
0.605356 0.288975 0
0.795529 0.284062 0
0.930327 0.316884 0
1 0.369909 0
1 0.412116 0
0 0.378317 0
0 0.398459 0
0.170092 0.420935 0
0.38056 0.426322 0
0.592309 0.473899 0
0.797101 0.42092 0
0.949783 0.401053 0
1 0.441505 0
1 0.472633 0
0 0.478386 0
0 0.482612 0
0.186954 0.491279 0
0.385611 0.505119 0
0.5888 0.569467 0
0.734661 0.634287 0
0.918486 0.578454 0
1 0.534737 0
1 0.54226 0
0 0.517449 0.00239567
0.0348211 0.526101 0
0.199252 0.568109 0
0.388144 0.619165 0
0.56759 0.676249 0
0.719722 0.728649 0
0.836118 0.784253 0
1 0.727184 0
1 0.679088 0
0 0.767758 0
0 0.776715 0
0.105638 0.802304 0
0.323033 0.840238 0
0.526757 0.876051 0
0.680552 0.881239 0
0.811215 0.887037 0
0.935699 0.918288 0
0.99205 0.86569 0
0.0272679 0.100114 0.127062
0.0438239 0.0985733 0.126284
0.196323 0.101701 0.129137
0.340475 0.102678 0.105806
0.492546 0.107012 0.0799878
0.630869 0.124987 0.0937057
0.774334 0.142748 0.111284
0.913527 0.162234 0.122805
1 0.182239 0.125597
0.0267185 0.10219 0.129061
0.0423133 0.103487 0.130251
0.19144 0.106294 0.131807
0.339742 0.104051 0.105043
0.496971 0.108019 0.0796521
0.632883 0.125765 0.0928969
0.775494 0.143252 0.110353
0.914855 0.162676 0.122164
1 0.182528 0.125185
0.0170748 0.140185 0.14844
0.0204776 0.147448 0.153903
0.142489 0.15346 0.157092
0.313573 0.160372 0.106065
0.498192 0.148196 0.0630961
0.646281 0.143206 0.0707256
0.791302 0.161852 0.0834058
0.934401 0.188693 0.0857099
1 0.216968 0.08159
0 0.25127 0.133822
0 0.243702 0.110536
0.0822461 0.264088 0.08365
0.347631 0.211444 0.0706035
0.54023 0.21767 0.00598154
0.692256 0.239841 0
0.822858 0.261219 0
0.959899 0.2972 0
1 0.3364 0
0 0.315862 0.0849775
0 0.309041 0.0548714
0.0666056 0.367987 0
0.359045 0.350271 0.00993362
0.588861 0.307652 0
0.78262 0.299596 0
0.906386 0.335149 0
1 0.386816 0
1 0.431418 0
0 0.359609 0.0631266
0 0.369604 0.0611124
0.104753 0.443107 0
0.357794 0.435508 0.0220493
0.579736 0.481071 0
0.783917 0.440894 0
0.940383 0.413474 0
1 0.456397 0
1 0.493019 0
0 0.407675 0.0968185
0 0.457465 0.0535744
0.133654 0.503594 0
0.363195 0.512306 0.00437934
0.5823 0.581857 0
0.728862 0.640085 0
0.909438 0.586633 0
1 0.540459 0
1 0.551736 0
0 0.512169 0.094255
0 0.533318 0.0545968
0.154437 0.57554 0
0.365805 0.605661 0
0.554849 0.682567 0
0.713252 0.736568 0
0.83093 0.780865 0
1 0.726665 0
1 0.681788 0
0 0.781537 0
0 0.795193 0
0.0646677 0.808103 0
0.298329 0.822431 0
0.506477 0.867445 0
0.668833 0.890272 0
0.806867 0.887205 0
0.93228 0.915236 0
0.992187 0.865156 0
0.0148165 0.145632 0.188952
0.0310826 0.143954 0.187045
0.158175 0.141466 0.209903
0.390249 0.144701 0.174609
0.553857 0.143847 0.145281
0.724681 0.150378 0.131731
0.853391 0.156847 0.111223
0.945022 0.178149 0.102754
1 0.199054 0.10338
0.0143587 0.14728 0.191211
0.0279545 0.147173 0.191333
0.152316 0.143679 0.213046
0.389212 0.14696 0.176486
0.555901 0.145495 0.146899
0.725368 0.151385 0.132387
0.857923 0.157473 0.112627
0.946258 0.178882 0.101884
1 0.199741 0.102907
0.0106355 0.161761 0.19733
0.00735485 0.173877 0.209354
0.103197 0.184817 0.229526
0.367422 0.177218 0.202487
0.554818 0.167926 0.167483
0.724361 0.16347 0.140139
0.866636 0.168933 0.122454
0.957321 0.186618 0.0942397
1 0.206424 0.0957351
0 0.23505 0.236942
0 0.250355 0.246616
0.0137636 0.274067 0.275837
0.290166 0.265309 0.268238
0.502129 0.254002 0.219333
0.693507 0.232105 0.171115
0.844999 0.22327 0.139071
0.98703 0.249317 0.107607
1 0.27982 0.0759136
0 0.377401 0.286687
0 0.390814 0.276905
0 0.370382 0.216129
0.241367 0.394736 0.156725
0.546136 0.345434 0.160082
0.734951 0.344503 0.106126
0.866606 0.376242 0.0757305
0.986297 0.414008 0.0297551
1 0.446723 0
0 0.447288 0.250233
0 0.428443 0.217823
0 0.413214 0.166827
0.276371 0.474037 0.104875
0.562982 0.504402 0.0488746
0.753277 0.466911 0.0271458
0.919005 0.442741 0
1 0.486641 0
1 0.521767 0
0 0.471244 0.242542
0 0.455329 0.218738
0 0.489265 0.137255
0.297169 0.538323 0.0767224
0.537545 0.581231 0.0813001
0.715648 0.644358 0
0.895094 0.599557 0
1 0.554162 0
1 0.579721 0
0 0.489586 0.252903
0 0.475074 0.226825
0 0.578393 0.115862
0.294072 0.636988 0.0276341
0.515984 0.675288 0.0307927
0.690913 0.73901 0
0.822858 0.779629 0
1 0.726558 0
1 0.685466 0
0 0.777798 0.0692454
0 0.777203 0.00657664
0 0.829389 0
0.220935 0.858244 0
0.467323 0.874891 0
0.641306 0.895079 0
0.793881 0.893248 0
0.924971 0.910979 0
0.990097 0.860914 0
1.5259e-05 0.19881 0.258274
0.00357061 0.196719 0.254994
0.11043 0.191638 0.263783
0.343343 0.19942 0.249088
0.621332 0.187518 0.190753
0.759808 0.179553 0.166323
0.887098 0.195239 0.162387
0.999741 0.216358 0.161456
1 0.237415 0.159136
0 0.199924 0.25977
0.0015259 0.198581 0.258335
0.108019 0.193545 0.265339
0.34316 0.201114 0.25182
0.621073 0.189242 0.193271
0.760159 0.181262 0.168261
0.88748 0.197192 0.164736
0.999924 0.21796 0.163561
1 0.238895 0.161089
0 0.207553 0.262654
0 0.217548 0.275242
0.0619211 0.231693 0.298375
0.327916 0.21796 0.296773
0.607965 0.212345 0.223651
0.756481 0.199115 0.191226
0.884047 0.214313 0.187442
1 0.229236 0.180972
1 0.253941 0.180316
0 0.248997 0.292821
0 0.266453 0.309575
0 0.292943 0.345617
0.200549 0.290517 0.36199
0.553689 0.277501 0.295491
0.72781 0.26186 0.260304
0.863355 0.257801 0.236591
0.993515 0.259312 0.211963
1 0.287922 0.215152
0 0.340963 0.347738
0 0.360143 0.359915
0 0.395117 0.392172
0.0982834 0.419318 0.425986
0.466209 0.406577 0.402182
0.668666 0.399252 0.367971
0.828824 0.388998 0.32845
0.968521 0.387854 0.280354
1 0.411048 0.26331
0 0.490166 0.409232
0 0.509865 0.411582
0 0.543893 0.425238
0.0239414 0.517266 0.360784
0.450874 0.522423 0.312459
0.702785 0.504601 0.295903
0.851865 0.513008 0.267903
0.968475 0.545663 0.24094
1 0.563622 0.2215
0 0.619287 0.458015
0 0.598154 0.422385
0 0.555123 0.361334
0.0594644 0.546685 0.29987
0.462898 0.593408 0.249516
0.694148 0.654902 0.190539
0.858381 0.618036 0.166033
1 0.595117 0.13994
1 0.62063 0.147234
0 0.62324 0.406928
0 0.602731 0.374228
0 0.58912 0.33933
0.0270237 0.645274 0.209918
0.441932 0.706111 0.152468
0.650324 0.740841 0.189242
0.810849 0.782864 0.133883
0.995682 0.729046 0
1 0.693355 0.116503
0 0.829892 0.305287
0 0.828122 0.276921
0 0.834928 0.196399
0 0.930526 0.015198
0.34818 0.952117 0
0.592981 0.921523 0.0597696
0.765225 0.899351 0.118898
0.911391 0.906264 0.106508
0.986603 0.856657 0.0789349
0 0.251408 0.326436
0 0.249271 0.322194
0.0800336 0.239185 0.315022
0.304326 0.23328 0.335119
0.558236 0.244251 0.254765
0.812924 0.22884 0.17995
0.906188 0.228397 0.175463
1 0.253834 0.174212
1 0.293645 0.236545
0 0.252491 0.32784
0 0.250538 0.325246
0.077409 0.241505 0.317556
0.298985 0.234607 0.338338
0.554711 0.246311 0.258076
0.813397 0.230442 0.182452
0.905241 0.230076 0.178485
1 0.256062 0.177798
1 0.296071 0.241505
0 0.2598 0.335225
0 0.266697 0.346319
0.023209 0.276051 0.359213
0.217426 0.25861 0.374243
0.533471 0.268452 0.29427
0.801099 0.246281 0.214099
0.896666 0.248219 0.209018
1 0.272129 0.219837
1 0.315969 0.28368
0 0.287449 0.354131
0 0.302861 0.371023
0 0.320424 0.39913
0.149447 0.33196 0.431693
0.492226 0.319234 0.371725
0.764141 0.293599 0.287984
0.872984 0.297658 0.281239
0.984176 0.31281 0.299367
1 0.350988 0.334157
0 0.343633 0.401053
0 0.364569 0.421057
0 0.399298 0.464652
0.0782635 0.419593 0.501518
0.391272 0.400732 0.503807
0.694194 0.411765 0.434119
0.829587 0.417426 0.434241
0.960372 0.396475 0.39234
1 0.418296 0.39942
0 0.453269 0.475593
0 0.471305 0.485298
0 0.506386 0.514412
0 0.54641 0.562356
0.279347 0.558846 0.585412
0.632639 0.55407 0.547341
0.798321 0.556573 0.526497
0.937621 0.550256 0.488273
1 0.554238 0.468391
0 0.601709 0.5514
0 0.619608 0.553628
0 0.661631 0.573175
0 0.691783 0.603159
0.217365 0.637659 0.514656
0.631739 0.653513 0.474403
0.824094 0.653696 0.446052
0.949294 0.663722 0.431968
1 0.685374 0.424186
0 0.752926 0.650858
0 0.763027 0.649973
0 0.735836 0.581399
0 0.710216 0.494728
0.156924 0.733532 0.386938
0.596139 0.755016 0.363043
0.792065 0.790707 0.368032
0.962264 0.744045 0.290394
1 0.727718 0.342489
0 0.888914 0.592996
0 0.883909 0.537148
0 0.882399 0.436408
0 0.891783 0.380362
0 1 0.138491
0.508507 0.953094 0.199176
0.731533 0.909941 0.300816
0.89839 0.906264 0.310872
0.979904 0.864912 0.262806
0 0.299245 0.389883
0 0.297581 0.384848
0.0475471 0.288975 0.369116
0.214969 0.286412 0.381613
0.499748 0.301976 0.319005
0.763302 0.277302 0.226337
0.929656 0.285801 0.237018
1 0.287678 0.249485
1 0.336385 0.334691
0 0.30013 0.391516
0 0.299077 0.387808
0.0451209 0.290471 0.371756
0.21149 0.287572 0.383856
0.498665 0.303685 0.322576
0.762432 0.279179 0.230106
0.929274 0.287053 0.242802
1 0.289281 0.255131
1 0.340459 0.341817
0 0.308034 0.403067
0 0.31284 0.41352
0 0.32076 0.420676
0.16231 0.304738 0.406973
0.47805 0.317403 0.361837
0.741588 0.293721 0.278004
0.914321 0.300679 0.29453
0.991424 0.305592 0.301915
1 0.370047 0.397742
0 0.326925 0.414191
0 0.340917 0.43151
0 0.349538 0.450874
0.0933394 0.367636 0.492668
0.441001 0.333318 0.479042
0.692638 0.350011 0.39678
0.879042 0.35404 0.40589
0.964584 0.362783 0.408484
1 0.41442 0.475959
0 0.379355 0.467689
0 0.399069 0.490227
0 0.42739 0.529809
0.0208286 0.438666 0.561715
0.314122 0.436057 0.6047
0.664485 0.422995 0.54139
0.846632 0.436774 0.526864
0.942977 0.451225 0.529137
0.993942 0.489235 0.565805
0 0.450614 0.536461
0 0.471962 0.558572
0 0.507515 0.600702
0 0.538201 0.648234
0.251987 0.542809 0.66923
0.589746 0.539239 0.660731
0.808728 0.559197 0.622019
0.92076 0.565698 0.61677
0.981964 0.580346 0.614145
0 0.571694 0.626764
0 0.584848 0.630747
0 0.613458 0.653849
0 0.649226 0.696223
0.125826 0.67071 0.723674
0.508766 0.682734 0.714992
0.773083 0.692805 0.681651
0.907423 0.687251 0.659785
0.990768 0.684855 0.644129
0 0.707835 0.715175
0 0.723491 0.717952
0 0.759548 0.73138
0 0.801617 0.750713
0 0.827787 0.755764
0.386023 0.79382 0.622019
0.75668 0.792981 0.601587
0.933654 0.775921 0.565911
0.998016 0.784222 0.573266
0 0.868666 0.80177
0 0.885634 0.805585
0 0.925566 0.800244
0 0.932036 0.717693
0 0.938369 0.595605
0.230228 0.987472 0.388464
0.687984 0.934569 0.446967
0.886763 0.913237 0.505684
0.973678 0.881071 0.466712
0 0.352041 0.459586
0 0.350332 0.453834
0 0.344839 0.435492
0.166766 0.332906 0.416831
0.455314 0.356954 0.380423
0.686702 0.348882 0.357443
0.868559 0.348516 0.373724
0.988876 0.374395 0.458244
1 0.402441 0.486275
0 0.352483 0.462348
0 0.351751 0.457511
0 0.346654 0.438788
0.163226 0.333944 0.419211
0.454719 0.356863 0.384924
0.684855 0.351507 0.36495
0.865797 0.35082 0.380713
0.989517 0.375631 0.463844
1 0.404013 0.491783
0 0.360525 0.481987
0 0.364706 0.491676
0 0.371328 0.495354
0.115175 0.356558 0.464942
0.432883 0.343175 0.456687
0.663188 0.366613 0.422919
0.852872 0.365637 0.438666
0.989471 0.385336 0.513283
1 0.416449 0.530282
0 0.370581 0.483101
0 0.381659 0.499413
0 0.392004 0.526925
0.0248264 0.40824 0.565148
0.299809 0.369772 0.548516
0.657298 0.377905 0.534859
0.841856 0.389227 0.529824
0.993179 0.404791 0.5888
1 0.44445 0.589685
0 0.424552 0.55024
0 0.442847 0.574548
0 0.462669 0.606622
0 0.463203 0.623484
0.228733 0.473442 0.696193
0.570321 0.428061 0.6907
0.839414 0.438605 0.658885
0.987076 0.458549 0.673701
1 0.507012 0.669551
0 0.48513 0.621073
0 0.506447 0.645853
0 0.535882 0.683742
0 0.557717 0.718334
0.171939 0.554101 0.738048
0.481697 0.547936 0.780423
0.807584 0.536034 0.762509
0.958694 0.556619 0.729381
0.993561 0.597238 0.726207
0 0.568414 0.703868
0 0.589929 0.72372
0 0.617456 0.752636
0 0.637171 0.77937
0.0997482 0.639414 0.791531
0.447669 0.654749 0.800015
0.749722 0.674586 0.780957
0.914702 0.6813 0.764248
0.974243 0.698558 0.768658
0 0.681056 0.785
0 0.692424 0.788632
0 0.715221 0.802472
0 0.740612 0.825162
0 0.769635 0.849027
0.331334 0.776471 0.836149
0.685771 0.798016 0.813321
0.883955 0.81268 0.788525
0.973999 0.809522 0.778637
0 0.804395 0.868635
0 0.81944 0.869261
0 0.851682 0.875685
0 0.890043 0.883085
0 0.932265 0.886427
0.12256 0.946151 0.849058
0.513115 0.957794 0.694835
0.858534 0.923354 0.705425
0.967849 0.902846 0.691341
0 0.415167 0.547997
0 0.414221 0.540032
0 0.410483 0.516686
0.118196 0.396658 0.481224
0.353292 0.40087 0.49221
0.642069 0.411643 0.504128
0.817655 0.414939 0.540688
0.976837 0.415549 0.611399
1 0.463081 0.719753
0 0.415976 0.550973
0 0.415747 0.544579
0 0.4121 0.521202
0.11487 0.398184 0.485695
0.348028 0.400885 0.500328
0.645228 0.410391 0.513008
0.82063 0.414206 0.548501
0.979751 0.415198 0.618647
1 0.463722 0.723888
0 0.424811 0.583368
0 0.42742 0.591684
0 0.432395 0.591165
0.0637522 0.418067 0.545251
0.288838 0.4 0.547646
0.649805 0.393942 0.601495
0.831037 0.407202 0.609262
0.991531 0.412345 0.669398
1 0.467567 0.759869
0 0.431403 0.585321
0 0.435172 0.59292
0 0.448966 0.632334
0 0.467094 0.671397
0.20943 0.436072 0.65214
0.53872 0.39852 0.701961
0.829145 0.406394 0.718761
0.998764 0.418677 0.747494
1 0.483528 0.808865
0 0.47599 0.645411
0 0.493278 0.668299
0 0.508553 0.696574
0 0.499763 0.70193
0.140139 0.517555 0.782467
0.414755 0.453544 0.788952
0.760143 0.455833 0.824018
0.983948 0.459663 0.830259
1 0.524804 0.853193
0 0.534371 0.716228
0 0.554314 0.739559
0 0.579431 0.771786
0 0.590036 0.79353
0.0793011 0.575189 0.801831
0.383886 0.577676 0.870604
0.693828 0.544305 0.857801
0.953079 0.54461 0.88069
1 0.592035 0.879042
0 0.599283 0.784329
0 0.617014 0.803723
0 0.641825 0.829938
0 0.656153 0.848951
0 0.656046 0.858366
0.346914 0.652888 0.867475
0.673243 0.665217 0.876356
0.914641 0.65655 0.891768
1 0.679271 0.888014
0 0.674449 0.851087
0 0.690166 0.8645
0 0.712657 0.883589
0 0.727062 0.896605
0 0.736843 0.908568
0.295338 0.730724 0.894835
0.638956 0.762554 0.88896
0.869886 0.795178 0.870832
0.97908 0.795804 0.887312
0 0.77203 0.915251
0 0.787671 0.923339
0 0.808377 0.932113
0 0.830442 0.942046
0 0.852934 0.952026
0.152956 0.858305 0.940307
0.54258 0.873869 0.917784
0.826001 0.901701 0.889464
0.956802 0.926711 0.87805
