remotion/public/assets/luts/VM Thermal Slime.cube
LUT_3D_SIZE 6
1.000091 1.000000 1.000000
0.576419 0.949880 0.716777
0.000000 0.833546 0.301898
0.000000 0.634078 0.000000
0.000000 0.644615 0.000000
0.000000 0.646063 0.000000
1.192044 0.874026 0.774498
0.749510 1.085697 0.632159
0.060823 0.936909 0.464065
0.000000 0.628865 0.000000
0.000000 0.642225 0.000000
0.000000 0.644817 0.000000
1.506841 0.598749 0.314708
1.309489 0.734138 0.193184
0.366416 1.207989 0.072585
0.000000 1.008523 0.278565
0.000000 0.785756 0.000000
0.000000 0.635414 0.000000
1.536302 0.610422 0.320850
1.411165 0.659456 0.155107
0.945191 0.890196 0.000000
0.368444 1.214841 0.073004
0.000000 1.053132 0.208599
0.000000 0.906242 0.109155
1.549160 0.615529 0.323510
1.489351 0.639104 0.238862
1.150416 0.760815 0.000000
0.836323 0.972166 0.000000
0.369359 1.217795 0.073178
0.001740 1.091987 0.194500
1.550878 0.616225 0.323883
1.516663 0.629719 0.274166
1.341127 0.695712 0.069246
0.864908 0.853014 0.000000
0.776293 1.020996 0.000000
0.369507 1.218356 0.073206
0.936601 0.832023 0.581950
0.625335 0.958083 0.625130
0.068662 0.818729 0.293488
0.000000 0.622681 0.000000
0.000000 0.642038 0.000000
0.000000 0.644817 0.000000
0.670597 1.018117 1.087928
0.827841 0.827841 0.827842
0.000000 0.747034 0.165640
0.000000 0.629129 0.000000
0.000000 0.645404 0.000000
0.000000 0.646094 0.000000
1.503851 0.608668 0.488653
1.475836 0.586421 0.308232
0.359667 1.185871 0.071262
0.000000 0.965830 0.256808
0.000000 0.654478 0.000000
0.000000 0.638002 0.000000
1.621384 0.566994 0.484286
1.520474 0.604147 0.317565
0.746196 0.868226 0.000000
0.364206 1.200829 0.072154
0.000000 1.042842 0.207284
0.000000 0.891593 0.090189
1.595721 0.592264 0.406963
1.549277 0.615530 0.323525
1.226672 0.734953 0.000000
0.839837 0.961817 0.000000
0.369174 1.217341 0.073149
0.000000 1.087831 0.195805
1.579046 0.602243 0.372930
1.550906 0.616190 0.323898
1.383159 0.680438 0.111837
0.909110 0.839549 0.000000
0.783525 1.015800 0.000000
0.369517 1.218306 0.073207
0.822655 0.600423 0.068956
0.602974 0.693831 0.040810
0.040650 0.840044 0.040212
0.000000 0.640452 0.000000
0.000000 0.631632 0.000000
0.000000 0.634991 0.000000
1.117170 0.583666 0.384052
0.707587 0.465391 0.000000
0.000000 0.763456 0.000000
0.000000 0.629971 0.000000
0.000000 0.631316 0.000000
0.000000 0.637902 0.000000
0.071658 1.022624 1.213758
0.070238 1.002399 1.189646
0.605740 0.605740 0.605741
0.000000 0.504324 0.000000
0.000000 0.607560 0.000000
0.000000 0.552549 0.000000
1.570049 0.601003 0.628545
1.616524 0.547785 0.733452
1.355891 0.538739 0.283189
0.329808 1.087349 0.065338
0.000000 0.928191 0.171991
0.000000 0.682658 0.000000
1.713878 0.520546 0.729660
1.700250 0.531289 0.672972
1.476454 0.586637 0.308349
0.573561 0.884796 0.000000
0.352212 1.161274 0.069781
0.000000 0.917592 0.171783
1.670521 0.552352 0.574828
1.654695 0.561902 0.532826
1.384771 0.550207 0.289181
0.990840 0.692344 0.000000
0.724655 0.885207 0.000000
0.329926 1.087833 0.065367
0.653959 0.309470 0.000000
0.417505 0.400438 0.000000
0.000000 0.519088 0.000000
0.000000 0.700670 0.000000
0.000000 0.662114 0.000000
0.000000 0.640408 0.000000
1.056752 0.248031 0.000000
0.492875 0.074311 0.000000
0.000000 0.482466 0.000000
0.000000 0.696011 0.000000
0.000000 0.660439 0.000000
0.000000 0.639078 0.000000
1.520902 0.333455 0.676290
1.457101 0.314717 0.520037
0.400488 0.060390 0.000000
0.000000 0.589356 0.000000
0.000000 0.613331 0.000000
0.000000 0.546531 0.000000
0.072749 1.038238 1.232226
0.071959 1.026971 1.218816
0.064532 0.920903 1.093087
0.383552 0.383553 0.383553
0.000000 0.383988 0.000000
0.000000 0.367261 0.000000
1.529223 0.645617 0.525550
1.543097 0.635527 0.556598
1.566174 0.531940 0.731544
1.217722 0.483880 0.254325
0.298219 0.983275 0.059083
0.000000 0.567390 0.106313
1.740596 0.494869 0.891136
1.738760 0.497792 0.870955
1.537287 0.460755 0.677325
0.970952 0.385797 0.202760
0.464828 0.584030 0.000000
0.231361 0.762800 0.045838
0.511787 0.077167 0.000000
0.413844 0.137627 0.000000
0.009319 0.390877 0.000000
0.000000 0.568348 0.000000
0.000000 0.711626 0.000000
0.000000 0.673062 0.000000
0.538921 0.065732 0.000000
0.513032 0.077357 0.000000
0.063635 0.359506 0.000000
0.000000 0.560835 0.000000
0.000000 0.712297 0.000000
0.000000 0.672065 0.000000
1.223591 0.254751 0.010574
1.146564 0.236546 0.000000
0.452730 0.068264 0.000000
0.000000 0.474997 0.000000
0.000000 0.676250 0.000000
0.000000 0.583456 0.000000
1.575369 0.350453 0.972991
1.569015 0.343798 0.917940
1.426463 0.296884 0.590709
0.312324 0.047091 0.000000
0.000000 0.487296 0.000000
0.000000 0.387431 0.000000
0.073219 1.044977 1.240307
0.073221 1.044997 1.240195
0.069806 0.996206 1.182426
0.058148 0.829918 0.984808
0.161389 0.161389 0.161389
0.000000 0.143800 0.000000
1.408046 0.714196 0.313646
1.428329 0.704196 0.342865
1.339781 0.593939 0.414595
1.008008 0.366446 0.437993
0.398266 0.158242 0.083176
0.094867 0.312792 0.018797
0.513053 0.077355 0.000000
0.495619 0.083462 0.000000
0.159274 0.302734 0.000000
0.000000 0.464561 0.000000
0.000000 0.599671 0.000000
0.000000 0.713237 0.000000
0.528859 0.070722 0.000000
0.513146 0.077368 0.000000
0.205777 0.274327 0.000000
0.000000 0.454669 0.000000
0.000000 0.596585 0.000000
0.000000 0.713324 0.000000
0.994673 0.199531 0.000000
0.916439 0.178941 0.000000
0.458084 0.069074 0.000000
0.000000 0.358053 0.000000
0.000000 0.518575 0.000000
0.000000 0.636765 0.000000
1.396724 0.286510 0.338737
1.373964 0.281748 0.289297
1.111941 0.228364 0.041025
0.321235 0.048429 0.000000
0.000000 0.331647 0.000000
0.000000 0.446508 0.000000
1.577089 0.380886 1.203231
1.578962 0.376944 1.178411
1.411129 0.321291 0.945458
0.956558 0.200811 0.442248
0.131748 0.019867 0.000000
0.000000 0.183161 0.000000
0.073286 1.045941 1.241296
0.073289 1.045975 1.241356
0.065433 0.933842 1.108357
0.045880 0.654767 0.777248
0.018820 0.268578 0.318769
0.000000 0.000000 0.000000
