remotion/public/assets/luts/VM Thermal Crush.cube
LUT_3D_SIZE 6
1.000090 1.000000 1.000000
0.569331 0.945737 0.778021
0.000000 0.824257 0.441425
0.000000 0.618548 0.000000
0.000000 0.628857 0.000000
0.000000 0.630311 0.000000
1.261741 0.825641 1.048818
1.198929 0.942349 0.728686
0.129425 0.872051 0.904819
0.000000 0.605477 0.035975
0.000000 0.622056 0.007232
0.000000 0.626313 0.000000
1.706132 0.460515 1.098075
1.572080 0.533498 1.407694
1.491368 0.849153 0.314368
0.073715 0.845474 1.226134
0.000000 0.719979 0.555345
0.000000 0.608834 0.067146
1.739471 0.469492 1.119531
1.724817 0.463829 1.168880
1.508679 0.564820 1.529365
1.500134 0.853954 0.316166
0.194943 0.858889 1.359431
0.000000 0.792840 0.930248
1.753606 0.473373 1.128793
1.746014 0.470213 1.154323
1.710058 0.460052 1.246163
1.394329 0.636089 1.669855
1.503744 0.855918 0.316937
0.302593 0.874149 1.466199
1.755694 0.473915 1.130011
1.751295 0.472056 1.145120
1.731325 0.465211 1.203912
1.684368 0.455838 1.294217
1.308919 0.685510 1.750452
1.504034 0.856347 0.317068
0.828202 0.808594 1.133618
1.024297 0.837930 0.639952
0.110647 0.815966 0.196295
0.000000 0.621804 0.000000
0.000000 0.631187 0.000000
0.000000 0.631622 0.000000
0.782807 1.035103 0.589387
0.827840 0.827841 0.827841
0.000000 0.736847 0.318282
0.000000 0.613779 0.000000
0.000000 0.629591 0.000000
0.000000 0.630341 0.000000
1.579038 0.567280 0.678216
1.670775 0.451058 1.075434
1.463911 0.833415 0.308594
0.000000 0.823739 1.117299
0.000000 0.620661 0.176573
0.000000 0.612695 0.052435
1.740075 0.473701 1.057766
1.721300 0.464683 1.107989
1.644405 0.446196 1.284034
1.482363 0.843961 0.312502
0.166771 0.854748 1.330561
0.000000 0.784957 0.884999
1.754307 0.475383 1.098141
1.753748 0.473374 1.128835
1.717718 0.461719 1.230461
1.418251 0.621547 1.644810
1.502940 0.855651 0.316801
0.290976 0.872453 1.454970
1.756080 0.475040 1.112242
1.755832 0.473944 1.130059
1.736052 0.466576 1.192016
1.688577 0.456398 1.288045
1.317940 0.680675 1.742891
1.504061 0.856363 0.317072
0.592460 0.550597 1.241382
0.916472 0.485056 1.186336
0.999104 0.551511 0.075794
0.000000 0.567530 0.000000
0.000000 0.624046 0.000000
0.000000 0.636576 0.000000
0.335949 0.744464 1.093255
0.456805 0.411126 1.163202
0.939181 0.444332 0.000000
0.000000 0.578240 0.000000
0.000000 0.629133 0.000000
0.000000 0.636344 0.000000
0.378423 1.069078 0.000000
0.370904 1.047945 0.000000
0.605740 0.605740 0.605740
0.000000 0.491969 0.000000
0.000000 0.592694 0.000000
0.000000 0.539037 0.000000
1.480847 0.646653 0.438417
1.581695 0.569979 0.616496
1.535000 0.414367 0.987924
1.342526 0.764210 0.282965
0.002060 0.784415 1.091634
0.000000 0.622070 0.511075
1.747882 0.487890 0.952625
1.750946 0.484821 0.982986
1.671359 0.451188 1.075823
1.581637 0.431047 1.262566
1.433572 0.816245 0.302198
0.200693 0.743063 1.202670
1.755473 0.481097 1.031074
1.756210 0.479588 1.049436
1.567489 0.423150 1.008975
1.524530 0.410465 1.120917
1.216796 0.584614 1.519297
1.342998 0.764649 0.283072
0.297180 0.232245 1.302850
0.594920 0.160643 1.282677
1.197308 0.000000 0.799614
0.945178 0.256774 0.000000
0.018090 0.535178 0.000000
0.000000 0.605304 0.000000
0.000000 0.430915 1.233385
0.059389 0.000000 1.280877
1.121181 0.000000 0.893506
0.938875 0.255067 0.000000
0.000000 0.543364 0.000000
0.000000 0.608913 0.000000
0.000000 0.865241 0.686580
0.000000 0.800885 0.777798
0.048252 0.000000 1.040814
0.794912 0.215991 0.000000
0.000000 0.546857 0.000000
0.000000 0.537739 0.000000
0.384211 1.085398 0.000000
0.380036 1.073641 0.000000
0.340816 0.962996 0.000000
0.383552 0.383553 0.383553
0.000000 0.374637 0.000000
0.000000 0.358302 0.000000
1.309506 0.742419 0.213800
1.345578 0.724986 0.252488
1.498226 0.573151 0.524280
1.378698 0.372133 0.887312
1.213923 0.691106 0.255893
0.026965 0.475369 0.684616
1.734584 0.501626 0.842776
1.737133 0.499437 0.859929
1.561036 0.437672 0.836959
1.099248 0.296746 0.707499
0.976237 0.330253 0.920756
0.941764 0.536123 0.198518
0.061667 0.000000 1.330106
0.228985 0.000000 1.332839
0.880942 0.000000 1.168596
1.284838 0.000000 0.562311
0.960055 0.260806 0.000000
0.169584 0.499686 0.000000
0.000000 0.001415 1.302562
0.061820 0.000000 1.333276
0.796740 0.000000 1.215166
1.278109 0.000000 0.606380
0.960827 0.261037 0.000000
0.152726 0.503966 0.000000
0.000000 0.570732 1.074128
0.000000 0.502975 1.129745
0.054553 0.000000 1.176648
1.109360 0.000000 0.756103
0.912167 0.247841 0.000000
0.064514 0.457556 0.000000
0.000000 0.949598 0.464635
0.000000 0.934500 0.500688
0.000000 0.797266 0.660121
0.037634 0.000000 0.811693
0.657429 0.178586 0.000000
0.000000 0.338250 0.000000
0.386715 1.092485 0.000000
0.386730 1.092506 0.000000
0.368683 1.041498 0.000000
0.307102 0.867750 0.000000
0.161389 0.161389 0.161389
0.000000 0.140273 0.000000
1.158945 0.812376 0.074812
1.175831 0.804938 0.088453
1.121228 0.686498 0.142086
0.941321 0.402086 0.281110
0.450888 0.121699 0.290213
0.386147 0.219831 0.081407
0.061818 0.000000 1.333241
0.100469 0.000000 1.341981
0.641011 0.000000 1.272859
1.084960 0.000000 1.002151
1.300882 0.000000 0.373832
0.961973 0.261380 0.000000
0.023023 0.000000 1.317713
0.061834 0.000000 1.333436
0.565015 0.000000 1.292088
1.059418 0.000000 1.030426
1.301238 0.000000 0.394724
0.962169 0.261411 0.000000
0.000000 0.373542 1.210737
0.000000 0.308258 1.239332
0.055198 0.000000 1.190508
0.815354 0.000000 1.027712
1.157259 0.000000 0.439851
0.858835 0.233361 0.000000
0.000000 0.728523 0.879787
0.000000 0.706614 0.910529
0.000000 0.525992 0.937090
0.038702 0.000000 0.834939
0.771092 0.000000 0.476878
0.602338 0.163643 0.000000
0.000000 1.003975 0.312922
0.000000 0.998607 0.328950
0.000000 0.866764 0.362800
0.000000 0.544239 0.400748
0.015875 0.000000 0.342408
0.247062 0.067121 0.000000
0.387044 1.093501 0.000000
0.387048 1.093498 0.000000
0.345585 0.976299 0.000000
0.242290 0.684537 0.000000
0.099384 0.280793 0.000000
0.000000 0.000000 0.000000
