remotion/public/assets/luts/VM Thermal Mute.cube
LUT_3D_SIZE 6
1.000000 1.000000 1.000000
1.000000 0.799864 0.799864
1.000000 0.599720 0.599720
1.000000 0.399517 0.399517
1.000000 0.199415 0.199415
1.000000 0.000144 0.000144
0.799864 1.000000 0.799864
1.000000 1.000000 0.799864
1.000000 0.701503 0.599720
1.000000 0.482888 0.399517
1.000000 0.300926 0.199415
1.000000 0.200004 0.000144
0.599720 1.000000 0.599720
0.701503 1.000000 0.599720
1.000000 1.000000 0.599720
1.000000 0.714787 0.399517
1.000000 0.518159 0.199415
1.000000 0.400008 0.000144
0.399517 1.000000 0.399517
0.482888 1.000000 0.399517
0.714787 1.000000 0.399517
1.000000 1.000000 0.399517
1.000000 0.756514 0.199415
1.000000 0.600021 0.000144
0.199415 1.000000 0.199415
0.300926 1.000000 0.199415
0.518159 1.000000 0.199415
0.756514 1.000000 0.199415
1.000000 1.000000 0.199415
1.000000 0.799993 0.000144
0.000144 1.000000 0.000144
0.200004 1.000000 0.000144
0.400008 1.000000 0.000144
0.600021 1.000000 0.000144
0.799993 1.000000 0.000144
1.000000 1.000000 0.000144
0.799864 0.799864 1.000000
1.000000 0.799864 1.000000
1.000000 0.599720 0.701503
1.000000 0.399517 0.482888
1.000000 0.199415 0.300926
1.000000 0.000144 0.200004
0.799864 1.000000 1.000000
0.799864 0.799864 0.799864
0.799864 0.599720 0.599720
0.799864 0.399517 0.399517
0.799864 0.199415 0.199415
0.799864 0.000000 0.000000
0.599720 1.000000 0.701503
0.599720 0.799864 0.599720
0.799864 0.799864 0.599720
0.799864 0.576936 0.399517
0.799864 0.399751 0.199415
0.799864 0.295714 0.000000
0.399517 1.000000 0.482888
0.399517 0.799864 0.399517
0.576936 0.799864 0.399517
0.799864 0.799864 0.399517
0.799864 0.599877 0.199415
0.799864 0.469414 0.000000
0.199415 1.000000 0.300926
0.199415 0.799864 0.199415
0.399751 0.799864 0.199415
0.599877 0.799864 0.199415
0.799864 0.799864 0.199415
0.799864 0.635789 0.000000
0.000144 1.000000 0.200004
0.000000 0.799864 0.000000
0.295714 0.799864 0.000000
0.469414 0.799864 0.000000
0.635789 0.799864 0.000000
0.799864 0.799864 0.000000
0.599720 0.599720 1.000000
0.701503 0.599720 1.000000
1.000000 0.599720 1.000000
1.000000 0.399517 0.714787
1.000000 0.199415 0.518159
1.000000 0.000144 0.400008
0.599720 0.701503 1.000000
0.599720 0.599720 0.799864
0.799864 0.599720 0.799864
0.799864 0.399517 0.576936
0.799864 0.199415 0.399751
0.799864 0.000000 0.295714
0.599720 1.000000 1.000000
0.599720 0.799864 0.799864
0.599720 0.599720 0.599720
0.599720 0.399517 0.399517
0.599720 0.199415 0.199415
0.599720 0.000000 0.000000
0.399517 1.000000 0.714787
0.399517 0.799864 0.576936
0.399517 0.599720 0.399517
0.599720 0.599720 0.399517
0.599720 0.421373 0.199415
0.599720 0.310085 0.000000
0.199415 1.000000 0.518159
0.199415 0.799864 0.399751
0.199415 0.599720 0.199415
0.421373 0.599720 0.199415
0.599720 0.599720 0.199415
0.599720 0.461572 0.000000
0.000144 1.000000 0.400008
0.000000 0.799864 0.295714
0.000000 0.599720 0.000000
0.310085 0.599720 0.000000
0.461572 0.599720 0.000000
0.599720 0.599720 0.000000
0.399517 0.399517 1.000000
0.482888 0.399517 1.000000
0.714787 0.399517 1.000000
1.000000 0.399517 1.000000
1.000000 0.199415 0.756514
1.000000 0.000144 0.600021
0.399517 0.482888 1.000000
0.399517 0.399517 0.799864
0.576936 0.399517 0.799864
0.799864 0.399517 0.799864
0.799864 0.199415 0.599877
0.799864 0.000000 0.469414
0.399517 0.714787 1.000000
0.399517 0.576936 0.799864
0.399517 0.399517 0.599720
0.599720 0.399517 0.599720
0.599720 0.199415 0.421373
0.599720 0.000000 0.310085
0.399517 1.000000 1.000000
0.399517 0.799864 0.799864
0.399517 0.599720 0.599720
0.399517 0.399517 0.399517
0.399517 0.199415 0.199415
0.399517 0.000000 0.000000
0.199415 1.000000 0.756514
0.199415 0.799864 0.599877
0.199415 0.599720 0.421373
0.199415 0.399517 0.199415
0.399517 0.399517 0.199415
0.399517 0.276408 0.000000
0.000144 1.000000 0.600021
0.000000 0.799864 0.469414
0.000000 0.599720 0.310085
0.000000 0.399517 0.000000
0.276408 0.399517 0.000000
0.399517 0.399517 0.000000
0.199415 0.199415 1.000000
0.300926 0.199415 1.000000
0.518159 0.199415 1.000000
0.756514 0.199415 1.000000
1.000000 0.199415 1.000000
1.000000 0.000144 0.799993
0.199415 0.300926 1.000000
0.199415 0.199415 0.799864
0.399751 0.199415 0.799864
0.599877 0.199415 0.799864
0.799864 0.199415 0.799864
0.799864 0.000000 0.635789
0.199415 0.518159 1.000000
0.199415 0.399751 0.799864
0.199415 0.199415 0.599720
0.421373 0.199415 0.599720
0.599720 0.199415 0.599720
0.599720 0.000000 0.461572
0.199415 0.756514 1.000000
0.199415 0.599877 0.799864
0.199415 0.421373 0.599720
0.199415 0.199415 0.399517
0.399517 0.199415 0.399517
0.399517 0.000000 0.276408
0.199415 1.000000 1.000000
0.199415 0.799864 0.799864
0.199415 0.599720 0.599720
0.199415 0.399517 0.399517
0.199415 0.199415 0.199415
0.199415 0.000000 0.000000
0.000144 1.000000 0.799993
0.000000 0.799864 0.635789
0.000000 0.599720 0.461572
0.000000 0.399517 0.276408
0.000000 0.199415 0.000000
0.199415 0.199415 0.000000
0.000144 0.000144 1.000000
0.200004 0.000144 1.000000
0.400008 0.000144 1.000000
0.600021 0.000144 1.000000
0.799993 0.000144 1.000000
1.000000 0.000144 1.000000
0.000144 0.200004 1.000000
0.000000 0.000000 0.799864
0.295714 0.000000 0.799864
0.469414 0.000000 0.799864
0.635789 0.000000 0.799864
0.799864 0.000000 0.799864
0.000144 0.400008 1.000000
0.000000 0.295714 0.799864
0.000000 0.000000 0.599720
0.310085 0.000000 0.599720
0.461572 0.000000 0.599720
0.599720 0.000000 0.599720
0.000144 0.600021 1.000000
0.000000 0.469414 0.799864
0.000000 0.310085 0.599720
0.000000 0.000000 0.399517
0.276408 0.000000 0.399517
0.399517 0.000000 0.399517
0.000144 0.799993 1.000000
0.000000 0.635789 0.799864
0.000000 0.461572 0.599720
0.000000 0.276408 0.399517
0.000000 0.000000 0.199415
0.199415 0.000000 0.199415
0.000144 1.000000 1.000000
0.000000 0.799864 0.799864
0.000000 0.599720 0.599720
0.000000 0.399517 0.399517
0.000000 0.199415 0.199415
0.000000 0.000000 0.000000
