remotion/public/assets/luts/VM Thermal Royalty.cube
LUT_3D_SIZE 6
1.000090 1.000000 1.000091
0.569303 0.944778 0.789128
0.000000 0.821735 0.466831
0.000000 0.614247 0.019189
0.000000 0.624562 0.019509
0.000000 0.625924 0.019551
1.103248 0.849119 1.283043
0.808819 1.002935 1.277331
0.105154 0.885609 0.841822
0.000000 0.607318 0.018970
0.000000 0.620767 0.019392
0.000000 0.623739 0.019486
1.253601 0.527553 1.767020
1.075217 0.646337 1.753497
0.514920 1.000853 1.687671
0.000000 0.890427 1.070382
0.000000 0.736268 0.460435
0.000000 0.614243 0.019186
1.278104 0.537866 1.801612
1.272263 0.535404 1.793256
1.037057 0.681527 1.762489
0.517853 1.006554 1.697314
0.062574 0.916234 1.179991
0.000000 0.824629 0.790831
1.288638 0.542312 1.816198
1.285284 0.540946 1.811784
1.271648 0.535223 1.792686
0.913002 0.770083 1.760370
0.519122 1.009039 1.701665
0.148915 0.938260 1.284075
1.289977 0.542930 1.818295
1.288105 0.542113 1.815644
1.280222 0.538771 1.804717
1.263536 0.531781 1.781352
0.821619 0.830328 1.752692
0.519335 1.009408 1.702148
0.969742 0.819554 0.607101
0.714478 0.938556 0.556064
0.068172 0.818713 0.295060
0.000000 0.618315 0.000000
0.000000 0.624093 0.019497
0.000000 0.625778 0.019547
1.286074 0.841261 1.025641
0.827840 0.827842 0.827841
0.000000 0.734069 0.346066
0.000000 0.609506 0.019041
0.000000 0.625238 0.019531
0.000000 0.625953 0.019552
1.397584 0.531631 1.565329
1.227661 0.516683 1.730353
0.505476 0.982408 1.656968
0.000000 0.861979 0.974296
0.000000 0.630789 0.094801
0.000000 0.616268 0.019252
1.276017 0.537042 1.798894
1.264738 0.532340 1.783080
1.237312 0.520734 1.743947
0.511833 0.994873 1.677385
0.040003 0.910353 1.152648
0.000000 0.814521 0.751010
1.287479 0.541847 1.814770
1.288601 0.542342 1.816294
1.274441 0.536384 1.796682
0.940029 0.751899 1.762152
0.518900 1.008578 1.700933
0.139379 0.936056 1.272774
1.289281 0.542645 1.817282
1.290058 0.542964 1.818418
1.281903 0.539510 1.807035
1.264981 0.532349 1.783328
0.831105 0.824235 1.753539
0.519307 1.009420 1.702030
0.893455 0.574034 0.122509
0.739041 0.648877 0.086246
0.254920 0.793077 0.000000
0.000000 0.625940 0.000000
0.000000 0.631662 0.000000
0.000000 0.625964 0.000000
1.102873 0.590074 0.362902
0.784323 0.436680 0.000000
0.116332 0.711481 0.000000
0.000000 0.620689 0.000000
0.000000 0.631003 0.000000
0.000000 0.624981 0.019524
1.756288 0.538857 1.043220
1.721620 0.528212 1.022589
0.605740 0.605740 0.605740
0.000000 0.488525 0.015262
0.000000 0.588600 0.018387
0.000000 0.535286 0.016722
1.466726 0.541298 1.524138
1.364247 0.532714 1.626784
1.127915 0.474676 1.589695
0.463518 0.900847 1.519298
0.000000 0.826629 0.936567
0.000000 0.637782 0.422369
1.282865 0.539884 1.808537
1.283916 0.540362 1.809624
1.228221 0.516872 1.731146
1.195525 0.503183 1.685446
0.495004 0.962193 1.622551
0.079655 0.794819 1.046398
1.286652 0.541494 1.813576
1.287303 0.541767 1.814543
1.151828 0.484768 1.623730
1.135304 0.477771 1.600518
0.785095 0.707926 1.570026
0.463656 0.901287 1.519896
0.763426 0.268553 0.000000
0.572652 0.347192 0.000000
0.080416 0.433506 0.000000
0.000000 0.628379 0.000000
0.000000 0.636610 0.000000
0.000000 0.635510 0.000000
1.108442 0.225643 0.000000
0.625786 0.024622 0.000000
0.121863 0.398439 0.000000
0.000000 0.624263 0.000000
0.000000 0.637045 0.000000
0.000000 0.635270 0.000000
1.451621 0.381447 0.405086
1.390003 0.355224 0.316235
0.508465 0.020006 0.000000
0.000000 0.528604 0.000000
0.000000 0.601030 0.000000
0.000000 0.546324 0.000000
1.783317 0.547060 1.059162
1.763543 0.541121 1.047658
1.581836 0.485351 0.939508
0.383552 0.383553 0.383553
0.000000 0.372074 0.011622
0.000000 0.355790 0.011116
1.556690 0.547058 1.421817
1.540232 0.546681 1.445098
1.336018 0.516967 1.559366
1.012967 0.426316 1.427740
0.419181 0.814670 1.373937
0.000000 0.502541 0.588100
1.281242 0.539171 1.806048
1.281575 0.539407 1.806911
1.146306 0.482420 1.615968
0.807649 0.339918 1.138603
0.698726 0.393941 1.107414
0.325161 0.631989 1.065820
0.649839 0.025568 0.000000
0.578717 0.077816 0.000000
0.259675 0.312612 0.000000
0.027230 0.478813 0.000000
0.000000 0.638217 0.000000
0.000000 0.638533 0.000000
0.646149 0.025425 0.000000
0.651384 0.025633 0.000000
0.300548 0.283872 0.000000
0.039430 0.470945 0.000000
0.000000 0.638819 0.000000
0.000000 0.638547 0.000000
1.201455 0.265101 0.000000
1.142029 0.238583 0.000000
0.574861 0.022616 0.000000
0.094290 0.392826 0.000000
0.000000 0.606557 0.000000
0.000000 0.558280 0.000000
1.521292 0.412607 0.516191
1.506881 0.405516 0.489410
1.349384 0.346910 0.321937
0.396590 0.015604 0.000000
0.000000 0.437094 0.000000
0.000000 0.378053 0.000000
1.794846 0.550660 1.066058
1.794896 0.550675 1.066078
1.710913 0.524943 1.016314
1.425340 0.437256 0.846635
0.161389 0.161389 0.161389
0.000000 0.139304 0.004352
1.615135 0.548891 1.341102
1.609376 0.548788 1.349631
1.410161 0.489389 1.243229
0.908621 0.340902 0.983940
0.331306 0.139431 0.467031
0.133328 0.259150 0.436998
0.651368 0.025632 0.000000
0.650823 0.025605 0.000000
0.370687 0.232759 0.000000
0.169946 0.378390 0.000000
0.000000 0.510966 0.000000
0.000000 0.639659 0.000000
0.649330 0.025547 0.000000
0.651470 0.025638 0.000000
0.405866 0.206969 0.000000
0.182622 0.369346 0.000000
0.000000 0.507686 0.000000
0.000000 0.639733 0.000000
1.024557 0.186959 0.000000
0.962538 0.160043 0.000000
0.581643 0.022885 0.000000
0.223075 0.286439 0.000000
0.009970 0.438573 0.000000
0.000000 0.571138 0.000000
1.329265 0.322593 0.179915
1.311465 0.314421 0.150054
1.083973 0.241540 0.000000
0.407852 0.016049 0.000000
0.052410 0.275457 0.000000
0.000000 0.400490 0.000000
1.577787 0.439583 0.619040
1.571698 0.436619 0.607592
1.376929 0.377085 0.493429
0.906122 0.236211 0.239223
0.167281 0.006582 0.000000
0.000000 0.164272 0.000000
1.796405 0.551174 1.067030
1.796491 0.551195 1.067065
1.603894 0.492112 0.952510
1.124626 0.345054 0.667979
0.461261 0.141528 0.273997
0.000000 0.000000 0.000000
