remotion/public/assets/luts/VM Thermal Sunday.cube
LUT_3D_SIZE 6
1.000090 1.000000 1.000091
0.642627 0.893017 0.886127
0.278886 0.776787 0.762901
0.000000 0.639916 0.618490
0.000000 0.463661 0.433119
0.000000 0.464319 0.433816
1.078180 0.880080 1.137585
0.959182 0.967143 1.225761
0.450928 0.816903 0.956064
0.041254 0.679443 0.818856
0.000000 0.506510 0.621114
0.000000 0.458305 0.458196
1.159203 0.749188 1.281959
1.103142 0.787924 1.348716
0.907246 0.925543 1.501283
0.403446 0.753522 1.401092
0.066102 0.656869 1.130876
0.000000 0.593362 0.913222
1.270879 0.557450 1.484587
1.146396 0.604398 1.648404
0.996973 0.740007 1.733439
0.838018 0.869254 1.860276
0.464552 0.765525 1.508754
0.207870 0.696258 1.266716
1.325946 0.462985 1.584399
1.336315 0.462239 1.581825
1.162186 0.610730 1.654225
0.980307 0.759458 1.752924
0.838663 0.869867 1.861192
0.533985 0.784393 1.573923
1.326385 0.463108 1.584771
1.332681 0.462742 1.583559
1.355972 0.460562 1.575379
1.092427 0.669919 1.689232
0.955592 0.780442 1.771640
0.838838 0.870040 1.861645
0.663217 0.875442 0.643930
0.638543 0.920572 0.817459
0.669039 0.722651 0.257351
0.000000 0.685449 0.264968
0.000000 0.503882 0.181683
0.000000 0.475817 0.376669
0.976476 0.952692 1.010481
0.799773 0.799774 0.799774
0.256759 0.682297 0.670432
0.000000 0.567769 0.547390
0.000000 0.426571 0.398616
0.000000 0.371319 0.346898
1.141543 0.792807 1.160267
1.042632 0.713018 1.141387
0.847086 0.860949 1.303080
0.352764 0.702014 1.141571
0.004984 0.588403 0.985959
0.000000 0.458876 0.677348
1.264453 0.625391 1.327641
1.146230 0.551548 1.324351
0.924771 0.671341 1.585836
0.769489 0.798142 1.707986
0.410467 0.697899 1.369248
0.148517 0.551929 0.996108
1.314050 0.463357 1.585916
1.214083 0.423964 1.450878
1.090599 0.536601 1.502058
0.902296 0.690350 1.599607
0.766618 0.795011 1.701175
0.420607 0.625545 1.252576
1.319425 0.463432 1.585881
1.060750 0.370323 1.267587
1.080818 0.368767 1.261426
0.882713 0.528636 1.346582
0.766587 0.622187 1.415188
0.670851 0.695801 1.489016
0.328374 0.747787 0.290175
0.322944 0.768567 0.362771
0.265258 0.831169 0.623955
0.577579 0.406823 1.140572
0.430211 0.299792 0.000000
0.000000 0.523346 0.000000
0.496367 0.791027 0.436101
0.267854 0.617799 0.235940
0.263962 0.743163 0.567697
0.836716 0.267595 0.936187
0.055932 0.380754 0.000000
0.000000 0.428368 0.000000
0.959514 0.916641 1.021054
0.881698 0.846260 0.932607
0.599383 0.599384 0.599383
0.000000 0.445097 0.431912
0.000000 0.346014 0.323291
0.000000 0.278304 0.260009
1.161093 0.763598 1.109290
1.074608 0.696327 1.036826
0.930998 0.506549 1.058128
0.660908 0.685510 1.466775
0.274590 0.592950 1.126920
0.038926 0.393631 0.677301
1.323263 0.596486 1.237588
1.247774 0.511080 1.152329
1.098366 0.383546 1.312365
0.853750 0.600195 1.433288
0.700612 0.726749 1.555217
0.291175 0.462386 0.916437
1.409055 0.486862 1.339133
1.111238 0.385948 1.110914
0.795012 0.277617 0.950211
0.701191 0.364215 0.990448
0.583687 0.459003 1.054267
0.502760 0.521506 1.115923
0.000000 0.616114 0.000000
0.000000 0.630719 0.000000
0.000000 0.669188 0.188804
0.000000 0.717138 0.390513
0.000000 0.495188 0.469105
1.058341 0.000000 0.699105
0.132253 0.656737 0.024125
0.000000 0.481081 0.000000
0.000000 0.572398 0.097863
0.000000 0.653892 0.350830
0.000000 0.433289 0.522186
0.867704 0.006377 0.394506
0.442589 0.777483 0.474683
0.373274 0.699467 0.361861
0.038759 0.399383 0.005885
0.000000 0.512651 0.307933
0.184951 0.151198 0.882281
0.362556 0.142702 0.000000
0.948686 0.892782 1.029581
0.873065 0.823139 0.945210
0.739440 0.700121 0.796175
0.399083 0.399084 0.399084
0.000000 0.208831 0.195095
0.000000 0.185294 0.173100
1.145607 0.767933 1.070493
1.054435 0.698740 0.985867
0.989748 0.603347 0.928068
0.775363 0.270746 0.926720
0.519832 0.539161 1.153773
0.143671 0.294365 0.563028
1.258873 0.662808 1.171552
1.015416 0.521501 0.944211
0.808533 0.345652 0.735713
0.529376 0.184822 0.632581
0.408487 0.289541 0.689103
0.334764 0.347244 0.742992
0.000000 0.468545 0.000000
0.000000 0.481515 0.000000
0.000000 0.468742 0.000000
0.000000 0.527823 0.000000
0.000000 0.596126 0.149555
0.000000 0.529958 0.331964
0.000000 0.530213 0.000000
0.000000 0.330961 0.000000
0.000000 0.418921 0.000000
0.000000 0.482094 0.000000
0.000000 0.548382 0.137592
0.000000 0.422371 0.269375
0.161479 0.651938 0.000000
0.094505 0.575674 0.000000
0.000000 0.233071 0.000000
0.000000 0.350069 0.000000
0.000000 0.459960 0.115396
0.000000 0.310498 0.221533
0.476369 0.782716 0.612701
0.418937 0.715337 0.533580
0.269392 0.587791 0.294727
0.000000 0.191203 0.000000
0.000000 0.281254 0.070561
0.000000 0.118611 0.414464
0.943427 0.880562 1.034407
0.863649 0.806247 0.946269
0.784872 0.732886 0.859917
0.565200 0.528907 0.617545
0.198803 0.198803 0.198803
0.000000 0.092300 0.086238
1.119457 0.786281 1.044108
0.897937 0.626811 0.837127
0.682739 0.462065 0.635928
0.475578 0.289874 0.442658
0.263687 0.092076 0.315121
0.166757 0.172982 0.370130
0.000000 0.366627 0.000000
0.000000 0.394632 0.000000
0.000000 0.441860 0.000000
0.000000 0.489026 0.000000
0.000000 0.540780 0.000000
0.000000 0.596857 0.149750
0.000000 0.447939 0.000000
0.000000 0.293161 0.000000
0.000000 0.347545 0.000000
0.000000 0.388641 0.000000
0.000000 0.431343 0.000000
0.000000 0.477280 0.119752
0.000000 0.558257 0.000000
0.000000 0.434214 0.000000
0.000000 0.219739 0.000000
0.000000 0.281694 0.000000
0.000000 0.319193 0.000000
0.000000 0.357771 0.089772
0.243047 0.701624 0.146290
0.182312 0.554296 0.087000
0.086584 0.387405 0.000000
0.000000 0.146308 0.000000
0.000000 0.204278 0.000000
0.000000 0.238212 0.059768
0.559966 0.793046 0.729585
0.439218 0.632967 0.573861
0.298049 0.469788 0.391818
0.143591 0.300751 0.169284
0.000000 0.072882 0.000000
0.000000 0.118659 0.029768
0.942328 0.877593 1.035660
0.753466 0.701815 0.828162
0.564857 0.526072 0.620832
0.376066 0.350271 0.413334
0.187328 0.174470 0.205866
0.000000 0.000000 0.000000
