remotion/public/assets/luts/VM Thermal Mute.cube
LUT_3D_SIZE 16
1.000000 1.000000 1.000000
1.000000 0.933263 0.933263
1.000000 0.866563 0.866563
1.000000 0.799864 0.799864
1.000000 0.733154 0.733154
1.000000 0.666431 0.666431
1.000000 0.599720 0.599720
0.999922 0.533033 0.533033
0.999922 0.466290 0.466290
1.000000 0.399517 0.399517
1.000000 0.332856 0.332856
0.999922 0.266086 0.266086
1.000000 0.199415 0.199415
1.000000 0.132596 0.132596
1.000000 0.066061 0.066061
1.000000 0.000144 0.000144
0.933263 1.000000 0.933263
1.000000 1.000000 0.933263
1.000000 0.894004 0.866563
1.000000 0.816491 0.799864
1.000000 0.745193 0.733154
1.000000 0.675937 0.666431
1.000000 0.607810 0.599720
0.999922 0.540299 0.533033
0.999922 0.473152 0.466290
1.000000 0.406334 0.399517
1.000000 0.339926 0.332856
0.999922 0.273989 0.266086
1.000000 0.209122 0.199415
1.000000 0.146411 0.132596
1.000000 0.091829 0.066061
1.000000 0.066668 0.000144
0.866563 1.000000 0.866563
0.894004 1.000000 0.866563
1.000000 1.000000 0.866563
1.000000 0.883006 0.799864
1.000000 0.793613 0.733154
1.000000 0.714742 0.666431
1.000000 0.640870 0.599720
0.999922 0.569973 0.533033
0.999922 0.501018 0.466290
1.000000 0.433693 0.399517
1.000000 0.368147 0.332856
0.999922 0.304676 0.266086
1.000000 0.244855 0.199415
1.000000 0.191526 0.132596
1.000000 0.151738 0.066061
1.000000 0.133333 0.000144
0.799864 1.000000 0.799864
0.816491 1.000000 0.799864
0.883006 1.000000 0.799864
1.000000 1.000000 0.799864
1.000000 0.881148 0.733154
1.000000 0.785531 0.666431
1.000000 0.701503 0.599720
0.999922 0.624355 0.533033
0.999922 0.551753 0.466290
1.000000 0.482888 0.399517
1.000000 0.417636 0.332856
0.999922 0.356368 0.266086
1.000000 0.300926 0.199415
1.000000 0.253794 0.132596
1.000000 0.219370 0.066061
1.000000 0.200004 0.000144
0.733154 1.000000 0.733154
0.745193 1.000000 0.733154
0.793613 1.000000 0.733154
0.881148 1.000000 0.733154
1.000000 1.000000 0.733154
1.000000 0.883026 0.666431
1.000000 0.785553 0.599720
0.999922 0.699664 0.533033
0.999922 0.621494 0.466290
1.000000 0.549454 0.399517
1.000000 0.482968 0.332856
0.999922 0.422145 0.266086
1.000000 0.368330 0.199415
1.000000 0.323130 0.132596
1.000000 0.289073 0.066061
1.000000 0.266662 0.000144
0.666431 1.000000 0.666431
0.675937 1.000000 0.666431
0.714742 1.000000 0.666431
0.785531 1.000000 0.666431
0.883026 1.000000 0.666431
1.000000 1.000000 0.666431
1.000000 0.886794 0.599720
0.999922 0.790259 0.533033
0.999922 0.704930 0.466290
1.000000 0.628122 0.399517
1.000000 0.558738 0.332856
0.999922 0.496291 0.266086
1.000000 0.441611 0.199415
1.000000 0.395549 0.132596
1.000000 0.359508 0.066061
1.000000 0.333322 0.000144
0.599720 1.000000 0.599720
0.607810 1.000000 0.599720
0.640870 1.000000 0.599720
0.701503 1.000000 0.599720
0.785553 1.000000 0.599720
0.886794 1.000000 0.599720
1.000000 1.000000 0.599720
0.999922 0.891507 0.533033
0.999922 0.797622 0.466290
1.000000 0.714787 0.399517
1.000000 0.640985 0.332856
0.999922 0.575381 0.266086
1.000000 0.518159 0.199415
1.000000 0.469525 0.132596
1.000000 0.430315 0.066061
1.000000 0.400008 0.000144
0.533033 0.999922 0.533033
0.540299 0.999922 0.533033
0.569973 0.999922 0.533033
0.624355 0.999922 0.533033
0.699664 0.999922 0.533033
0.790259 0.999922 0.533033
0.891507 0.999922 0.533033
0.999922 0.999922 0.533033
0.999922 0.896673 0.466290
1.000000 0.806669 0.399517
1.000000 0.727398 0.332856
0.999922 0.657462 0.266086
1.000000 0.596543 0.199415
1.000000 0.544344 0.132596
1.000000 0.501328 0.066061
1.000000 0.466629 0.000144
0.466290 0.999922 0.466290
0.473152 0.999922 0.466290
0.501018 0.999922 0.466290
0.551753 0.999922 0.466290
0.621494 0.999922 0.466290
0.704930 0.999922 0.466290
0.797622 0.999922 0.466290
0.896673 0.999922 0.466290
0.999922 0.999922 0.466290
1.000000 0.902118 0.399517
1.000000 0.816605 0.332856
0.999922 0.741570 0.266086
1.000000 0.676134 0.199415
1.000000 0.619724 0.132596
1.000000 0.572458 0.066061
1.000000 0.533318 0.000144
0.399517 1.000000 0.399517
0.406334 1.000000 0.399517
0.433693 1.000000 0.399517
0.482888 1.000000 0.399517
0.549454 1.000000 0.399517
0.628122 1.000000 0.399517
0.714787 1.000000 0.399517
0.806669 1.000000 0.399517
0.902118 1.000000 0.399517
1.000000 1.000000 0.399517
1.000000 0.907689 0.332856
0.999922 0.826888 0.266086
1.000000 0.756514 0.199415
1.000000 0.695436 0.132596
1.000000 0.643678 0.066061
1.000000 0.600021 0.000144
0.332856 1.000000 0.332856
0.339926 1.000000 0.332856
0.368147 1.000000 0.332856
0.417636 1.000000 0.332856
0.482968 1.000000 0.332856
0.558738 1.000000 0.332856
0.640985 1.000000 0.332856
0.727398 1.000000 0.332856
0.816605 1.000000 0.332856
0.907689 1.000000 0.332856
1.000000 1.000000 0.332856
0.999922 0.913050 0.266086
1.000000 0.837289 0.199415
1.000000 0.771342 0.132596
1.000000 0.714841 0.066061
1.000000 0.666658 0.000144
0.266086 0.999922 0.266086
0.273989 0.999922 0.266086
0.304676 0.999922 0.266086
0.356368 0.999922 0.266086
0.422145 0.999922 0.266086
0.496291 0.999922 0.266086
0.575381 0.999922 0.266086
0.657462 0.999922 0.266086
0.741570 0.999922 0.266086
0.826888 0.999922 0.266086
0.913050 0.999922 0.266086
0.999922 0.999922 0.266086
1.000000 0.918594 0.199415
1.000000 0.847493 0.132596
1.000000 0.786194 0.066061
1.000000 0.733375 0.000144
0.199415 1.000000 0.199415
0.209122 1.000000 0.199415
0.244855 1.000000 0.199415
0.300926 1.000000 0.199415
0.368330 1.000000 0.199415
0.441611 1.000000 0.199415
0.518159 1.000000 0.199415
0.596543 1.000000 0.199415
0.676134 1.000000 0.199415
0.756514 1.000000 0.199415
0.837289 1.000000 0.199415
0.918594 1.000000 0.199415
1.000000 1.000000 0.199415
1.000000 0.923585 0.132596
1.000000 0.857342 0.066061
1.000000 0.799993 0.000144
0.132596 1.000000 0.132596
0.146411 1.000000 0.132596
0.191526 1.000000 0.132596
0.253794 1.000000 0.132596
0.323130 1.000000 0.132596
0.395549 1.000000 0.132596
0.469525 1.000000 0.132596
0.544344 1.000000 0.132596
0.619724 1.000000 0.132596
0.695436 1.000000 0.132596
0.771342 1.000000 0.132596
0.847493 1.000000 0.132596
0.923585 1.000000 0.132596
1.000000 1.000000 0.132596
1.000000 0.928798 0.066061
1.000000 0.866769 0.000144
0.066061 1.000000 0.066061
0.091829 1.000000 0.066061
0.151738 1.000000 0.066061
0.219370 1.000000 0.066061
0.289073 1.000000 0.066061
0.359508 1.000000 0.066061
0.430315 1.000000 0.066061
0.501328 1.000000 0.066061
0.572458 1.000000 0.066061
0.643678 1.000000 0.066061
0.714841 1.000000 0.066061
0.786194 1.000000 0.066061
0.857342 1.000000 0.066061
0.928798 1.000000 0.066061
1.000000 1.000000 0.066061
1.000000 0.933256 0.000144
0.000144 1.000000 0.000144
0.066668 1.000000 0.000144
0.133333 1.000000 0.000144
0.200004 1.000000 0.000144
0.266662 1.000000 0.000144
0.333322 1.000000 0.000144
0.400008 1.000000 0.000144
0.466629 1.000000 0.000144
0.533318 1.000000 0.000144
0.600021 1.000000 0.000144
0.666658 1.000000 0.000144
0.733375 1.000000 0.000144
0.799993 1.000000 0.000144
0.866769 1.000000 0.000144
0.933256 1.000000 0.000144
1.000000 1.000000 0.000144
0.933263 0.933263 1.000000
1.000000 0.933263 1.000000
1.000000 0.866563 0.894004
1.000000 0.799864 0.816491
1.000000 0.733154 0.745193
1.000000 0.666431 0.675937
1.000000 0.599720 0.607810
0.999922 0.533033 0.540299
0.999922 0.466290 0.473152
1.000000 0.399517 0.406334
1.000000 0.332856 0.339926
0.999922 0.266086 0.273989
1.000000 0.199415 0.209122
1.000000 0.132596 0.146411
1.000000 0.066061 0.091829
1.000000 0.000144 0.066668
0.933263 1.000000 1.000000
0.933264 0.933264 0.933264
0.933263 0.866563 0.866563
0.933263 0.799864 0.799864
0.933264 0.733154 0.733154
0.933263 0.666431 0.666431
0.933264 0.599720 0.599720
0.933263 0.533033 0.533033
0.933263 0.466290 0.466290
0.933263 0.399517 0.399517
0.933263 0.332856 0.332856
0.933264 0.266086 0.266086
0.933263 0.199415 0.199415
0.933263 0.132596 0.132596
0.933263 0.066061 0.066061
0.933263 0.000142 0.000142
0.866563 1.000000 0.894004
0.866563 0.933263 0.866563
0.933263 0.933263 0.866563
0.933263 0.847172 0.799864
0.933264 0.770022 0.733154
0.933263 0.697128 0.666431
0.933264 0.626615 0.599720
0.933263 0.557704 0.533033
0.933263 0.489858 0.466290
0.933263 0.423000 0.399517
0.933263 0.357372 0.332856
0.933264 0.293254 0.266086
0.933263 0.231920 0.199415
0.933263 0.176036 0.132596
0.933263 0.133107 0.066061
0.933263 0.114079 0.000142
0.799864 1.000000 0.816491
0.799864 0.933263 0.799864
0.847172 0.933263 0.799864
0.933263 0.933263 0.799864
0.933264 0.838130 0.733154
0.933263 0.754269 0.666431
0.933264 0.676879 0.599720
0.933263 0.603614 0.533033
0.933263 0.533368 0.466290
0.933263 0.465761 0.399517
0.933263 0.401025 0.332856
0.933264 0.339618 0.266086
0.933263 0.283342 0.199415
0.933263 0.235059 0.132596
0.933263 0.199863 0.066061
0.933263 0.181070 0.000142
0.733154 1.000000 0.745193
0.733154 0.933264 0.733154
0.770022 0.933264 0.733154
0.838130 0.933264 0.733154
0.933264 0.933264 0.733154
0.933263 0.834847 0.666431
0.933264 0.747695 0.599720
0.933263 0.668246 0.533033
0.933263 0.594128 0.466290
0.933263 0.524519 0.399517
0.933263 0.459459 0.332856
0.933264 0.399270 0.266086
0.933263 0.345554 0.199415
0.933263 0.300339 0.132596
0.933263 0.266585 0.066061
0.933263 0.245265 0.000142
0.666431 1.000000 0.675937
0.666431 0.933263 0.666431
0.697128 0.933263 0.666431
0.754269 0.933263 0.666431
0.834847 0.933263 0.666431
0.933263 0.933263 0.666431
0.933264 0.834742 0.599720
0.933263 0.747292 0.533033
0.933263 0.667788 0.466290
0.933263 0.594835 0.399517
0.933263 0.527905 0.332856
0.933264 0.467107 0.266086
0.933263 0.413484 0.199415
0.933263 0.368251 0.132596
0.933263 0.333276 0.066061
0.933263 0.308556 0.000142
0.599720 1.000000 0.607810
0.599720 0.933264 0.599720
0.626615 0.933264 0.599720
0.676879 0.933264 0.599720
0.747695 0.933264 0.599720
0.834742 0.933264 0.599720
0.933264 0.933264 0.599720
0.933263 0.836643 0.533033
0.933263 0.750628 0.466290
0.933263 0.672992 0.399517
0.933263 0.602885 0.332856
0.933264 0.539884 0.266086
0.933263 0.484557 0.199415
0.933263 0.437549 0.132596
0.933263 0.399944 0.066061
0.933263 0.371401 0.000142
0.533033 0.999922 0.540299
0.533033 0.933263 0.533033
0.557704 0.933263 0.533033
0.603614 0.933263 0.533033
0.668246 0.933263 0.533033
0.747292 0.933263 0.533033
0.836643 0.933263 0.533033
0.933263 0.933263 0.533033
0.933263 0.839747 0.466290
0.933263 0.756507 0.399517
0.933263 0.682016 0.332856
0.933264 0.615673 0.266086
0.933263 0.557453 0.199415
0.933263 0.507569 0.132596
0.933263 0.466615 0.066061
0.933263 0.434078 0.000142
0.466290 0.999922 0.473152
0.466290 0.933263 0.466290
0.489858 0.933263 0.466290
0.533368 0.933263 0.466290
0.594128 0.933263 0.466290
0.667788 0.933263 0.466290
0.750628 0.933263 0.466290
0.839747 0.933263 0.466290
0.933263 0.933263 0.466290
0.933263 0.843607 0.399517
0.933263 0.764157 0.332856
0.933264 0.693491 0.266086
0.933263 0.631561 0.199415
0.933263 0.578040 0.132596
0.933263 0.533334 0.066061
0.933263 0.496631 0.000142
0.399517 1.000000 0.406334
0.399517 0.933263 0.399517
0.423000 0.933263 0.399517
0.465761 0.933263 0.399517
0.524519 0.933263 0.399517
0.594835 0.933263 0.399517
0.672992 0.933263 0.399517
0.756507 0.933263 0.399517
0.843607 0.933263 0.399517
0.933263 0.933263 0.399517
0.933263 0.848032 0.332856
0.933264 0.772595 0.266086
0.933263 0.706415 0.199415
0.933263 0.648785 0.132596
0.933263 0.600006 0.066061
0.933263 0.559119 0.000142
0.332856 1.000000 0.339926
0.332856 0.933263 0.332856
0.357372 0.933263 0.332856
0.401025 0.933263 0.332856
0.459459 0.933263 0.332856
0.527905 0.933263 0.332856
0.602885 0.933263 0.332856
0.682016 0.933263 0.332856
0.764157 0.933263 0.332856
0.848032 0.933263 0.332856
0.933263 0.933263 0.332856
0.933264 0.852563 0.266086
0.933263 0.781689 0.199415
0.933263 0.719644 0.132596
0.933263 0.666647 0.066061
0.933263 0.621523 0.000142
0.266086 0.999922 0.273989
0.266086 0.933264 0.266086
0.293254 0.933264 0.266086
0.339618 0.933264 0.266086
0.399270 0.933264 0.266086
0.467107 0.933264 0.266086
0.539884 0.933264 0.266086
0.615673 0.933264 0.266086
0.693491 0.933264 0.266086
0.772595 0.933264 0.266086
0.852563 0.933264 0.266086
0.933264 0.933264 0.266086
0.933263 0.857399 0.199415
0.933263 0.790875 0.132596
0.933263 0.733366 0.066061
0.933263 0.683970 0.000142
0.199415 1.000000 0.209122
0.199415 0.933263 0.199415
0.231920 0.933263 0.199415
0.283342 0.933263 0.199415
0.345554 0.933263 0.199415
0.413484 0.933263 0.199415
0.484557 0.933263 0.199415
0.557453 0.933263 0.199415
0.631561 0.933263 0.199415
0.706415 0.933263 0.199415
0.781689 0.933263 0.199415
0.857399 0.933263 0.199415
0.933263 0.933263 0.199415
0.933263 0.861914 0.132596
0.933263 0.799992 0.066061
0.933263 0.746214 0.000142
0.132596 1.000000 0.146411
0.132596 0.933263 0.132596
0.176036 0.933263 0.132596
0.235059 0.933263 0.132596
0.300339 0.933263 0.132596
0.368251 0.933263 0.132596
0.437549 0.933263 0.132596
0.507569 0.933263 0.132596
0.578040 0.933263 0.132596
0.648785 0.933263 0.132596
0.719644 0.933263 0.132596
0.790875 0.933263 0.132596
0.861914 0.933263 0.132596
0.933263 0.933263 0.132596
0.933263 0.866773 0.066061
0.933263 0.808723 0.000142
0.066061 1.000000 0.091829
0.066061 0.933263 0.066061
0.133107 0.933263 0.066061
0.199863 0.933263 0.066061
0.266585 0.933263 0.066061
0.333276 0.933263 0.066061
0.399944 0.933263 0.066061
0.466615 0.933263 0.066061
0.533334 0.933263 0.066061
0.600006 0.933263 0.066061
0.666647 0.933263 0.066061
0.733366 0.933263 0.066061
0.799992 0.933263 0.066061
0.866773 0.933263 0.066061
0.933263 0.933263 0.066061
0.933263 0.870917 0.000142
0.000144 1.000000 0.066668
0.000142 0.933263 0.000142
0.114079 0.933263 0.000142
0.181070 0.933263 0.000142
0.245265 0.933263 0.000142
0.308556 0.933263 0.000142
0.371401 0.933263 0.000142
0.434078 0.933263 0.000142
0.496631 0.933263 0.000142
0.559119 0.933263 0.000142
0.621523 0.933263 0.000142
0.683970 0.933263 0.000142
0.746214 0.933263 0.000142
0.808723 0.933263 0.000142
0.870917 0.933263 0.000142
0.933263 0.933263 0.000142
0.866563 0.866563 1.000000
0.894004 0.866563 1.000000
1.000000 0.866563 1.000000
1.000000 0.799864 0.883006
1.000000 0.733154 0.793613
1.000000 0.666431 0.714742
1.000000 0.599720 0.640870
0.999922 0.533033 0.569973
0.999922 0.466290 0.501018
1.000000 0.399517 0.433693
1.000000 0.332856 0.368147
0.999922 0.266086 0.304676
1.000000 0.199415 0.244855
1.000000 0.132596 0.191526
1.000000 0.066061 0.151738
1.000000 0.000144 0.133333
0.866563 0.894004 1.000000
0.866563 0.866563 0.933263
0.933263 0.866563 0.933263
0.933263 0.799864 0.847172
0.933264 0.733154 0.770022
0.933263 0.666431 0.697128
0.933264 0.599720 0.626615
0.933263 0.533033 0.557704
0.933263 0.466290 0.489858
0.933263 0.399517 0.423000
0.933263 0.332856 0.357372
0.933264 0.266086 0.293254
0.933263 0.199415 0.231920
0.933263 0.132596 0.176036
0.933263 0.066061 0.133107
0.933263 0.000142 0.114079
0.866563 1.000000 1.000000
0.866563 0.933263 0.933263
0.866563 0.866563 0.866563
0.866563 0.799864 0.799864
0.866563 0.733154 0.733154
0.866563 0.666431 0.666431
0.866563 0.599720 0.599720
0.866563 0.533033 0.533033
0.866563 0.466290 0.466290
0.866563 0.399517 0.399517
0.866563 0.332856 0.332856
0.866563 0.266086 0.266086
0.866563 0.199415 0.199415
0.866563 0.132596 0.132596
0.866563 0.066061 0.066061
0.866563 0.000173 0.000173
0.799864 1.000000 0.883006
0.799864 0.933263 0.847172
0.799864 0.866563 0.799864
0.866563 0.866563 0.799864
0.866563 0.788291 0.733154
0.866563 0.714061 0.666431
0.866563 0.642571 0.599720
0.866563 0.572964 0.533033
0.866563 0.504816 0.466290
0.866563 0.438127 0.399517
0.866563 0.373186 0.332856
0.866563 0.310448 0.266086
0.866563 0.251587 0.199415
0.866563 0.199552 0.132596
0.866563 0.161030 0.066061
0.866563 0.142680 0.000173
0.733154 1.000000 0.793613
0.733154 0.933264 0.770022
0.733154 0.866563 0.733154
0.788291 0.866563 0.733154
0.866563 0.866563 0.733154
0.866563 0.782174 0.666431
0.866563 0.703844 0.599720
0.866563 0.629708 0.533033
0.866563 0.559056 0.466290
0.866563 0.491467 0.399517
0.866563 0.427252 0.332856
0.866563 0.367024 0.266086
0.866563 0.312594 0.199415
0.866563 0.266361 0.132596
0.866563 0.232347 0.066061
0.866563 0.212423 0.000173
0.666431 1.000000 0.714742
0.666431 0.933263 0.697128
0.666431 0.866563 0.666431
0.714061 0.866563 0.666431
0.782174 0.866563 0.666431
0.866563 0.866563 0.666431
0.866563 0.779716 0.599720
0.866563 0.699788 0.533033
0.866563 0.625315 0.466290
0.866563 0.555583 0.399517
0.866563 0.490677 0.332856
0.866563 0.430957 0.266086
0.866563 0.377874 0.199415
0.866563 0.333082 0.132596
0.866563 0.298965 0.066061
0.866563 0.275965 0.000173
0.599720 1.000000 0.640870
0.599720 0.933264 0.626615
0.599720 0.866563 0.599720
0.642571 0.866563 0.599720
0.703844 0.866563 0.599720
0.779716 0.866563 0.599720
0.866563 0.866563 0.599720
0.866563 0.779696 0.533033
0.866563 0.700253 0.466290
0.866563 0.627202 0.399517
0.866563 0.560127 0.332856
0.866563 0.499257 0.266086
0.866563 0.445464 0.199415
0.866563 0.399786 0.132596
0.866563 0.363725 0.066061
0.866563 0.337170 0.000173
0.533033 0.999922 0.569973
0.533033 0.933263 0.557704
0.533033 0.866563 0.533033
0.572964 0.866563 0.533033
0.629708 0.866563 0.533033
0.699788 0.866563 0.533033
0.779696 0.866563 0.533033
0.866563 0.866563 0.533033
0.866563 0.781208 0.466290
0.866563 0.703851 0.399517
0.866563 0.633575 0.332856
0.866563 0.570221 0.266086
0.866563 0.514333 0.199415
0.866563 0.466470 0.132596
0.866563 0.427565 0.066061
0.866563 0.397212 0.000173
0.466290 0.999922 0.501018
0.466290 0.933263 0.489858
0.466290 0.866563 0.466290
0.504816 0.866563 0.466290
0.559056 0.866563 0.466290
0.625315 0.866563 0.466290
0.700253 0.866563 0.466290
0.781208 0.866563 0.466290
0.866563 0.866563 0.466290
0.866563 0.783948 0.399517
0.866563 0.709634 0.332856
0.866563 0.642926 0.266086
0.866563 0.584058 0.199415
0.866563 0.533180 0.132596
0.866563 0.490863 0.066061
0.866563 0.456710 0.000173
0.399517 1.000000 0.433693
0.399517 0.933263 0.423000
0.399517 0.866563 0.399517
0.438127 0.866563 0.399517
0.491467 0.866563 0.399517
0.555583 0.866563 0.399517
0.627202 0.866563 0.399517
0.703851 0.866563 0.399517
0.783948 0.866563 0.399517
0.866563 0.866563 0.399517
0.866563 0.787525 0.332856
0.866563 0.716751 0.266086
0.866563 0.654304 0.199415
0.866563 0.599856 0.132596
0.866563 0.553890 0.066061
0.866563 0.515740 0.000173
0.332856 1.000000 0.368147
0.332856 0.933263 0.357372
0.332856 0.866563 0.332856
0.373186 0.866563 0.332856
0.427252 0.866563 0.332856
0.490677 0.866563 0.332856
0.560127 0.866563 0.332856
0.633575 0.866563 0.332856
0.709634 0.866563 0.332856
0.787525 0.866563 0.332856
0.866563 0.866563 0.332856
0.866563 0.791356 0.266086
0.866563 0.724784 0.199415
0.866563 0.666495 0.132596
0.866563 0.616613 0.066061
0.866563 0.574510 0.000173
0.266086 0.999922 0.304676
0.266086 0.933264 0.293254
0.266086 0.866563 0.266086
0.310448 0.866563 0.266086
0.367024 0.866563 0.266086
0.430957 0.866563 0.266086
0.499257 0.866563 0.266086
0.570221 0.866563 0.266086
0.642926 0.866563 0.266086
0.716751 0.866563 0.266086
0.791356 0.866563 0.266086
0.866563 0.866563 0.266086
0.866563 0.795634 0.199415
0.866563 0.733276 0.132596
0.866563 0.679324 0.066061
0.866563 0.633190 0.000173
0.199415 1.000000 0.244855
0.199415 0.933263 0.231920
0.199415 0.866563 0.199415
0.251587 0.866563 0.199415
0.312594 0.866563 0.199415
0.377874 0.866563 0.199415
0.445464 0.866563 0.199415
0.514333 0.866563 0.199415
0.584058 0.866563 0.199415
0.654304 0.866563 0.199415
0.724784 0.866563 0.199415
0.795634 0.866563 0.199415
0.866563 0.866563 0.199415
0.866563 0.799802 0.132596
0.866563 0.741741 0.066061
0.866563 0.691593 0.000173
0.132596 1.000000 0.191526
0.132596 0.933263 0.176036
0.132596 0.866563 0.132596
0.199552 0.866563 0.132596
0.266361 0.866563 0.132596
0.333082 0.866563 0.132596
0.399786 0.866563 0.132596
0.466470 0.866563 0.132596
0.533180 0.866563 0.132596
0.599856 0.866563 0.132596
0.666495 0.866563 0.132596
0.733276 0.866563 0.132596
0.799802 0.866563 0.132596
0.866563 0.866563 0.132596
0.866563 0.804279 0.066061
0.866563 0.749989 0.000173
0.066061 1.000000 0.151738
0.066061 0.933263 0.133107
0.066061 0.866563 0.066061
0.161030 0.866563 0.066061
0.232347 0.866563 0.066061
0.298965 0.866563 0.066061
0.363725 0.866563 0.066061
0.427565 0.866563 0.066061
0.490863 0.866563 0.066061
0.553890 0.866563 0.066061
0.616613 0.866563 0.066061
0.679324 0.866563 0.066061
0.741741 0.866563 0.066061
0.804279 0.866563 0.066061
0.866563 0.866563 0.066061
0.866563 0.808249 0.000173
0.000144 1.000000 0.133333
0.000142 0.933263 0.114079
0.000173 0.866563 0.000173
0.142680 0.866563 0.000173
0.212423 0.866563 0.000173
0.275965 0.866563 0.000173
0.337170 0.866563 0.000173
0.397212 0.866563 0.000173
0.456710 0.866563 0.000173
0.515740 0.866563 0.000173
0.574510 0.866563 0.000173
0.633190 0.866563 0.000173
0.691593 0.866563 0.000173
0.749989 0.866563 0.000173
0.808249 0.866563 0.000173
0.866563 0.866563 0.000173
0.799864 0.799864 1.000000
0.816491 0.799864 1.000000
0.883006 0.799864 1.000000
1.000000 0.799864 1.000000
1.000000 0.733154 0.881148
1.000000 0.666431 0.785531
1.000000 0.599720 0.701503
0.999922 0.533033 0.624355
0.999922 0.466290 0.551753
1.000000 0.399517 0.482888
1.000000 0.332856 0.417636
0.999922 0.266086 0.356368
1.000000 0.199415 0.300926
1.000000 0.132596 0.253794
1.000000 0.066061 0.219370
1.000000 0.000144 0.200004
0.799864 0.816491 1.000000
0.799864 0.799864 0.933263
0.847172 0.799864 0.933263
0.933263 0.799864 0.933263
0.933264 0.733154 0.838130
0.933263 0.666431 0.754269
0.933264 0.599720 0.676879
0.933263 0.533033 0.603614
0.933263 0.466290 0.533368
0.933263 0.399517 0.465761
0.933263 0.332856 0.401025
0.933264 0.266086 0.339618
0.933263 0.199415 0.283342
0.933263 0.132596 0.235059
0.933263 0.066061 0.199863
0.933263 0.000142 0.181070
0.799864 0.883006 1.000000
0.799864 0.847172 0.933263
0.799864 0.799864 0.866563
0.866563 0.799864 0.866563
0.866563 0.733154 0.788291
0.866563 0.666431 0.714061
0.866563 0.599720 0.642571
0.866563 0.533033 0.572964
0.866563 0.466290 0.504816
0.866563 0.399517 0.438127
0.866563 0.332856 0.373186
0.866563 0.266086 0.310448
0.866563 0.199415 0.251587
0.866563 0.132596 0.199552
0.866563 0.066061 0.161030
0.866563 0.000173 0.142680
0.799864 1.000000 1.000000
0.799864 0.933263 0.933263
0.799864 0.866563 0.866563
0.799864 0.799864 0.799864
0.799864 0.733154 0.733154
0.799864 0.666431 0.666431
0.799864 0.599720 0.599720
0.799864 0.533033 0.533033
0.799864 0.466290 0.466290
0.799864 0.399517 0.399517
0.799864 0.332856 0.332856
0.799864 0.266086 0.266086
0.799864 0.199415 0.199415
0.799864 0.132596 0.132596
0.799864 0.066061 0.066061
0.799864 0.000000 0.000000
0.733154 1.000000 0.881148
0.733154 0.933264 0.838130
0.733154 0.866563 0.788291
0.733154 0.799864 0.733154
0.799864 0.799864 0.733154
0.799864 0.725828 0.666431
0.799864 0.654075 0.599720
0.799864 0.584356 0.533033
0.799864 0.516252 0.466290
0.799864 0.449814 0.399517
0.799864 0.385424 0.332856
0.799864 0.323641 0.266086
0.799864 0.266275 0.199415
0.799864 0.216310 0.132596
0.799864 0.179604 0.066061
0.799864 0.161027 0.000000
0.666431 1.000000 0.785531
0.666431 0.933263 0.754269
0.666431 0.866563 0.714061
0.666431 0.799864 0.666431
0.725828 0.799864 0.666431
0.799864 0.799864 0.666431
0.799864 0.721854 0.599720
0.799864 0.647949 0.533033
0.799864 0.577369 0.466290
0.799864 0.509998 0.399517
0.799864 0.446198 0.332856
0.799864 0.386665 0.266086
0.799864 0.333039 0.199415
0.799864 0.287616 0.132596
0.799864 0.253742 0.066061
0.799864 0.232726 0.000000
0.599720 1.000000 0.701503
0.599720 0.933264 0.676879
0.599720 0.866563 0.642571
0.599720 0.799864 0.599720
0.654075 0.799864 0.599720
0.721854 0.799864 0.599720
0.799864 0.799864 0.599720
0.799864 0.720576 0.533033
0.799864 0.646457 0.466290
0.799864 0.576936 0.399517
0.799864 0.512194 0.332856
0.799864 0.452702 0.266086
0.799864 0.399751 0.199415
0.799864 0.354870 0.132596
0.799864 0.320075 0.066061
0.799864 0.295714 0.000000
0.533033 0.999922 0.624355
0.533033 0.933263 0.603614
0.533033 0.866563 0.572964
0.533033 0.799864 0.533033
0.584356 0.799864 0.533033
0.647949 0.799864 0.533033
0.720576 0.799864 0.533033
0.799864 0.799864 0.533033
