remotion/public/assets/luts/VM Thermal Flip.cube
LUT_3D_SIZE 16
1.000000 1.000000 1.000000
1.018385 0.970674 0.970674
1.068697 0.879022 0.879022
1.110915 0.784170 0.784170
1.146309 0.684641 0.684641
1.175972 0.577367 0.577367
1.200679 0.455433 0.455433
1.220872 0.295635 0.295635
1.237248 -0.221469 -0.221469
1.250006 -0.368392 -0.368392
1.259639 -0.440653 -0.440653
1.266459 -0.483634 -0.483634
1.270845 -0.508610 -0.508610
1.273162 -0.520986 -0.520986
1.273705 -0.524545 -0.524545
1.273715 -0.524599 -0.524599
0.958256 1.006705 0.958256
1.001705 1.001705 0.952905
1.057286 0.905132 0.864004
1.104141 0.803449 0.773107
1.141952 0.700444 0.675592
1.173013 0.591770 0.569124
1.198429 0.470356 0.446822
1.219320 0.316188 0.283290
1.235965 -0.193630 -0.235058
1.249026 -0.358171 -0.373854
1.258772 -0.434284 -0.444146
1.265825 -0.479090 -0.486147
1.270245 -0.505062 -0.510546
1.272704 -0.518186 -0.522562
1.273483 -0.522206 -0.525867
1.273466 -0.522610 -0.525698
0.821319 1.025583 0.821319
0.860797 1.022025 0.816458
1.006573 1.006573 0.795147
1.074602 0.879585 0.723180
1.123039 0.763090 0.634828
1.159962 0.648534 0.531807
1.189040 0.527883 0.406985
1.212224 0.388298 0.218833
1.230469 0.159531 -0.283595
1.244735 -0.309113 -0.396237
1.255407 -0.405417 -0.458699
1.263034 -0.458792 -0.496750
1.267950 -0.489631 -0.518725
1.270812 -0.505811 -0.529203
1.271781 -0.511968 -0.531358
1.272133 -0.513926 -0.530364
0.664321 1.042017 0.664321
0.697647 1.039840 0.660176
0.819939 1.030405 0.642160
1.010886 1.010886 0.603162
1.083113 0.872105 0.538348
1.132788 0.746256 0.441848
1.169510 0.623453 0.302242
1.197585 0.494964 -0.193287
1.219319 0.342632 -0.356937
1.235863 -0.135548 -0.436912
1.248305 -0.335591 -0.486358
1.257308 -0.413179 -0.517273
1.263239 -0.455927 -0.534864
1.266764 -0.479292 -0.542268
1.268451 -0.490231 -0.542359
1.269329 -0.495741 -0.539728
0.460175 1.056210 0.460175
0.497107 1.054779 0.455513
0.623645 1.048523 0.434679
0.806324 1.035678 0.387463
1.014665 1.014665 0.288292
1.087369 0.872981 0.172448
1.137342 0.743565 -0.255218
1.173702 0.618319 -0.370077
1.200963 0.488638 -0.442861
1.221515 0.338058 -0.492706
1.236888 -0.118330 -0.526496
1.248016 -0.320415 -0.547990
1.255641 -0.393340 -0.559297
1.260586 -0.432039 -0.562411
1.263180 -0.452384 -0.559291
1.264793 -0.464480 -0.554198
-0.250241 1.068377 -0.250241
-0.165279 1.067355 -0.257889
0.355817 1.062937 -0.287553
0.589099 1.053927 -0.337308
0.806048 1.039261 -0.400365
1.017948 1.017948 -0.471289
1.089305 0.878093 -0.479910
1.138647 0.749673 -0.506284
1.174362 0.626284 -0.535004
1.200849 0.501660 -0.559360
1.220430 0.364843 -0.577106
1.234669 0.161974 -0.587811
1.244766 -0.267385 -0.591633
1.251396 -0.348808 -0.589314
1.255641 -0.389433 -0.582193
1.258508 -0.414219 -0.573943
-0.511730 1.078663 -0.511730
-0.493193 1.077896 -0.513848
-0.399752 1.074657 -0.522854
0.252275 1.068009 -0.540565
0.581690 1.057285 -0.567264
0.812336 1.041805 -0.602446
1.020755 1.020755 -0.644981
1.089668 0.885191 -0.631543
1.137814 0.760603 -0.630428
1.172552 0.642408 -0.633351
1.198087 0.526555 -0.635778
1.216676 0.407058 -0.635300
1.230034 0.269530 -0.631003
1.239373 -0.139643 -0.622488
1.245512 -0.273178 -0.610672
1.249873 -0.330455 -0.598662
-0.636808 1.087222 -0.636808
-0.626437 1.086600 -0.638001
-0.579121 1.084162 -0.643147
-0.461111 1.079124 -0.653502
0.217192 1.070977 -0.669545
0.591467 1.059319 -0.691518
0.822131 1.043505 -0.718998
1.023101 1.023101 -0.751868
1.089090 0.893247 -0.727656
1.135404 0.774321 -0.712292
1.168984 0.663179 -0.700479
1.193483 0.557220 -0.689061
1.211213 0.454390 -0.676254
1.223829 0.350493 -0.661168
1.232555 0.234719 -0.644229
1.239051 -0.121482 -0.627999
-0.718536 1.094230 -0.718536
-0.711715 1.093741 -0.719419
-0.681293 1.091789 -0.722878
-0.612765 1.087911 -0.729820
-0.472819 1.081570 -0.740709
0.254418 1.072502 -0.755815
0.610840 1.060328 -0.775179
0.833559 1.044649 -0.798730
1.025031 1.025031 -0.826219
1.087654 0.901810 -0.794685
1.132031 0.789531 -0.769677
1.164191 0.685979 -0.747664
1.187558 0.590229 -0.726363
1.204447 0.500932 -0.704539
1.216478 0.417447 -0.682114
1.225489 0.333330 -0.661468
-0.775436 1.099703 -0.775436
-0.770542 1.099360 -0.776099
-0.748987 1.097803 -0.778569
-0.702173 1.094696 -0.783578
-0.616786 1.089666 -0.791532
-0.454769 1.082490 -0.802569
0.318991 1.072897 -0.816936
0.635125 1.060583 -0.834544
0.845759 1.045255 -0.855411
1.026570 1.026570 -0.879332
1.085661 0.910321 -0.842181
1.127875 0.804939 -0.810000
1.158468 0.709452 -0.780413
1.180834 0.622704 -0.751753
1.197021 0.544468 -0.723716
1.209128 0.471374 -0.698384
-0.815166 1.103885 -0.815166
-0.811499 1.103617 -0.815601
-0.795290 1.102404 -0.817540
-0.760885 1.099850 -0.821323
-0.700829 1.095797 -0.827331
-0.600484 1.090043 -0.835818
-0.412358 1.082291 -0.846842
0.385389 1.072471 -0.860467
0.661747 1.060225 -0.876778
0.858112 1.045414 -0.895613
1.027738 1.027738 -0.917003
1.083324 0.918410 -0.875148
1.123171 0.820376 -0.837449
1.152271 0.732202 -0.802085
1.173645 0.653651 -0.768534
1.189676 0.582095 -0.738390
-0.842072 1.106881 -0.842072
-0.839138 1.106671 -0.842397
-0.826525 1.105628 -0.843859
-0.800040 1.103582 -0.846839
-0.754879 1.100315 -0.851607
-0.683297 1.095580 -0.858239
-0.568340 1.089298 -0.867017
-0.343084 1.081279 -0.877846
0.446546 1.071422 -0.890862
0.688277 1.059464 -0.906054
0.869865 1.045269 -0.923284
1.028580 1.028580 -0.942702
1.080522 0.926454 -0.897125
1.118217 0.835098 -0.855061
1.145848 0.754041 -0.815845
1.166631 0.681087 -0.780903
-0.858649 1.108822 -0.858649
-0.856311 1.108558 -0.858891
-0.846173 1.107746 -0.860103
-0.825092 1.106044 -0.862522
-0.789569 1.103319 -0.866314
-0.735148 1.099470 -0.871737
-0.652769 1.094301 -0.878800
-0.521465 1.087741 -0.887643
-0.220663 1.079652 -0.898265
0.502092 1.069853 -0.910693
0.714226 1.058286 -0.924886
0.881613 1.044770 -0.940957
1.029108 1.029108 -0.958662
1.077741 0.933491 -0.909986
1.113155 0.848882 -0.865253
1.139784 0.773169 -0.825533
-0.867146 1.109802 -0.867146
-0.865259 1.109572 -0.867382
-0.856925 1.108912 -0.868371
-0.839711 1.107476 -0.870349
-0.811045 1.105253 -0.873503
-0.767870 1.102027 -0.877944
-0.704667 1.097757 -0.883763
-0.611363 1.092311 -0.891136
-0.459352 1.085561 -0.899892
0.222060 1.077574 -0.910229
0.550808 1.067991 -0.922177
0.738617 1.056892 -0.935538
0.892000 1.044092 -0.950493
1.029394 1.029394 -0.966865
1.074615 0.940551 -0.916625
1.108338 0.861320 -0.872110
-0.869641 1.110071 -0.869641
-0.867987 1.109924 -0.869827
-0.861033 1.109331 -0.870670
-0.846755 1.108148 -0.872268
-0.823128 1.106275 -0.874915
-0.787758 1.103576 -0.878657
-0.737289 1.099946 -0.883594
-0.665644 1.095423 -0.889692
-0.559881 1.089853 -0.897134
-0.376738 1.083086 -0.905866
0.352702 1.075145 -0.915923
0.594512 1.065928 -0.927335
0.761143 1.055304 -0.939979
0.902334 1.043171 -0.954015
1.029478 1.029478 -0.969204
1.071946 0.946314 -0.919969
-0.869679 1.110075 -0.869679
-0.868282 1.109950 -0.869827
-0.862440 1.109454 -0.870508
-0.850343 1.108421 -0.871957
-0.830463 1.106857 -0.874168
-0.801074 1.104575 -0.877358
-0.759669 1.101549 -0.881459
-0.702354 1.097688 -0.886692
-0.621878 1.092961 -0.893004
-0.501292 1.087281 -0.900505
-0.260950 1.080609 -0.909093
0.432750 1.072829 -0.918880
0.630778 1.063923 -0.929745
0.781220 1.053780 -0.941841
0.910880 1.042337 -0.954979
1.029479 1.029479 -0.969248
0.974160 0.974160 1.021620
1.016715 0.968967 1.016715
1.067554 0.877515 0.917795
1.110171 0.783106 0.812875
1.145913 0.683691 0.708209
1.175663 0.576544 0.598793
1.200438 0.454571 0.477601
1.220746 0.294452 0.325817
1.237094 -0.222888 -0.177322
1.249881 -0.368936 -0.352933
1.259540 -0.441033 -0.431044
1.266377 -0.483914 -0.476769
1.270874 -0.508784 -0.503319
1.273106 -0.521138 -0.516753
1.273656 -0.524660 -0.521011
1.273673 -0.524687 -0.521614
0.956385 1.005010 1.005010
0.975986 0.975986 0.975986
1.084447 0.845904 0.845904
1.121161 0.757554 0.757554
1.152517 0.664520 0.664520
1.179876 0.560981 0.560981
1.203098 0.440315 0.440315
1.222505 0.276674 0.276674
1.238204 -0.238545 -0.238545
1.250719 -0.374141 -0.374141
1.260098 -0.443500 -0.443500
1.266665 -0.485076 -0.485076
1.270999 -0.509266 -0.509266
1.273121 -0.521216 -0.521216
1.273709 -0.524562 -0.524562
1.273732 -0.524635 -0.524635
0.819750 1.024386 0.863798
0.813108 1.026579 0.813108
1.006635 1.006635 0.792889
1.082077 0.862865 0.718547
1.129894 0.743015 0.629424
1.165218 0.627984 0.526548
1.193031 0.506660 0.402131
1.215094 0.362928 0.212187
1.232601 0.041756 -0.285444
1.246327 -0.327468 -0.396185
1.256628 -0.415192 -0.457981
1.263857 -0.465030 -0.495692
1.268626 -0.493914 -0.517511
1.271226 -0.508959 -0.527887
1.272213 -0.514358 -0.530154
1.272448 -0.516042 -0.529383
0.662889 1.041269 0.700156
0.658307 1.042541 0.658307
0.800307 1.032189 0.640337
1.010919 1.010919 0.601041
1.086413 0.864515 0.536481
1.136295 0.735582 0.439481
1.172513 0.611075 0.299132
1.199997 0.480636 -0.196427
1.221137 0.322897 -0.357270
1.237279 -0.179716 -0.436485
1.249380 -0.347269 -0.485540
1.258123 -0.420026 -0.516252
1.263842 -0.460512 -0.533688
1.267227 -0.482609 -0.541076
1.268878 -0.492764 -0.541140
1.269555 -0.497912 -0.538764
0.458589 1.055719 0.499860
0.453911 1.056545 0.453911
0.598578 1.049992 0.432944
0.796169 1.036575 0.385223
1.014694 1.014694 0.283747
1.089182 0.868881 0.169729
1.139398 0.737356 -0.255815
1.175597 0.610543 -0.369990
1.202535 0.479164 -0.442392
1.222785 0.324646 -0.492002
1.237926 -0.155891 -0.525652
1.248760 -0.329279 -0.546903
1.256255 -0.398677 -0.558199
1.260927 -0.435745 -0.561236
1.263490 -0.455128 -0.558173
1.265156 -0.466816 -0.553311
-0.252878 1.068004 -0.155673
-0.259597 1.068596 -0.259597
0.310407 1.064058 -0.289185
0.572879 1.054826 -0.338701
0.800190 1.039799 -0.401735
1.017970 1.017970 -0.472927
1.090378 0.875577 -0.479900
1.139905 0.745781 -0.505916
1.175620 0.621254 -0.534393
1.201854 0.495447 -0.558630
1.221264 0.356460 -0.576253
1.235414 0.138473 -0.586882
1.245290 -0.275696 -0.590633
1.251907 -0.353496 -0.588292
1.256044 -0.392681 -0.581160
1.258803 -0.416892 -0.573102
-0.512425 1.078393 -0.491698
-0.513975 1.078804 -0.513975
-0.425419 1.075505 -0.522994
0.201027 1.068754 -0.540727
0.571145 1.057851 -0.567673
0.808756 1.042118 -0.602882
1.020769 1.020769 -0.645650
1.090386 0.883612 -0.631435
1.138680 0.757973 -0.630013
1.173374 0.639085 -0.632685
1.198777 0.522467 -0.635040
1.217336 0.401930 -0.634517
1.230586 0.261790 -0.630132
1.239726 -0.154338 -0.621590
1.245897 -0.278225 -0.609773
1.250156 -0.333930 -0.597910
-0.637211 1.087013 -0.625629
-0.637967 1.087319 -0.637967
-0.591358 1.084840 -0.643093
-0.476313 1.079744 -0.653508
0.173750 1.071510 -0.669598
0.584572 1.059682 -0.691640
0.819761 1.043749 -0.719312
1.023111 1.023111 -0.752331
1.089507 0.892206 -0.727575
1.136095 0.772556 -0.711955
1.169573 0.660888 -0.699910
1.193993 0.554456 -0.688385
1.211629 0.451187 -0.675513
1.224266 0.346518 -0.660406
1.232916 0.228752 -0.643419
1.239321 -0.133976 -0.627360
-0.718920 1.094067 -0.711192
-0.719180 1.094253 -0.719180
-0.688977 1.092323 -0.722653
-0.621142 1.088359 -0.729695
-0.483444 1.081979 -0.740539
0.231865 1.072840 -0.755743
0.606279 1.060576 -0.775197
0.831981 1.044802 -0.798793
1.025037 1.025037 -0.826439
1.088016 0.901044 -0.794514
1.132458 0.788293 -0.769277
1.164593 0.684391 -0.747098
1.187868 0.588353 -0.725818
1.204803 0.498814 -0.703915
1.216810 0.415022 -0.681473
1.225741 0.330280 -0.660859
-0.775657 1.099572 -0.770192
-0.775873 1.099745 -0.775873
-0.754326 1.098216 -0.778353
-0.707777 1.095088 -0.783385
-0.622970 1.090041 -0.791375
-0.463042 1.082821 -0.802454
0.307496 1.073125 -0.816856
0.632049 1.060778 -0.834531
0.844600 1.045345 -0.855436
1.026575 1.026575 -0.879522
1.085916 0.909785 -0.842012
1.128229 0.804105 -0.809635
1.158798 0.708324 -0.779918
1.181138 0.621415 -0.751276
1.197240 0.543000 -0.723247
1.209357 0.469681 -0.697934
-0.815352 1.103823 -0.811167
-0.815423 1.103909 -0.815423
-0.799285 1.102696 -0.817309
-0.764946 1.100131 -0.821104
-0.705123 1.096107 -0.827223
-0.605363 1.090281 -0.835697
-0.419397 1.082573 -0.846739
0.378980 1.072667 -0.860422
0.659580 1.060398 -0.876737
0.857292 1.045510 -0.895666
1.027741 1.027741 -0.917145
1.083474 0.918045 -0.874992
1.123429 0.819761 -0.837166
1.152584 0.731339 -0.801675
1.173832 0.652691 -0.768042
1.189926 0.580988 -0.737960
-0.842174 1.106794 -0.838892
-0.842156 1.106894 -0.842156
-0.829522 1.105892 -0.843602
-0.803070 1.103839 -0.846590
-0.757980 1.100518 -0.851436
-0.686695 1.095767 -0.858087
-0.572310 1.089503 -0.866833
-0.349892 1.081455 -0.877699
0.442698 1.071564 -0.890736
0.686708 1.059567 -0.906016
0.869241 1.045325 -0.923240
1.028580 1.028580 -0.942719
1.080660 0.926164 -0.896991
1.118422 0.834569 -0.854807
1.145997 0.753396 -0.815571
1.166857 0.680295 -0.780583
-0.858714 1.108751 -0.856110
-0.858706 1.108828 -0.858706
-0.848597 1.107960 -0.859863
-0.827443 1.106254 -0.862270
-0.792125 1.103528 -0.866151
-0.737641 1.099619 -0.871516
-0.655617 1.094477 -0.878626
-0.524883 1.087899 -0.887501
-0.230252 1.079745 -0.898163
0.499579 1.069964 -0.910628
0.713150 1.058387 -0.924907
0.881214 1.044812 -0.940926
1.029109 1.029109 -0.958687
1.077847 0.933258 -0.909918
1.113308 0.848537 -0.865049
1.139903 0.772709 -0.825338
-0.867247 1.109688 -0.865062
-0.867168 1.109804 -0.867168
-0.858832 1.109089 -0.868162
-0.841639 1.107702 -0.870124
-0.813070 1.105377 -0.873311
-0.769864 1.102145 -0.877766
-0.706891 1.097868 -0.883605
-0.613811 1.092412 -0.890925
-0.462584 1.085727 -0.899760
0.214214 1.077638 -0.910168
0.549141 1.068075 -0.922050
0.737732 1.056952 -0.935485
0.891618 1.044124 -0.950447
1.029394 1.029394 -0.966866
1.074696 0.940346 -0.916486
1.108421 0.861032 -0.871964
-0.869726 1.110021 -0.867884
-0.869637 1.110071 -0.869637
-0.862693 1.109477 -0.870483
-0.848352 1.108292 -0.872138
-0.824752 1.106370 -0.874718
-0.789481 1.103711 -0.878494
-0.739036 1.100074 -0.883446
-0.667546 1.095543 -0.889564
-0.562042 1.089926 -0.897001
-0.380113 1.083184 -0.905788
0.349538 1.075228 -0.915829
0.593282 1.065994 -0.927252
0.760559 1.055372 -0.939898
0.902097 1.043196 -0.953969
1.029477 1.029477 -0.969196
1.072015 0.946201 -0.919925
-0.869751 1.110032 -0.868205
-0.869740 1.110081 -0.869740
-0.863844 1.109538 -0.870423
-0.851749 1.108549 -0.871811
-0.831939 1.106983 -0.874026
-0.802557 1.104697 -0.877224
-0.761133 1.101666 -0.881381
-0.703977 1.097799 -0.886625
-0.623647 1.093065 -0.892956
-0.503443 1.087375 -0.900420
-0.265621 1.080692 -0.909026
0.430796 1.072900 -0.918834
0.629907 1.063980 -0.929723
0.780684 1.053820 -0.941844
0.910669 1.042359 -0.955011
1.029480 1.029480 -0.969311
0.894201 0.894201 1.080273
0.929435 0.889905 1.076973
1.062648 0.871080 1.062648
1.107286 0.778302 0.922335
1.143972 0.679781 0.798461
1.174361 0.572993 0.680284
1.199542 0.450861 0.559406
1.220033 0.289162 0.424757
1.236578 -0.228859 0.237560
1.249470 -0.371353 -0.272355
1.259204 -0.442543 -0.386041
1.266060 -0.484995 -0.445621
1.270460 -0.509647 -0.479724
1.272867 -0.521837 -0.497960
1.273602 -0.525272 -0.505490
1.273650 -0.525173 -0.508503
0.879565 0.919756 1.069061
0.851216 0.851216 1.093480
1.073886 0.843578 1.073886
1.116674 0.754800 0.897327
1.150098 0.661448 0.770336
1.178328 0.557774 0.653238
1.202118 0.436775 0.532531
1.221739 0.271203 0.394568
1.237728 -0.243925 0.178652
1.250264 -0.376429 -0.301045
1.259634 -0.444970 -0.400171
1.266404 -0.486171 -0.454579
1.270806 -0.510125 -0.486032
1.272979 -0.521916 -0.502659
1.273652 -0.525142 -0.509156
1.273708 -0.525121 -0.511664
0.812605 1.019186 1.019186
0.806483 1.019709 1.019709
0.901891 0.901891 0.901891
1.047432 0.739889 0.739889
1.135507 0.616079 0.616079
1.182403 0.504182 0.504182
1.212281 0.375915 0.375915
1.228830 0.172086 0.172086
1.242556 -0.295261 -0.295261
1.253553 -0.396772 -0.396772
1.261891 -0.455239 -0.455239
1.267807 -0.491288 -0.491288
1.271531 -0.512261 -0.512261
1.273423 -0.522246 -0.522246
1.273715 -0.524596 -0.524596
1.273782 -0.524898 -0.524898
0.656869 1.038088 0.830479
0.652287 1.039035 0.809472
0.665573 1.014886 0.665573
0.991372 0.991372 0.624249
1.097232 0.818336 0.535291
1.153889 0.677551 0.427547
1.186898 0.545378 0.282115
1.211199 0.403406 -0.213502
1.229756 0.195381 -0.359918
1.243863 -0.292591 -0.435309
1.254343 -0.393749 -0.482322
1.261807 -0.448467 -0.511875
1.266675 -0.479932 -0.528624
1.269311 -0.496599 -0.535693
1.270453 -0.503432 -0.535876
1.271086 -0.507055 -0.534425
0.451744 1.053623 0.634137
0.446931 1.054314 0.607635
0.427180 1.057412 0.427180
0.738429 1.041353 0.376325
1.014809 1.014809 0.264747
1.097917 0.848142 0.160166
1.148929 0.706494 -0.258804
1.184080 0.572504 -0.370514
1.209694 0.432207 -0.441139
1.228546 0.251150 -0.489500
1.242341 -0.251264 -0.522136
1.252249 -0.365140 -0.542650
1.258819 -0.420871 -0.553463
1.262993 -0.451185 -0.556269
1.265138 -0.466728 -0.553252
1.266514 -0.476603 -0.549263
-0.263738 1.066529 0.371968
-0.270137 1.067045 0.326335
-0.293526 1.069432 -0.293526
0.483390 1.059029 -0.342961
0.771024 1.042266 -0.406377
1.018043 1.018043 -0.478537
1.095373 0.863935 -0.479692
1.145801 0.727197 -0.504197
1.181106 0.597685 -0.532016
1.206565 0.466203 -0.555669
1.225054 0.315496 -0.572806
1.238518 -0.139459 -0.582926
1.247841 -0.308657 -0.586326
1.253828 -0.372874 -0.583761
1.257535 -0.406343 -0.576687
1.260127 -0.427954 -0.569378
-0.515532 1.077295 -0.388982
-0.517063 1.077684 -0.417430
-0.523278 1.079356 -0.523278
-0.287203 1.072096 -0.541316
0.518909 1.060451 -0.568477
0.791707 1.043609 -0.604466
1.020817 1.020817 -0.648023
1.093504 0.876349 -0.630725
1.142529 0.746201 -0.627990
1.177123 0.623779 -0.630124
1.202079 0.503812 -0.631967
1.220100 0.378243 -0.631081
1.232798 0.223233 -0.626341
1.241601 -0.202855 -0.617652
1.247322 -0.298655 -0.605798
1.251518 -0.348241 -0.594554
-0.638990 1.086195 -0.574257
-0.639736 1.086443 -0.587538
-0.642582 1.087672 -0.642582
-0.537465 1.082305 -0.653087
-0.240381 1.073739 -0.669469
0.552272 1.061361 -0.691790
0.809091 1.044695 -0.720013
1.023143 1.023143 -0.753648
1.091627 0.887476 -0.726889
1.138738 0.764643 -0.710067
1.172136 0.650644 -0.697532
1.196384 0.542187 -0.685537
1.213715 0.436695 -0.672364
1.225838 0.328390 -0.657072
1.234311 0.199877 -0.639978
1.240559 -0.174864 -0.624398
-0.720055 1.093397 -0.678234
-0.720395 1.093577 -0.686526
-0.721824 1.094516 -0.721824
-0.656376 1.090407 -0.728917
-0.526939 1.083826 -0.739947
-0.091671 1.074395 -0.755398
0.585443 1.061728 -0.775154
0.824830 1.045428 -0.799172
1.025059 1.025059 -0.827229
1.089454 0.897782 -0.793778
1.134333 0.782770 -0.767765
1.166513 0.677321 -0.745089
1.189662 0.580061 -0.723269
1.206267 0.489472 -0.701180
1.218078 0.404416 -0.678547
1.226952 0.316804 -0.658357
-0.776523 1.099060 -0.746873
-0.776742 1.099223 -0.752624
-0.777347 1.099913 -0.777347
-0.731714 1.096718 -0.782468
-0.649084 1.091516 -0.790549
-0.497017 1.084129 -0.801841
0.247867 1.074225 -0.816387
0.618253 1.061601 -0.834370
0.839741 1.045804 -0.855555
1.026588 1.026588 -0.879927
1.086950 0.907441 -0.841366
1.129607 0.800114 -0.808271
1.160201 0.703294 -0.778075
1.182445 0.615619 -0.749030
1.198373 0.536602 -0.720834
1.210537 0.462338 -0.695780
-0.815970 1.103413 -0.793653
-0.816043 1.103498 -0.797972
-0.816282 1.104019 -0.816282
-0.782453 1.101456 -0.820223
-0.723422 1.097332 -0.826304
-0.625836 1.091385 -0.834935
-0.448398 1.083512 -0.846093
0.348938 1.073485 -0.859994
0.650093 1.060956 -0.876542
0.853823 1.045821 -0.895629
1.027749 1.027749 -0.917378
1.084250 0.916334 -0.874384
1.124461 0.816866 -0.836005
1.153678 0.727651 -0.800147
1.174859 0.648560 -0.766225
1.190858 0.576238 -0.736343
-0.842652 1.106429 -0.825251
-0.842681 1.106566 -0.828531
-0.842665 1.106954 -0.842665
-0.816359 1.104885 -0.845707
-0.771726 1.101514 -0.850490
-0.701327 1.096738 -0.857280
-0.589222 1.090331 -0.866161
-0.377890 1.082213 -0.877121
0.425105 1.072130 -0.890341
0.680130 1.059998 -0.905737
0.866734 1.045572 -0.923250
1.028586 1.028586 -0.942873
1.081190 0.924837 -0.896437
1.119177 0.832452 -0.853748
1.146889 0.750672 -0.814252
1.167652 0.677140 -0.779331
-0.859139 1.108436 -0.845153
-0.859076 1.108467 -0.847787
-0.858909 1.108798 -0.858909
-0.837955 1.107074 -0.861378
-0.802789 1.104323 -0.865232
-0.748872 1.100421 -0.870744
-0.667740 1.095205 -0.877895
-0.539608 1.088508 -0.886822
-0.266742 1.080307 -0.897582
0.488417 1.070440 -0.910239
0.708397 1.058698 -0.924640
0.879277 1.044972 -0.940767
1.029111 1.029111 -0.958769
1.078245 0.932360 -0.909413
1.113875 0.846916 -0.864206
1.140583 0.770540 -0.824493
-0.867576 1.109479 -0.856108
-0.867499 1.109494 -0.858213
-0.867223 1.109815 -0.867223
-0.850091 1.108362 -0.869232
-0.821710 1.106068 -0.872438
-0.778709 1.102807 -0.876949
-0.716186 1.098519 -0.882869
-0.624264 1.093009 -0.890258
-0.476231 1.086229 -0.899197
0.174286 1.078065 -0.909660
0.541609 1.068450 -0.921703
0.734330 1.057183 -0.935276
0.890217 1.044241 -0.950277
1.029395 1.029395 -0.966894
1.075012 0.939665 -0.916075
1.108963 0.859705 -0.871463
-0.869962 1.109853 -0.860389
-0.869937 1.109856 -0.862139
-0.869644 1.110071 -0.869644
-0.855367 1.108862 -0.871320
-0.831837 1.106973 -0.873930
-0.796745 1.104210 -0.877751
-0.746557 1.100640 -0.882689
-0.675606 1.095985 -0.888944
-0.571407 1.090366 -0.896400
-0.394208 1.083615 -0.905257
0.335305 1.075596 -0.915409
0.588048 1.066246 -0.926935
0.757941 1.055575 -0.939693
0.901026 1.043304 -0.953889
1.029477 1.029477 -0.969198
1.072274 0.945614 -0.919810
-0.869995 1.109851 -0.861816
-0.869985 1.109899 -0.863343
-0.869912 1.110104 -0.869912
-0.857838 1.109094 -0.871314
-0.838032 1.107432 -0.873591
-0.808865 1.105163 -0.876780
-0.767661 1.102070 -0.881001
-0.710771 1.098231 -0.886251
-0.631089 1.093470 -0.892615
-0.512505 1.087751 -0.900109
-0.284514 1.081006 -0.908772
0.422149 1.073165 -0.918675
0.625899 1.064222 -0.929629
0.778607 1.053993 -0.941833
0.909774 1.042454 -0.955041
1.029486 1.029486 -0.969467
0.813404 0.813404 1.129043
0.838738 0.810241 1.127145
0.937035 0.796813 1.118707
1.101397 0.768495 1.101397
1.140206 0.671859 0.947588
1.171766 0.565704 0.813516
1.197587 0.443201 0.687609
1.218648 0.278002 0.561762
1.235481 -0.240308 0.424924
1.248641 -0.376097 0.241855
1.258502 -0.445579 -0.259213
1.265464 -0.487188 -0.370580
1.270066 -0.511349 -0.426070
1.272511 -0.523201 -0.456383
1.273227 -0.526405 -0.471733
1.273402 -0.526116 -0.480379
0.802853 0.831731 1.122447
0.758049 0.758049 1.157361
0.910226 0.762469 1.136406
1.108072 0.748086 1.108072
1.145337 0.654707 0.937175
1.175389 0.550941 0.798479
1.200027 0.429253 0.671262
1.220221 0.259367 0.544211
1.236591 -0.254223 0.404223
1.249315 -0.381084 0.203316
1.258975 -0.448005 -0.282087
1.265872 -0.488397 -0.381807
1.270188 -0.511822 -0.433305
1.272525 -0.523301 -0.461568
1.273341 -0.526252 -0.475699
1.273458 -0.526107 -0.483743
0.755720 0.904575 1.093641
0.744413 0.886302 1.104168
0.759590 0.759590 1.061778
1.053385 0.728777 1.053385
1.133773 0.610040 0.865981
1.180193 0.498213 0.720169
1.209694 0.368551 0.588376
1.227038 0.151756 0.453470
1.241246 -0.302590 0.286200
1.252585 -0.400911 -0.224850
1.261170 -0.458059 -0.360603
1.267189 -0.493387 -0.425996
1.271059 -0.513954 -0.463018
1.272961 -0.523624 -0.483135
1.273448 -0.525761 -0.492356
1.273579 -0.525875 -0.497830
0.644438 1.031590 1.031590
0.639810 1.031865 1.031865
0.652285 1.007185 1.007185
0.827849 0.827849 0.827849
1.007566 0.640928 0.640928
1.091924 0.491063 0.491063
1.148672 0.333552 0.333552
1.189370 -0.149649 -0.149649
1.218845 -0.339658 -0.339658
1.240342 -0.420756 -0.420756
1.256491 -0.469988 -0.469988
1.269325 -0.501287 -0.501287
1.272380 -0.517022 -0.517022
1.273651 -0.523682 -0.523682
1.273715 -0.524596 -0.524596
1.273773 -0.524846 -0.524846
0.437360 1.049290 0.825549
0.432322 1.049812 0.814780
0.410689 1.052095 0.753676
0.501434 0.987793 0.501434
0.957219 0.957219 0.431399
1.062649 0.761469 0.333057
1.126605 0.610401 -0.108767
1.170627 0.464137 -0.331645
1.202531 0.289265 -0.419861
1.226100 -0.228671 -0.474256
1.244328 -0.363183 -0.509885
1.258968 -0.427960 -0.532687
1.264369 -0.462525 -0.542750
1.267097 -0.480902 -0.545214
1.268425 -0.489548 -0.542739
