remotion/public/assets/luts/VM Thermal Sunday.cube
LUT_3D_SIZE 16
1.000090 1.000000 1.000091
0.880931 0.965154 0.962971
0.761807 0.929643 0.924870
0.642627 0.893017 0.886127
0.522872 0.855551 0.846239
0.401978 0.816925 0.805333
0.278886 0.776787 0.762901
0.152515 0.734916 0.718675
0.019464 0.689985 0.671364
0.000000 0.639916 0.618490
0.000000 0.575810 0.551076
0.000000 0.462923 0.432539
0.000000 0.463661 0.433119
0.000000 0.464042 0.433543
0.000000 0.464255 0.433746
0.000000 0.464319 0.433816
1.026076 0.960719 1.045683
0.986940 0.989693 1.073040
0.807528 0.939128 0.974092
0.671721 0.898386 0.919761
0.545221 0.858821 0.874242
0.421215 0.818788 0.831471
0.296184 0.778406 0.787252
0.168521 0.736343 0.741521
0.035192 0.691830 0.693412
0.000000 0.642305 0.641512
0.000000 0.580339 0.581564
0.000000 0.461398 0.439473
0.000000 0.462340 0.438849
0.000000 0.462957 0.438205
0.000000 0.463367 0.437712
0.000000 0.463540 0.437113
1.052107 0.920814 1.091419
1.042146 0.930231 1.105587
0.973441 0.978723 1.148079
0.778220 0.923620 1.031018
0.623570 0.877962 0.956976
0.484552 0.834841 0.898954
0.351811 0.791986 0.848114
0.221218 0.748872 0.801179
0.088615 0.703662 0.756161
0.000000 0.655064 0.713291
0.000000 0.597476 0.679134
0.000000 0.511624 0.635385
0.000000 0.458698 0.454040
0.000000 0.459713 0.452123
0.000000 0.460352 0.450459
0.000000 0.460867 0.448494
1.078180 0.880080 1.137585
1.073180 0.885195 1.146961
1.036234 0.913838 1.174241
0.959182 0.967143 1.225761
0.762795 0.911142 1.105410
0.598528 0.862606 1.021644
0.450928 0.816903 0.956064
0.312139 0.772161 0.901436
0.176902 0.726879 0.855202
0.041254 0.679443 0.818856
0.000000 0.624956 0.811489
0.000000 0.563011 0.810821
0.000000 0.506510 0.621114
0.000000 0.457766 0.457766
0.000000 0.458147 0.458114
0.000000 0.458305 0.458196
1.104560 0.838309 1.184347
1.100653 0.841666 1.191348
1.078113 0.859863 1.217722
1.021925 0.901528 1.251101
0.943912 0.955130 1.307945
0.752182 0.899067 1.191117
0.585194 0.849472 1.105643
0.434298 0.802324 1.039936
0.292952 0.756112 0.989953
0.156195 0.708425 0.959158
0.012205 0.649512 1.001364
0.000000 0.605665 0.955379
0.000000 0.572239 0.841781
0.000000 0.535741 0.718732
0.000000 0.474997 0.515737
0.000000 0.457699 0.457698
1.131371 0.794935 1.232154
1.127903 0.797765 1.237820
1.110425 0.811017 1.261217
1.067261 0.842841 1.296955
1.003295 0.889754 1.336909
0.927240 0.941391 1.397456
0.742415 0.886290 1.288669
0.577175 0.836079 1.209261
0.426030 0.787624 1.154322
0.282929 0.737497 1.132463
0.135783 0.675940 1.197330
0.026275 0.645608 1.092280
0.000000 0.617081 0.994202
0.000000 0.590420 0.903391
0.000000 0.566545 0.822423
0.000000 0.545808 0.752477
1.159203 0.749188 1.281959
1.155696 0.751654 1.287025
1.139697 0.762954 1.308700
1.103142 0.787924 1.348716
1.046059 0.829586 1.388266
0.980513 0.876891 1.436743
0.907246 0.925543 1.501283
0.730349 0.870382 1.407561
0.567343 0.818134 1.350785
0.403446 0.753522 1.401092
0.275161 0.714076 1.330142
0.165034 0.684187 1.225599
0.066102 0.656869 1.130876
0.000000 0.632296 1.046217
0.000000 0.611138 0.973728
0.000000 0.593362 0.913222
1.188733 0.699585 1.335276
1.184857 0.702036 1.340295
1.168009 0.712592 1.362076
1.131995 0.734496 1.405734
1.076737 0.769387 1.463182
1.014287 0.814688 1.509044
0.949382 0.859353 1.569841
0.879064 0.902558 1.647505
0.698217 0.835890 1.639522
0.544284 0.786011 1.582060
0.417201 0.752365 1.463915
0.302930 0.721741 1.356507
0.201541 0.694341 1.260581
0.112460 0.669937 1.175519
0.036738 0.648874 1.102697
0.000000 0.630937 1.041438
1.222503 0.641901 1.396534
1.217506 0.644650 1.402326
1.196333 0.656150 1.427618
1.153159 0.677292 1.484509
1.079892 0.703801 1.599145
0.996577 0.736306 1.728448
0.945100 0.781529 1.766535
0.893559 0.825242 1.810632
0.837802 0.869005 1.859241
0.693289 0.826692 1.721547
0.560142 0.790711 1.597574
0.440253 0.758741 1.485639
0.333977 0.730442 1.386099
0.240836 0.705157 1.298020
0.161035 0.683396 1.222087
0.093543 0.664651 1.157313
1.270879 0.557450 1.484587
1.259823 0.562610 1.496290
1.211338 0.578600 1.561495
1.146396 0.604398 1.648404
1.103631 0.645413 1.671325
1.053383 0.691817 1.700199
0.996973 0.740007 1.733439
0.944353 0.784851 1.771775
0.892579 0.827356 1.814187
0.838018 0.869254 1.860276
0.701734 0.829454 1.729893
0.576320 0.795452 1.612950
0.464552 0.765525 1.508754
0.365780 0.739156 1.416186
0.280749 0.716099 1.335906
0.207870 0.696258 1.266716
1.324729 0.462620 1.583165
1.325995 0.462489 1.582925
1.330893 0.462180 1.581638
1.256021 0.522875 1.608976
1.172846 0.592000 1.643458
1.111452 0.646075 1.673277
1.051093 0.697847 1.705145
0.993644 0.745555 1.739421
0.941501 0.788927 1.777170
0.890873 0.829761 1.817822
0.838416 0.869536 1.860599
0.709890 0.832000 1.737930
0.592848 0.800105 1.628458
0.488339 0.772004 1.531224
0.397406 0.747633 1.446028
0.318751 0.726433 1.371931
1.325367 0.462852 1.584093
1.326402 0.462776 1.583702
1.330371 0.462452 1.582696
1.338087 0.461869 1.580531
1.311435 0.488527 1.590825
1.176075 0.595705 1.645442
1.106190 0.654735 1.679147
1.042977 0.706860 1.711810
0.987930 0.752305 1.746157
0.937527 0.793526 1.782277
0.888702 0.832129 1.821009
0.838507 0.869683 1.861192
0.718412 0.834648 1.746015
0.608725 0.804520 1.643548
0.511978 0.778428 1.553384
0.427474 0.755772 1.474102
1.325946 0.462985 1.584399
1.326592 0.462905 1.584300
1.330006 0.462701 1.583459
1.336315 0.462239 1.581825
1.345797 0.461420 1.578547
1.271455 0.523265 1.607679
1.162186 0.610730 1.654225
1.092605 0.668126 1.687470
1.032233 0.717161 1.719673
0.980307 0.759458 1.752924
0.932628 0.798150 1.787318
0.886110 0.834547 1.823921
0.838663 0.869867 1.861192
0.725909 0.836810 1.753542
0.624148 0.808831 1.658090
0.533985 0.784393 1.573923
1.326049 0.463142 1.584714
1.326980 0.463067 1.584658
1.329514 0.462917 1.583888
1.334988 0.462470 1.582664
1.342997 0.461803 1.580050
1.353593 0.460733 1.576172
1.226147 0.560929 1.627158
1.140556 0.630356 1.665357
1.075294 0.683181 1.697317
1.020347 0.727551 1.727876
0.972169 0.766647 1.759395
0.927227 0.802766 1.792038
0.883471 0.836820 1.826339
0.838741 0.869985 1.861442
0.733820 0.839239 1.761033
0.638712 0.812788 1.671680
1.326335 0.463216 1.584687
1.326914 0.463167 1.584839
1.329180 0.462937 1.584431
1.333683 0.462703 1.583124
1.340607 0.462165 1.581193
1.349562 0.461221 1.577863
1.360288 0.459951 1.572635
1.186677 0.593510 1.644303
1.116204 0.650878 1.677553
1.057591 0.697827 1.707201
1.008094 0.737818 1.735929
0.963707 0.773876 1.765637
0.921780 0.807185 1.796907
0.880606 0.839051 1.829063
0.838801 0.870019 1.861615
0.740389 0.841161 1.767392
1.326385 0.463108 1.584771
1.326965 0.463192 1.584961
1.328859 0.463003 1.584473
1.332681 0.462742 1.583559
1.338537 0.462315 1.582110
1.346530 0.461564 1.579158
1.355972 0.460562 1.575379
1.235210 0.555156 1.623669
1.152923 0.621102 1.660262
1.092427 0.669919 1.689232
1.040980 0.711371 1.716267
0.996348 0.747588 1.743583
0.955592 0.780442 1.771640
0.916524 0.811509 1.800871
0.877999 0.841055 1.831172
0.838838 0.870040 1.861645
0.887290 0.958753 0.881013
0.879888 0.974517 0.939920
0.884209 0.913612 0.749999
0.634188 0.907409 0.785213
0.514655 0.864518 0.794808
0.397048 0.822755 0.773084
0.275992 0.780923 0.740210
0.150957 0.738049 0.701147
0.019032 0.692512 0.656715
0.000000 0.642343 0.603673
0.000000 0.579132 0.530738
0.000000 0.464424 0.425778
0.000000 0.465036 0.426368
0.000000 0.465427 0.426767
0.000000 0.465629 0.426940
0.000000 0.465701 0.427010
0.991335 0.982965 1.003255
0.933061 0.933063 0.933062
0.754011 0.897538 0.893394
0.633668 0.869959 0.863293
0.521308 0.836637 0.827822
0.406710 0.799883 0.788928
0.288487 0.761007 0.747822
0.166079 0.720069 0.704666
0.036989 0.676119 0.658194
0.000000 0.627131 0.606697
0.000000 0.565962 0.542416
0.000000 0.448287 0.418851
0.000000 0.448580 0.419142
0.000000 0.448605 0.419169
0.000000 0.448392 0.418961
0.000000 0.433314 0.404766
1.044634 0.930524 1.058134
1.013772 0.907173 1.045721
0.951470 0.955653 1.090460
0.759094 0.901427 0.985313
0.609960 0.856781 0.917991
0.476520 0.814878 0.864241
0.348490 0.772995 0.816075
0.221670 0.730479 0.770572
0.092367 0.686238 0.726215
0.000000 0.638154 0.682372
0.000000 0.582009 0.641157
0.000000 0.492866 0.603487
0.000000 0.444333 0.436783
0.000000 0.444848 0.434916
0.000000 0.445136 0.432565
0.000000 0.430706 0.416241
1.075051 0.886061 1.116791
1.041559 0.868430 1.093469
1.011080 0.893541 1.121312
0.937727 0.944786 1.167192
0.748860 0.889960 1.058220
0.589875 0.842487 0.980642
0.446528 0.797589 0.918800
0.311096 0.753411 0.866229
0.178749 0.708816 0.820398
0.045585 0.661975 0.782726
0.000000 0.609164 0.766027
0.000000 0.544141 0.781994
0.000000 0.484292 0.581958
0.000000 0.442439 0.442439
0.000000 0.442398 0.442341
0.000000 0.427892 0.427263
1.102932 0.842658 1.169171
1.065972 0.826913 1.137611
1.047387 0.842474 1.162251
0.995596 0.880999 1.192841
0.921691 0.931654 1.244268
0.738086 0.877515 1.138411
0.576562 0.828900 1.058898
0.429717 0.782769 0.996579
0.291538 0.736979 0.947422
0.157595 0.690294 0.914498
0.020527 0.636711 0.926820
0.000000 0.585588 0.923067
0.000000 0.551784 0.809017
0.000000 0.514184 0.683239
0.000000 0.441425 0.441425
0.000000 0.427242 0.427242
1.130625 0.798524 1.219826
1.090613 0.783801 1.182490
1.076048 0.795555 1.203799
1.037274 0.824188 1.237280
0.976874 0.868601 1.272865
0.904515 0.917468 1.327922
0.727174 0.863876 1.228498
0.567255 0.814969 1.154029
0.420380 0.767633 1.100411
0.281215 0.719202 1.073214
0.132843 0.654333 1.159788
0.025025 0.624073 1.055597
0.000000 0.595363 0.957854
0.000000 0.568498 0.867223
0.000000 0.544415 0.786463
0.000000 0.507083 0.694648
1.158918 0.752488 1.270859
1.116258 0.738622 1.229367
1.102496 0.748506 1.248713
1.070099 0.771153 1.284618
1.016902 0.810039 1.320795
0.954602 0.854976 1.364238
0.884705 0.901325 1.422909
0.714369 0.847897 1.335637
0.557121 0.797457 1.278735
0.406947 0.743398 1.273738
0.267368 0.690494 1.286879
0.159439 0.660870 1.183729
0.062273 0.633598 1.089950
0.000000 0.608926 1.006071
0.000000 0.587770 0.934380
0.000000 0.552628 0.848342
1.188956 0.702873 1.324427
1.143294 0.689886 1.279256
1.128602 0.699357 1.297939
1.097001 0.719239 1.336143
1.046878 0.751873 1.386595
0.987816 0.794888 1.427023
0.925844 0.837898 1.479620
0.859151 0.880170 1.545810
0.691892 0.822525 1.499751
0.527530 0.759651 1.529753
0.403974 0.726525 1.414190
0.292528 0.696422 1.308961
0.193342 0.669149 1.214373
0.106436 0.644856 1.130660
0.032777 0.623775 1.058906
0.000000 0.588121 0.969401
1.223338 0.645718 1.384084
1.173409 0.634582 1.334859
1.155534 0.644728 1.356316
1.119011 0.664176 1.402418
1.061001 0.691827 1.480395
0.991473 0.727161 1.567999
0.910448 0.756096 1.706673
0.861797 0.797422 1.748559
0.808462 0.838550 1.794310
0.669763 0.797556 1.661320
0.540920 0.762462 1.540881
0.424466 0.731127 1.431695
0.321054 0.703155 1.334059
0.230356 0.678209 1.247819
0.153015 0.656507 1.173195
0.085382 0.619803 1.078302
1.273620 0.564537 1.462936
1.213484 0.560437 1.409100
1.181741 0.575041 1.445804
1.095980 0.589535 1.593618
1.058199 0.626548 1.614248
1.012008 0.669551 1.640754
0.959019 0.714926 1.672379
0.908852 0.757311 1.708369
0.859349 0.797555 1.748463
0.807035 0.837218 1.791396
0.676065 0.798607 1.665891
0.554803 0.765252 1.551912
0.446335 0.735895 1.450112
0.350609 0.709908 1.359957
0.268198 0.687221 1.281353
0.192586 0.649467 1.180849
1.323526 0.462704 1.583107
1.275952 0.445567 1.524637
1.280657 0.445133 1.523475
1.192402 0.515478 1.555379
1.123025 0.574131 1.584391
1.066619 0.624150 1.612241
1.009712 0.672919 1.641887
0.954930 0.718372 1.674384
0.904922 0.759229 1.709831
0.856256 0.798137 1.748040
0.805620 0.835716 1.788108
0.682094 0.799376 1.669788
0.569087 0.767997 1.563403
0.467993 0.740432 1.468255
0.380107 0.716501 1.385421
0.296401 0.677738 1.279406
1.324447 0.462904 1.583851
1.274244 0.444907 1.522569
1.278041 0.444604 1.521632
1.285189 0.443970 1.519275
1.241213 0.483103 1.535786
1.127373 0.574093 1.582220
1.061366 0.629929 1.613584
1.000896 0.679359 1.644417
0.947745 0.722642 1.676804
0.899397 0.761754 1.710932
0.852370 0.798270 1.747216
0.804018 0.834031 1.784496
0.688349 0.799819 1.673533
0.582673 0.770495 1.573990
0.489468 0.744889 1.486121
0.398129 0.705102 1.375163
1.325138 0.463040 1.584425
1.272083 0.444142 1.520205
1.275092 0.443919 1.519308
1.281056 0.443428 1.517649
1.290282 0.442592 1.514602
1.218044 0.502353 1.542021
1.114083 0.585599 1.585850
1.047231 0.640451 1.617758
0.989184 0.687204 1.648132
0.938916 0.727568 1.678894
0.893027 0.764152 1.711721
0.848019 0.798801 1.745584
0.802243 0.831988 1.780379
0.693721 0.800088 1.676085
0.596022 0.772617 1.583878
0.497816 0.731981 1.468235
1.325539 0.463180 1.584898
1.269559 0.443390 1.517210
1.272329 0.443161 1.516591
1.277413 0.442762 1.515203
1.284947 0.442142 1.512594
1.294930 0.441053 1.508595
1.174736 0.535427 1.556105
1.091673 0.602301 1.592779
1.028784 0.652818 1.622913
0.975809 0.695350 1.651582
0.929226 0.732485 1.681174
0.885766 0.766628 1.712027
0.843449 0.798834 1.743765
0.800317 0.830031 1.776486
0.699458 0.800206 1.678976
0.595857 0.758583 1.559982
1.325846 0.463134 1.584821
1.266987 0.442390 1.514076
1.269178 0.442236 1.513531
1.273484 0.441909 1.512413
1.279931 0.441383 1.510275
1.288519 0.440515 1.506972
1.298604 0.439198 1.501989
1.134315 0.565280 1.569166
1.065979 0.620301 1.600396
1.009523 0.665227 1.628025
0.961727 0.703317 1.655121
0.918895 0.737528 1.682996
0.878308 0.769076 1.712013
0.838612 0.798908 1.741662
0.798287 0.828047 1.771763
0.691027 0.785042 1.649325
1.325905 0.463147 1.584883
1.237967 0.432297 1.479558
1.239713 0.432110 1.478913
1.243370 0.431894 1.478197
1.249040 0.431479 1.476367
1.256422 0.430886 1.474069
1.265323 0.429940 1.470354
1.155313 0.516257 1.514601
1.077160 0.578830 1.548738
1.020325 0.624738 1.576165
0.972165 0.663605 1.601547
0.930050 0.697474 1.627213
0.892088 0.728325 1.653414
0.855558 0.757358 1.680607
0.819543 0.785050 1.708998
0.782869 0.812008 1.737418
0.775215 0.917246 0.762268
0.773977 0.923957 0.777386
0.759487 0.948092 0.879024
0.901037 0.807728 1.053574
0.773128 0.822140 0.503278
0.432469 0.843685 0.499938
0.267592 0.805849 0.553885
0.137580 0.758940 0.566998
0.007767 0.709896 0.551411
0.000000 0.657434 0.513199
0.000000 0.593657 0.440446
0.000000 0.489262 0.271998
0.000000 0.469704 0.403554
0.000000 0.468501 0.411735
0.000000 0.467693 0.417100
0.000000 0.466831 0.421206
0.823606 0.926369 0.809132
0.754989 0.873765 0.744169
0.758137 0.918048 0.859368
0.974565 0.767579 0.965970
0.653752 0.835374 0.507517
0.409390 0.826494 0.561883
0.274658 0.784054 0.597148
0.153525 0.738226 0.595177
0.028015 0.690891 0.571100
0.000000 0.640151 0.529501
0.000000 0.579278 0.461165
0.000000 0.470931 0.281281
0.000000 0.452836 0.398475
0.000000 0.451779 0.403806
0.000000 0.450678 0.407759
0.000000 0.434879 0.397103
0.983388 0.967353 1.006785
0.958408 0.945263 0.977210
0.866457 0.866458 0.866458
0.665799 0.822493 0.818156
0.507563 0.792061 0.784210
0.380087 0.763356 0.752690
0.261093 0.731038 0.717800
0.142197 0.694157 0.678668
0.017308 0.652826 0.635085
0.000000 0.605380 0.585079
0.000000 0.543638 0.520218
0.000000 0.437713 0.408938
0.000000 0.438022 0.409178
0.000000 0.437998 0.409219
0.000000 0.437881 0.409131
0.000000 0.402272 0.375858
1.052547 0.911019 1.045808
1.022379 0.891555 1.021316
0.974175 0.844379 1.012950
0.903372 0.908708 1.076191
0.696822 0.853089 0.977082
0.534094 0.807607 0.908074
0.391846 0.764937 0.852296
0.259131 0.722522 0.803270
0.129373 0.678971 0.758824
0.000000 0.632481 0.719768
0.000000 0.578704 0.696845
0.000000 0.508787 0.687913
0.000000 0.432170 0.432097
0.000000 0.432543 0.431485
0.000000 0.432709 0.430146
0.000000 0.398092 0.393709
1.091643 0.861415 1.112301
1.056459 0.843783 1.082588
1.027624 0.812283 1.092147
0.980432 0.852146 1.133849
0.901133 0.909839 1.187881
0.707077 0.853483 1.082038
0.542334 0.804184 1.004313
0.395037 0.758041 0.943318
0.257396 0.712500 0.894618
0.124338 0.665998 0.861017
0.000000 0.612975 0.868224
0.000000 0.560788 0.863979
0.000000 0.524611 0.742090
0.000000 0.476781 0.582156
0.000000 0.431402 0.431401
0.000000 0.396778 0.396778
1.124452 0.814038 1.172225
1.085510 0.797825 1.137402
1.058670 0.772345 1.144562
1.024850 0.799237 1.184279
0.961490 0.846694 1.220845
0.886607 0.898489 1.275369
0.704621 0.843619 1.176727
0.543103 0.794149 1.103434
0.395999 0.746572 1.049956
0.257530 0.698608 1.021248
0.108809 0.633149 1.112289
0.000977 0.602817 1.008209
0.000000 0.574030 0.910172
0.000000 0.546857 0.818403
0.000000 0.522237 0.735960
0.000000 0.460485 0.610093
1.155710 0.766348 1.228517
1.113715 0.751111 1.189363
1.085009 0.728581 1.191862
1.055981 0.749616 1.228813
1.002620 0.788603 1.269215
0.938550 0.835402 1.310843
0.867837 0.883134 1.367520
0.695742 0.829364 1.281628
0.538417 0.779162 1.224456
0.390266 0.726913 1.210378
0.247967 0.670738 1.244178
0.140745 0.641260 1.141744
0.044342 0.614256 1.048780
0.000000 0.589979 0.965766
0.000000 0.569199 0.895394
0.000000 0.508292 0.771383
1.187834 0.716504 1.283349
1.142598 0.702145 1.240355
1.111604 0.681044 1.240571
1.082707 0.700059 1.277388
1.033582 0.731922 1.329169
0.973262 0.776132 1.370052
0.910676 0.820327 1.419815
0.844228 0.863703 1.482385
0.678207 0.807652 1.429086
0.509327 0.740332 1.488451
0.386554 0.707523 1.373927
0.275898 0.677754 1.269667
0.177873 0.650820 1.176038
0.092165 0.626899 1.093510
0.019968 0.606398 1.023438
0.000000 0.542922 0.889435
1.223994 0.660970 1.339809
1.174597 0.648225 1.293262
1.141319 0.627435 1.295218
1.107360 0.646769 1.336641
1.053161 0.675233 1.405664
0.986281 0.712562 1.482966
0.923752 0.753619 1.544706
0.855052 0.786320 1.651218
0.789562 0.818988 1.752654
0.651815 0.778419 1.620705
0.524008 0.743780 1.501285
0.408627 0.712827 1.393396
0.306382 0.685180 1.296880
0.217064 0.660735 1.211914
0.141099 0.639658 1.139065
0.071465 0.573271 0.993645
1.274719 0.588956 1.401271
1.217372 0.580577 1.352209
1.179521 0.557704 1.365833
1.123596 0.581932 1.435532
1.037742 0.606617 1.573219
0.992436 0.649907 1.600039
0.939487 0.695740 1.631505
0.889428 0.738609 1.667472
0.840423 0.778817 1.707875
0.788857 0.818300 1.750960
0.658978 0.780018 1.626434
0.538872 0.747257 1.514087
0.431628 0.718364 1.413748
0.337192 0.692900 1.324684
0.256270 0.670605 1.247849
0.173068 0.601347 1.090899
1.349617 0.470065 1.512450
1.304751 0.453643 1.447510
1.246886 0.435364 1.490188
1.191786 0.481773 1.509877
1.106171 0.552721 1.544128
1.047947 0.604567 1.572296
0.991118 0.653955 1.602691
0.935884 0.700054 1.634954
0.885931 0.741231 1.670136
0.837810 0.779817 1.708737
0.787862 0.817236 1.748826
0.665661 0.781312 1.631678
0.553741 0.750585 1.526681
0.454079 0.723648 1.433333
0.367692 0.700213 1.351883
0.270923 0.628002 1.183739
1.320132 0.463063 1.584476
1.269916 0.445064 1.523297
1.245965 0.435059 1.488905
1.253555 0.434456 1.486851
1.264584 0.433469 1.483105
1.112026 0.553255 1.543134
1.043497 0.611275 1.575255
0.982555 0.661588 1.606728
0.929160 0.705104 1.638483
0.881228 0.744259 1.672779
0.834558 0.780739 1.708959
0.786970 0.816247 1.746566
0.672570 0.782728 1.636887
0.568315 0.753746 1.539003
0.476348 0.728647 1.452649
0.366614 0.653750 1.273710
1.321404 0.463106 1.584719
1.268586 0.444288 1.520692
1.244764 0.434603 1.487358
1.250991 0.434217 1.485879
1.260304 0.433357 1.482977
1.237306 0.457442 1.491122
1.098180 0.566563 1.548710
1.029803 0.622981 1.581121
0.971125 0.670443 1.611683
0.920935 0.710952 1.642361
0.875394 0.747672 1.675083
0.831046 0.781881 1.709134
0.785751 0.815017 1.744366
0.678725 0.783620 1.641280
0.582236 0.756652 1.550290
0.459955 0.678963 1.361378
1.322485 0.463203 1.585230
1.266651 0.443355 1.517527
1.243221 0.434115 1.485615
1.248485 0.433815 1.484513
1.256169 0.433102 1.482005
1.266429 0.432110 1.478370
1.165087 0.513086 1.518186
1.075267 0.585115 1.557231
1.011530 0.636558 1.588060
0.958111 0.679401 1.616836
0.911904 0.716619 1.646365
0.868957 0.750634 1.676971
0.827191 0.782759 1.708884
0.784655 0.813853 1.741349
0.685090 0.784417 1.645618
0.551875 0.703900 1.446983
1.323216 0.463224 1.585272
1.264559 0.442518 1.514500
1.241610 0.433549 1.483587
1.245974 0.433223 1.482627
1.252570 0.432727 1.480876
1.261158 0.431886 1.477524
1.271432 0.430717 1.472813
1.119727 0.547853 1.534741
1.049371 0.604586 1.566744
0.992391 0.649964 1.594601
0.944783 0.688290 1.621996
0.902168 0.722325 1.649498
0.862210 0.753682 1.678478
0.822951 0.783589 1.708214
0.783146 0.812465 1.738319
0.640854 0.728712 1.530835
1.323812 0.463223 1.585274
1.235976 0.432364 1.479569
1.149396 0.401371 1.373555
1.152755 0.401133 1.372730
1.157969 0.400720 1.371145
1.165007 0.400154 1.369106
1.173640 0.399265 1.365670
1.083379 0.470720 1.401216
1.004450 0.533730 1.435835
0.950292 0.577685 1.462110
0.904401 0.614528 1.485902
0.864843 0.646535 1.509737
0.828975 0.675476 1.534489
0.794732 0.702654 1.560137
0.761076 0.728537 1.586504
0.726873 0.753948 1.613501
0.663217 0.875442 0.643930
0.661734 0.879798 0.651066
0.662700 0.892802 0.706279
0.638543 0.920572 0.817459
0.591133 0.844562 0.900716
1.048927 0.634657 0.826574
0.669039 0.722651 0.257351
0.278641 0.759755 0.200048
0.048773 0.734044 0.246113
0.000000 0.685449 0.264968
0.000000 0.620853 0.223361
0.000000 0.519256 0.047701
0.000000 0.503882 0.181683
0.000000 0.482794 0.338458
0.000000 0.478838 0.360740
0.000000 0.475817 0.376669
0.693067 0.881185 0.668993
0.617363 0.831820 0.597812
0.640295 0.861239 0.673398
0.638148 0.899165 0.803651
0.606802 0.819083 0.907834
1.014068 0.637502 0.728740
0.596696 0.728915 0.259019
0.254505 0.749552 0.242449
0.052089 0.718002 0.287080
0.000000 0.668577 0.299778
0.000000 0.606381 0.259272
0.000000 0.500812 0.065048
0.000000 0.484607 0.196913
0.000000 0.464989 0.336420
0.000000 0.460993 0.355796
0.000000 0.442969 0.356996
0.787097 0.907748 0.807847
0.765197 0.883536 0.772631
0.678968 0.801706 0.667790
0.665061 0.845817 0.779780
0.783791 0.706239 0.978887
0.747762 0.702535 0.389396
0.345292 0.755742 0.316299
0.147360 0.730674 0.379404
0.007026 0.686302 0.406976
0.000000 0.634968 0.395116
0.000000 0.572425 0.334991
0.000000 0.475838 0.168024
0.000000 0.450012 0.349142
0.000000 0.447107 0.364333
0.000000 0.444862 0.374645
0.000000 0.407352 0.351336
0.976476 0.952692 1.010481
0.952036 0.931255 0.982046
0.909122 0.893264 0.932106
0.799773 0.799774 0.799774
0.595404 0.752448 0.748100
0.409405 0.714361 0.705810
0.256759 0.682297 0.670432
0.120018 0.649875 0.635067
0.000000 0.612858 0.595372
0.000000 0.567769 0.547390
0.000000 0.499296 0.475219
0.000000 0.425653 0.397719
0.000000 0.426571 0.398616
0.000000 0.427011 0.398962
0.000000 0.427032 0.398891
0.000000 0.371319 0.346898
1.055505 0.895742 1.033543
1.023577 0.875940 1.005393
0.999562 0.848260 0.990690
0.916914 0.777474 0.958571
0.844486 0.850289 1.033267
0.632861 0.795329 0.947831
0.460804 0.749933 0.885732
0.310063 0.707522 0.835323
0.170542 0.664977 0.793544
0.034871 0.620108 0.762374
0.000000 0.564899 0.777898
0.000000 0.513370 0.730727
0.000000 0.452343 0.525649
0.000000 0.421124 0.421124
0.000000 0.421211 0.421190
0.000000 0.366488 0.366414
1.102202 0.843315 1.098259
1.065711 0.824834 1.066016
1.043636 0.800713 1.059829
0.995086 0.750066 1.068439
0.936583 0.802237 1.124570
0.855987 0.866087 1.188123
0.659223 0.809538 1.093139
0.490881 0.759900 1.023883
0.340369 0.712848 0.973573
0.200275 0.665292 0.946721
0.051574 0.601293 1.030704
0.000000 0.570853 0.925619
0.000000 0.541168 0.824282
0.000000 0.511981 0.726119
0.000000 0.483109 0.629675
0.000000 0.387970 0.439556
1.141543 0.792807 1.160267
1.101339 0.775429 1.124091
1.076593 0.753120 1.117573
1.042632 0.713018 1.141387
0.993281 0.751838 1.198108
0.921967 0.806967 1.242870
0.847086 0.860949 1.303080
0.665216 0.805097 1.216336
0.502825 0.754123 1.158786
0.352764 0.702014 1.141571
0.208344 0.644798 1.181177
0.101075 0.615299 1.078730
0.004984 0.588403 0.985959
0.000000 0.564292 0.903880
0.000000 0.543754 0.834486
0.000000 0.458876 0.677348
1.178503 0.741985 1.218422
1.134550 0.725458 1.178467
1.107403 0.704523 1.170716
1.077182 0.669010 1.199498
1.029814 0.701246 1.256992
0.963847 0.749195 1.308023
0.896845 0.798676 1.357372
0.827443 0.845601 1.419065
