remotion/public/assets/luts/VM Thermal Slime.cube
LUT_3D_SIZE 16
1.000091 1.000000 1.000000
0.940364 0.994898 0.960900
0.758408 0.975184 0.839912
0.576419 0.949880 0.716777
0.391156 0.918849 0.589521
0.196784 0.880914 0.454066
0.000000 0.833546 0.301898
0.000000 0.764905 0.105042
0.000000 0.627562 0.000000
0.000000 0.634078 0.000000
0.000000 0.638979 0.000000
0.000000 0.642367 0.000000
0.000000 0.644615 0.000000
0.000000 0.645751 0.000000
0.000000 0.646059 0.000000
0.000000 0.646063 0.000000
1.025951 0.985168 0.972405
0.970405 1.010660 0.956347
0.787905 0.986873 0.849255
0.597469 0.958748 0.727459
0.407254 0.926480 0.601144
0.210257 0.888252 0.467542
0.000000 0.841438 0.319328
0.000000 0.776355 0.135279
0.000000 0.627284 0.000000
0.000000 0.633804 0.000000
0.000000 0.638689 0.000000
0.000000 0.642224 0.000000
0.000000 0.644452 0.000000
0.000000 0.645644 0.000000
0.000000 0.646040 0.000000
0.000000 0.646016 0.000000
1.106665 0.934600 0.880810
1.065377 0.958062 0.849082
0.871144 1.045347 0.810180
0.660353 1.000071 0.750045
0.460450 0.959835 0.638193
0.256087 0.918931 0.514983
0.035608 0.873464 0.382100
0.000000 0.818842 0.240619
0.000000 0.713779 0.000000
0.000000 0.632550 0.000000
0.000000 0.637732 0.000000
0.000000 0.641454 0.000000
0.000000 0.643814 0.000000
0.000000 0.645133 0.000000
0.000000 0.645571 0.000000
0.000000 0.645649 0.000000
1.192044 0.874026 0.774498
1.168016 0.890183 0.758170
1.048091 0.959153 0.675914
0.749510 1.085697 0.632159
0.506361 1.033697 0.636705
0.296355 0.982804 0.561080
0.060823 0.936909 0.464065
0.000000 0.899895 0.396979
0.000000 0.817460 0.186447
0.000000 0.628865 0.000000
0.000000 0.635075 0.000000
0.000000 0.639433 0.000000
0.000000 0.642225 0.000000
0.000000 0.643886 0.000000
0.000000 0.644583 0.000000
0.000000 0.644817 0.000000
1.292928 0.790927 0.634110
1.279848 0.804027 0.634221
1.219827 0.855223 0.593876
1.018520 0.968752 0.425949
0.549021 1.147976 0.339940
0.189301 1.113410 0.436050
0.000000 1.062801 0.458707
0.000000 0.982460 0.416276
0.000000 0.905658 0.297148
0.000000 0.820467 0.106652
0.000000 0.628829 0.000000
0.000000 0.634943 0.000000
0.000000 0.638957 0.000000
0.000000 0.641349 0.000000
0.000000 0.642557 0.000000
0.000000 0.643129 0.000000
1.492687 0.593054 0.311733
1.460636 0.606411 0.264000
1.499458 0.674327 0.480589
1.382199 0.784883 0.329057
0.958490 0.990771 0.030555
0.365350 1.204722 0.072389
0.060992 1.154981 0.286314
0.000000 1.073434 0.363151
0.000000 0.994706 0.333510
0.000000 0.919116 0.236781
0.000000 0.839404 0.082278
0.000000 0.722648 0.000000
0.000000 0.632391 0.000000
0.000000 0.636463 0.000000
0.000000 0.638842 0.000000
0.000000 0.640377 0.000000
1.506841 0.598749 0.314708
1.486362 0.607319 0.283584
1.385282 0.647387 0.152215
1.309489 0.734138 0.193184
1.205596 0.855078 0.164931
0.824753 1.038004 0.001431
0.366416 1.207989 0.072585
0.092005 1.158310 0.233286
0.000000 1.083126 0.297472
0.000000 1.008523 0.278565
0.000000 0.937524 0.204716
0.000000 0.866188 0.088724
0.000000 0.785756 0.000000
0.000000 0.627831 0.000000
0.000000 0.632398 0.000000
0.000000 0.635414 0.000000
1.518827 0.603539 0.317221
1.504520 0.609369 0.295504
1.436980 0.636290 0.203309
1.271285 0.698390 0.026502
1.129859 0.796875 0.026167
1.061632 0.911787 0.076428
0.733728 1.070281 0.000000
0.367209 1.210886 0.072756
0.119122 1.161733 0.197800
0.000000 1.092580 0.252693
0.000000 1.023351 0.243349
0.000000 0.957965 0.190655
0.000000 0.895546 0.108698
0.000000 0.833858 0.002326
0.000000 0.765653 0.000000
0.000000 0.627409 0.000000
1.528727 0.607403 0.319274
1.518367 0.611661 0.303400
1.470199 0.630883 0.235789
1.357119 0.673985 0.102564
1.137021 0.751835 0.000000
1.014728 0.849212 0.000000
0.951650 0.955689 0.031941
0.670284 1.093413 0.000000
0.367939 1.213119 0.072893
0.142463 1.165296 0.173654
0.005934 1.101980 0.222177
0.000000 1.038350 0.221511
0.000000 0.978951 0.187424
0.000000 0.924423 0.132591
0.000000 0.873857 0.065017
0.000000 0.823669 0.000000
1.536302 0.610422 0.320850
1.528258 0.613704 0.308851
1.492709 0.627903 0.257528
1.411165 0.659456 0.155107
1.256884 0.715598 0.002627
0.997126 0.803093 0.000000
0.945191 0.890196 0.000000
0.869632 0.989823 0.011110
0.624581 1.110651 0.003549
0.368444 1.214841 0.073004
0.162421 1.169033 0.156751
0.030327 1.111012 0.201501
0.000000 1.053132 0.208599
0.000000 0.999572 0.189945
0.000000 0.951091 0.155766
0.000000 0.906242 0.109155
1.542012 0.612778 0.322067
1.536081 0.615249 0.312728
1.508659 0.626303 0.272683
1.446954 0.650124 0.192174
1.333986 0.692107 0.068850
1.145984 0.757865 0.000000
0.861033 0.849132 0.000000
0.898040 0.923018 0.000000
0.808313 1.016392 0.002461
0.590763 1.124005 0.009460
0.368921 1.216254 0.073081
0.179084 1.172654 0.145081
0.052549 1.119826 0.187660
0.000000 1.067184 0.201557
0.000000 1.018741 0.194987
0.000000 0.974257 0.173462
1.546366 0.614422 0.322978
1.541603 0.616426 0.315484
1.519663 0.625082 0.283509
1.471687 0.643768 0.219042
1.386173 0.676131 0.118679
1.245567 0.726521 0.000000
1.031517 0.798266 0.000000
0.735150 0.888976 0.000000
0.863244 0.949721 0.000000
0.761975 1.037562 0.000000
0.565558 1.134254 0.014783
0.369166 1.217198 0.073150
0.193798 1.176298 0.136684
0.072304 1.128140 0.178420
0.000000 1.080449 0.197665
0.000000 1.035714 0.198967
1.549160 0.615529 0.323510
1.544848 0.617109 0.317417
1.527143 0.624120 0.291419
1.489351 0.639104 0.238862
1.421975 0.664593 0.156270
1.314074 0.704196 0.044828
1.150416 0.760815 0.000000
0.918898 0.835442 0.000000
0.621375 0.922687 0.000000
0.836323 0.972166 0.000000
0.726072 1.054767 0.000000
0.545504 1.142725 0.019402
0.369359 1.217795 0.073178
0.205728 1.179610 0.130915
0.089969 1.135814 0.171944
0.001740 1.091987 0.194500
1.550508 0.616067 0.323802
1.547022 0.617337 0.318766
1.532582 0.623103 0.297327
1.501613 0.635284 0.253814
1.447838 0.655989 0.185134
1.362536 0.687651 0.090878
1.234861 0.732845 0.000000
1.053378 0.793720 0.000000
0.812082 0.868631 0.000000
0.755674 0.932010 0.000000
0.814223 0.990710 0.000000
0.697965 1.068879 0.000954
0.530462 1.149281 0.023005
0.369468 1.218209 0.073204
0.216799 1.182892 0.126479
0.105698 1.142584 0.166748
1.550867 0.616223 0.323882
1.547911 0.617323 0.319679
1.535882 0.622088 0.301694
1.510317 0.632258 0.265224
1.466329 0.649323 0.207436
1.397522 0.675158 0.127306
1.295794 0.711977 0.026992
1.151591 0.761658 0.000000
0.957051 0.824750 0.000000
0.712394 0.897999 0.000000
0.811969 0.945024 0.000000
0.794825 1.006940 0.000000
0.674847 1.080743 0.002442
0.517295 1.155013 0.026162
0.369507 1.218355 0.073206
0.225774 1.185544 0.123102
1.550878 0.616225 0.323883
1.548421 0.617157 0.320324
1.538263 0.621216 0.305112
1.516663 0.629719 0.274166
1.480356 0.643995 0.225075
1.423945 0.665390 0.156491
1.341127 0.695712 0.069246
1.224837 0.736790 0.000000
1.067408 0.789498 0.000000
0.864908 0.853014 0.000000
0.622077 0.923314 0.000000
0.825731 0.959388 0.000000
0.776293 1.020996 0.000000
0.654961 1.090924 0.004044
0.507074 1.159538 0.028645
0.369507 1.218356 0.073206
0.992521 0.977037 0.939438
0.948482 0.996150 0.948426
0.772548 0.971646 0.853700
0.588413 0.946948 0.726411
0.401738 0.916548 0.594279
0.207315 0.878984 0.455115
0.000000 0.831538 0.299257
0.000000 0.762640 0.095627
0.000000 0.627308 0.000000
0.000000 0.633813 0.000000
0.000000 0.638709 0.000000
0.000000 0.642173 0.000000
0.000000 0.644471 0.000000
0.000000 0.645568 0.000000
0.000000 0.645925 0.000000
0.000000 0.645934 0.000000
0.959600 1.003317 1.012086
0.976081 0.976082 0.976082
0.694233 0.966845 0.796852
0.526384 0.941905 0.682635
0.354287 0.912072 0.563965
0.167476 0.875004 0.433509
0.000000 0.827170 0.283198
0.000000 0.756380 0.081830
0.000000 0.628057 0.000000
0.000000 0.634395 0.000000
0.000000 0.639155 0.000000
0.000000 0.642493 0.000000
0.000000 0.644660 0.000000
0.000000 0.645729 0.000000
0.000000 0.646060 0.000000
0.000000 0.646072 0.000000
1.113226 0.931150 0.922375
1.111293 0.931636 0.875451
0.869682 1.045853 0.808154
0.637428 0.992939 0.739554
0.432758 0.951204 0.621287
0.228580 0.909548 0.495188
0.008519 0.863255 0.359170
0.000000 0.805846 0.210695
0.000000 0.649521 0.000000
0.000000 0.633237 0.000000
0.000000 0.638169 0.000000
0.000000 0.641735 0.000000
0.000000 0.644021 0.000000
0.000000 0.645294 0.000000
0.000000 0.645693 0.000000
0.000000 0.645754 0.000000
1.196532 0.871784 0.807482
1.195164 0.871486 0.770416
1.070635 0.947195 0.684849
0.748178 1.086124 0.630235
0.496620 1.029900 0.635305
0.283507 0.977551 0.555186
0.046006 0.930292 0.454853
0.000000 0.891361 0.384272
0.000000 0.806176 0.161836
0.000000 0.629513 0.000000
0.000000 0.635554 0.000000
0.000000 0.639762 0.000000
0.000000 0.642468 0.000000
0.000000 0.644041 0.000000
0.000000 0.644643 0.000000
0.000000 0.644906 0.000000
1.289432 0.792933 0.655686
1.295896 0.788470 0.629722
1.235569 0.843343 0.602872
1.035678 0.960691 0.431419
0.546093 1.148816 0.335728
0.181893 1.111506 0.438839
0.000000 1.058557 0.460881
0.000000 0.977383 0.413159
0.000000 0.899934 0.289032
0.000000 0.812905 0.090252
0.000000 0.629411 0.000000
0.000000 0.635291 0.000000
0.000000 0.639194 0.000000
0.000000 0.641498 0.000000
0.000000 0.642620 0.000000
0.000000 0.643331 0.000000
1.520227 0.579727 0.358987
1.492876 0.593195 0.311775
1.500137 0.662781 0.470940
1.395669 0.775358 0.345272
0.973321 0.984728 0.035955
0.365367 1.204759 0.072391
0.057643 1.153486 0.289109
0.000000 1.070850 0.364347
0.000000 0.991448 0.331786
0.000000 0.915379 0.231910
0.000000 0.834550 0.072763
0.000000 0.708964 0.000000
0.000000 0.632836 0.000000
0.000000 0.636732 0.000000
0.000000 0.639129 0.000000
0.000000 0.640514 0.000000
1.525236 0.589969 0.345554
1.507120 0.598838 0.314754
1.409216 0.638186 0.180674
1.294854 0.727524 0.158912
1.213895 0.849518 0.170661
0.832255 1.034887 0.002702
0.366366 1.208013 0.072586
0.089793 1.157442 0.234713
0.000000 1.081452 0.298058
0.000000 1.006419 0.277638
0.000000 0.934894 0.201932
0.000000 0.863293 0.083547
0.000000 0.781228 0.000000
0.000000 0.628133 0.000000
0.000000 0.632677 0.000000
0.000000 0.635607 0.000000
1.531650 0.597337 0.338673
1.519028 0.603551 0.317250
1.452971 0.630137 0.223852
1.289750 0.691822 0.043337
1.109254 0.793920 0.000000
1.066653 0.908347 0.078465
0.737813 1.068575 0.000000
0.367217 1.210903 0.072757
0.117623 1.161106 0.198686
0.000000 1.091493 0.253044
0.000000 1.021926 0.242815
0.000000 0.956044 0.189043
0.000000 0.893605 0.106005
0.000000 0.831534 0.000000
0.000000 0.762205 0.000000
0.000000 0.627589 0.000000
1.538010 0.602879 0.334968
1.528774 0.607415 0.319281
1.481437 0.626427 0.251071
1.370059 0.669241 0.116146
1.151157 0.747148 0.000000
1.004733 0.847197 0.000000
0.955065 0.953755 0.032670
0.672703 1.092391 0.000000
0.367943 1.213129 0.072894
0.141405 1.164997 0.174065
0.004589 1.101305 0.222469
0.000000 1.037347 0.221299
0.000000 0.977741 0.186654
0.000000 0.922898 0.131134
0.000000 0.872420 0.062806
0.000000 0.821913 0.000000
1.543470 0.606986 0.332764
1.536389 0.610456 0.320863
1.501067 0.624640 0.269244
1.420492 0.655950 0.165914
1.267375 0.711993 0.011496
1.007728 0.799770 0.000000
0.941377 0.888639 0.000000
0.872029 0.988113 0.011358
0.626026 1.109992 0.003411
0.368446 1.214849 0.073005
0.161655 1.168789 0.157047
0.029336 1.110504 0.201780
0.000000 1.052480 0.208551
0.000000 0.998595 0.189574
0.000000 0.950245 0.154999
0.000000 0.905231 0.107904
1.547933 0.610089 0.331331
1.542063 0.612792 0.322074
1.514930 0.623716 0.281852
1.454078 0.647456 0.200870
1.341856 0.689399 0.076477
1.154333 0.755001 0.000000
0.869162 0.846721 0.000000
0.896984 0.921709 0.000000
0.809894 1.015442 0.002515
0.591773 1.123473 0.009327
0.368924 1.216260 0.073081
0.178516 1.172488 0.145341
0.051799 1.119478 0.187874
0.000000 1.066655 0.201526
0.000000 1.018115 0.194817
0.000000 0.973485 0.173014
1.550807 0.612282 0.330316
1.546404 0.614429 0.322982
1.524657 0.623058 0.290870
1.477368 0.641649 0.226113
1.392166 0.673829 0.125130
1.251906 0.724120 0.000000
1.038193 0.796112 0.000000
0.741090 0.887114 0.000000
0.863257 0.948853 0.000000
0.763110 1.036882 0.000000
0.566279 1.133954 0.014672
0.369166 1.217199 0.073150
0.193368 1.176179 0.136838
0.071718 1.127845 0.178499
0.000000 1.080091 0.197753
0.000000 1.035231 0.198789
1.552753 0.613784 0.329539
1.549176 0.615511 0.323512
1.531446 0.622490 0.297434
1.493726 0.637359 0.244687
1.426785 0.662911 0.161744
1.319370 0.702331 0.049597
1.155744 0.759059 0.000000
0.924190 0.833910 0.000000
0.625892 0.921247 0.000000
0.836671 0.971223 0.000000
0.727000 1.054267 0.000000
0.546100 1.142601 0.019285
0.369360 1.217797 0.073178
0.205399 1.179526 0.131015
0.089497 1.135618 0.172113
0.001304 1.091668 0.194685
1.553451 0.614579 0.328768
1.550514 0.616068 0.323802
1.536063 0.621798 0.302243
1.505209 0.633974 0.258683
1.451524 0.654496 0.189759
1.366666 0.686142 0.095068
1.239278 0.731492 0.000000
1.057821 0.792199 0.000000
0.816284 0.867535 0.000000
0.750675 0.931584 0.000000
0.814814 0.990195 0.000000
0.698608 1.068464 0.000918
0.530843 1.149131 0.022939
0.369468 1.218209 0.073204
0.216541 1.182787 0.126540
0.105334 1.142554 0.166939
1.553420 0.614973 0.328051
1.550866 0.616222 0.323882
1.538869 0.621051 0.305867
1.513436 0.631094 0.269307
1.469378 0.648023 0.211375
1.400943 0.673833 0.130963
1.299407 0.710553 0.030195
1.155320 0.760352 0.000000
0.960817 0.823515 0.000000
0.715740 0.897079 0.000000
0.811086 0.944547 0.000000
0.795455 1.006498 0.000000
0.675459 1.080415 0.002400
0.517621 1.154949 0.026088
0.369507 1.218355 0.073206
0.225575 1.185487 0.123216
1.552823 0.615198 0.327370
1.550896 0.616228 0.323885
1.540741 0.620186 0.308740
1.519341 0.628718 0.277791
1.483034 0.642951 0.228557
1.426728 0.664343 0.159789
1.344283 0.694671 0.072240
1.228121 0.735600 0.000000
1.070716 0.788378 0.000000
0.868149 0.852176 0.000000
0.624869 0.922687 0.000000
0.825608 0.958995 0.000000
0.776804 1.020627 0.000000
0.655371 1.090668 0.004010
0.507333 1.159384 0.028593
0.369509 1.218359 0.073206
0.966679 0.905134 0.757821
0.919095 0.925914 0.751867
0.788626 0.980172 0.788493
0.617368 0.942975 0.734437
0.433557 0.910159 0.608326
0.240120 0.872587 0.463810
0.029638 0.825121 0.298836
0.000000 0.754797 0.078113
0.000000 0.616550 0.000000
0.000000 0.632319 0.000000
0.000000 0.637670 0.000000
0.000000 0.641387 0.000000
0.000000 0.643808 0.000000
0.000000 0.645179 0.000000
0.000000 0.645625 0.000000
0.000000 0.645754 0.000000
1.024422 0.901147 0.826661
0.945909 0.865490 0.673586
0.744632 0.974699 0.744452
0.574988 0.935205 0.706188
0.397191 0.904398 0.582733
0.208525 0.867536 0.441781
0.000000 0.819869 0.279239
0.000000 0.747227 0.054527
0.000000 0.619300 0.000000
0.000000 0.633034 0.000000
0.000000 0.638112 0.000000
0.000000 0.641751 0.000000
0.000000 0.644120 0.000000
0.000000 0.645379 0.000000
0.000000 0.645739 0.000000
0.000000 0.645925 0.000000
0.826684 1.011994 1.049224
0.820844 1.012290 1.050751
0.901822 0.901823 0.901823
0.544337 0.895906 0.676529
0.285820 0.879567 0.509078
0.072959 0.848064 0.364502
0.000000 0.800125 0.203594
0.000000 0.708111 0.000000
0.000000 0.630319 0.000000
0.000000 0.635846 0.000000
0.000000 0.640104 0.000000
0.000000 0.643031 0.000000
0.000000 0.645010 0.000000
0.000000 0.645973 0.000000
0.000000 0.646063 0.000000
0.000000 0.646099 0.000000
1.192441 0.876814 0.848597
1.197544 0.872828 0.849695
1.153640 0.859413 0.767542
0.756058 1.058706 0.650372
0.451668 1.001258 0.625128
0.213759 0.948112 0.517146
0.000000 0.896437 0.400309
0.000000 0.846816 0.305342
0.000000 0.735620 0.000000
0.000000 0.632626 0.000000
0.000000 0.637673 0.000000
0.000000 0.641275 0.000000
0.000000 0.643610 0.000000
0.000000 0.644726 0.000000
0.000000 0.645180 0.000000
0.000000 0.645371 0.000000
1.285550 0.797502 0.714392
1.287860 0.794665 0.702641
1.307486 0.777028 0.611051
1.121303 0.917846 0.470442
0.533958 1.152356 0.318099
0.149812 1.100580 0.453002
0.000000 1.037211 0.467020
0.000000 0.953382 0.394087
0.000000 0.872412 0.244501
0.000000 0.771062 0.000000
0.000000 0.631995 0.000000
0.000000 0.637217 0.000000
0.000000 0.640474 0.000000
0.000000 0.642406 0.000000
0.000000 0.643323 0.000000
0.000000 0.643898 0.000000
1.373363 0.664328 0.310314
1.380970 0.658137 0.309024
1.494087 0.593650 0.312006
1.447106 0.730976 0.411607
1.044054 0.954471 0.065882
0.365423 1.204838 0.072399
0.042419 1.146582 0.302048
0.000000 1.058623 0.367862
0.000000 0.976660 0.321781
0.000000 0.897907 0.207011
0.000000 0.810755 0.023802
0.000000 0.628572 0.000000
0.000000 0.634356 0.000000
0.000000 0.637835 0.000000
0.000000 0.639879 0.000000
0.000000 0.641120 0.000000
1.590832 0.556319 0.475179
1.578047 0.563232 0.447206
1.507941 0.599129 0.314917
1.271532 0.690478 0.034278
1.248243 0.823879 0.194351
0.866663 1.020370 0.009689
0.366402 1.208049 0.072594
0.079875 1.153416 0.241102
0.000000 1.073998 0.300453
0.000000 0.996774 0.272356
0.000000 0.923529 0.188252
0.000000 0.849202 0.058752
0.000000 0.758786 0.000000
0.000000 0.629573 0.000000
0.000000 0.633715 0.000000
0.000000 0.636464 0.000000
1.580376 0.572875 0.429677
1.570152 0.578139 0.409472
1.519474 0.603753 0.317370
1.368419 0.663020 0.122337
1.044971 0.776789 0.000000
1.088123 0.893286 0.086903
0.756267 1.060741 0.000000
0.367241 1.210959 0.072760
0.110939 1.158744 0.202245
0.000000 1.086605 0.254657
0.000000 1.015477 0.240213
0.000000 0.948685 0.181579
0.000000 0.885030 0.093216
0.000000 0.820795 0.000000
0.000000 0.745221 0.000000
0.000000 0.628581 0.000000
1.574985 0.584496 0.401643
1.567130 0.588554 0.386615
1.529216 0.607566 0.319344
1.424362 0.648952 0.177649
1.212236 0.726300 0.000000
0.840830 0.847673 0.000000
0.968891 0.944109 0.035642
0.683441 1.087772 0.000000
0.367884 1.213050 0.072897
0.136762 1.163285 0.176242
0.000000 1.097865 0.223612
0.000000 1.032983 0.220142
0.000000 0.972628 0.182733
0.000000 0.917317 0.124554
0.000000 0.866036 0.053119
0.000000 0.813922 0.000000
1.572229 0.592864 0.383373
1.565906 0.596041 0.371822
1.536744 0.610558 0.320914
1.459913 0.640945 0.214100
1.311849 0.696257 0.051538
1.054261 0.784749 0.000000
0.917066 0.882741 0.000000
0.881453 0.982015 0.012375
0.632837 1.107014 0.002762
0.368456 1.214923 0.073006
0.158326 1.167541 0.158413
0.024981 1.108153 0.202634
0.000000 1.049322 0.208178
0.000000 0.995071 0.187620
0.000000 0.946323 0.151510
0.000000 0.900844 0.102293
1.570401 0.598940 0.370836
1.565347 0.601475 0.361770
1.542326 0.612807 0.322123
1.484086 0.636033 0.239154
1.375223 0.677317 0.110392
1.190109 0.742798 0.000000
0.904268 0.835910 0.000000
0.890657 0.916943 0.000000
0.816746 1.011126 0.002774
0.596195 1.121584 0.008691
0.368930 1.216274 0.073082
0.176066 1.171640 0.146261
0.048500 1.117830 0.188662
0.000000 1.064434 0.201542
0.000000 1.015566 0.194058
0.000000 0.970757 0.171065
1.569113 0.603297 0.361848
1.565093 0.605397 0.354684
1.546581 0.614463 0.323000
1.500811 0.632640 0.257040
1.417642 0.664476 0.153511
1.280034 0.714456 0.015879
1.066975 0.786745 0.000000
0.767531 0.879627 0.000000
0.862562 0.944838 0.000000
0.768323 1.033795 0.000000
0.569381 1.132607 0.014121
0.369170 1.217209 0.073151
0.191511 1.175562 0.137485
0.069172 1.126602 0.179272
0.000000 1.078417 0.198010
0.000000 1.033276 0.198598
1.567512 0.606431 0.355217
1.564193 0.608027 0.349227
1.549081 0.615515 0.323503
1.512313 0.630130 0.270013
1.446959 0.655282 0.185533
1.341090 0.694498 0.070529
1.178991 0.751233 0.000000
0.947012 0.826660 0.000000
0.645698 0.915920 0.000000
0.838033 0.968169 0.000000
0.731076 1.051999 0.000000
0.548289 1.141563 0.018850
0.369362 1.217800 0.073179
0.203950 1.179052 0.131632
0.087504 1.134800 0.172745
0.000000 1.090369 0.195057
1.565875 0.608477 0.349945
1.563024 0.609855 0.345038
1.550548 0.616075 0.323806
1.520588 0.628000 0.279696
1.467927 0.648410 0.209818
1.384221 0.679695 0.113345
1.258029 0.724978 0.000000
1.077141 0.786065 0.000000
0.834394 0.861974 0.000000
0.722916 0.930968 0.000000
0.816855 0.987757 0.000000
0.701803 1.066776 0.000746
0.532536 1.148348 0.022555
0.369469 1.218210 0.073204
0.215448 1.182499 0.127023
0.103677 1.141739 0.167401
1.563762 0.609852 0.345800
1.561414 0.611031 0.341695
1.550868 0.616223 0.323882
1.525844 0.626148 0.287032
1.482933 0.642977 0.228394
1.415284 0.668483 0.146844
1.314773 0.705176 0.044164
1.171256 0.754935 0.000000
0.976631 0.818466 0.000000
0.730192 0.893033 0.000000
0.806591 0.942774 0.000000
0.797686 1.004550 0.000000
0.677974 1.079116 0.002222
0.518938 1.154295 0.025778
0.369507 1.218355 0.073206
0.224606 1.185263 0.123573
1.561842 0.610866 0.342451
1.559796 0.611866 0.338829
1.550964 0.616181 0.323892
1.530369 0.624454 0.293326
1.494262 0.638484 0.243612
1.438963 0.659685 0.174046
1.357231 0.689891 0.085179
1.241830 0.730904 0.000000
1.084825 0.783731 0.000000
0.881654 0.848058 0.000000
0.636727 0.919392 0.000000
0.825104 0.957152 0.000000
0.779090 1.019048 0.000000
0.657455 1.089620 0.003830
0.508345 1.158954 0.028342
0.369513 1.218298 0.073207
0.936601 0.832023 0.581950
0.902345 0.847165 0.574788
0.782616 0.897292 0.578633
0.625335 0.958083 0.625130
0.454326 0.912208 0.588085
0.272532 0.868534 0.461134
0.068662 0.818729 0.293488
0.000000 0.745890 0.056012
0.000000 0.613130 0.000000
0.000000 0.622681 0.000000
0.000000 0.634676 0.000000
0.000000 0.639168 0.000000
0.000000 0.642038 0.000000
0.000000 0.643784 0.000000
0.000000 0.644491 0.000000
0.000000 0.644817 0.000000
0.977612 0.829857 0.625683
0.913869 0.781580 0.465224
0.759912 0.871080 0.503782
0.593253 0.953082 0.593053
0.426644 0.905754 0.567375
0.247789 0.862729 0.441514
0.045073 0.812846 0.273829
0.000000 0.737328 0.028515
0.000000 0.613744 0.000000
0.000000 0.624046 0.000000
0.000000 0.635230 0.000000
0.000000 0.639619 0.000000
0.000000 0.642345 0.000000
0.000000 0.643958 0.000000
0.000000 0.644661 0.000000
0.000000 0.645002 0.000000
1.127054 0.818578 0.851616
1.116780 0.806273 0.799621
0.877480 0.777357 0.537989
0.589188 0.913614 0.588986
0.362293 0.874150 0.522217
0.157258 0.837543 0.371540
0.000000 0.787123 0.187477
0.000000 0.686223 0.000000
0.000000 0.617765 0.000000
0.000000 0.632470 0.000000
0.000000 0.637666 0.000000
0.000000 0.641188 0.000000
0.000000 0.643601 0.000000
0.000000 0.644764 0.000000
0.000000 0.645207 0.000000
0.000000 0.645440 0.000000
0.670597 1.018117 1.087928
0.666340 1.018221 1.088920
0.676249 0.994801 1.058826
0.827841 0.827841 0.827842
0.407798 0.826936 0.565415
0.109024 0.795919 0.367243
0.000000 0.747034 0.165640
0.000000 0.603308 0.000000
0.000000 0.618254 0.000000
0.000000 0.629129 0.000000
0.000000 0.637312 0.000000
0.000000 0.643896 0.000000
0.000000 0.645404 0.000000
0.000000 0.646030 0.000000
0.000000 0.646063 0.000000
0.000000 0.646094 0.000000
1.266236 0.818420 0.671823
1.272401 0.813937 0.677354
1.293121 0.795862 0.692883
1.180904 0.771458 0.643334
0.620115 1.053723 0.468779
0.258288 0.981883 0.517949
0.000000 0.949855 0.469284
0.000000 0.870728 0.327381
0.000000 0.778967 0.088095
0.000000 0.623914 0.000000
0.000000 0.633077 0.000000
0.000000 0.640322 0.000000
0.000000 0.642871 0.000000
0.000000 0.644070 0.000000
0.000000 0.644475 0.000000
0.000000 0.644857 0.000000
1.402624 0.671331 0.363736
1.400941 0.670586 0.362948
1.392725 0.666702 0.353166
1.441646 0.572804 0.301086
1.205530 0.838836 0.185310
0.355229 1.171361 0.070385
0.007128 1.102883 0.331380
0.000000 1.010642 0.371102
0.000000 0.928293 0.290829
0.000000 0.845868 0.135787
0.000000 0.731004 0.000000
0.000000 0.632519 0.000000
0.000000 0.637338 0.000000
0.000000 0.640023 0.000000
0.000000 0.641434 0.000000
0.000000 0.642371 0.000000
1.503851 0.608668 0.488653
1.519348 0.598904 0.502145
1.636802 0.530345 0.592199
1.475836 0.586421 0.308232
1.288258 0.745624 0.227879
0.938399 0.963621 0.034158
0.359667 1.185871 0.071262
0.056606 1.126383 0.254197
0.000000 1.043319 0.302595
0.000000 0.965830 0.256808
0.000000 0.892088 0.152491
0.000000 0.813646 0.000000
0.000000 0.654478 0.000000
0.000000 0.632309 0.000000
0.000000 0.635748 0.000000
0.000000 0.638002 0.000000
1.651116 0.532442 0.604364
1.645559 0.536056 0.587703
1.616935 0.553633 0.509782
1.496193 0.594423 0.312441
1.209049 0.703210 0.000000
1.118055 0.844712 0.102841
0.789564 1.026092 0.001233
0.361699 1.192460 0.071657
