remotion/public/assets/luts/VM Thermal Melt.cube
LUT_3D_SIZE 16
1.000090 1.000000 1.000091
0.925090 0.960643 0.881333
0.850095 0.921403 0.762730
0.775048 0.881747 0.644005
0.699875 0.842177 0.525072
0.624674 0.802407 0.406250
0.549248 0.762559 0.287194
0.473623 0.722443 0.167895
0.397413 0.682002 0.047795
0.320561 0.641188 0.000000
0.242519 0.599663 0.000000
0.161742 0.556644 0.000000
0.074527 0.510119 0.000000
0.000000 0.441161 0.000000
0.000000 0.410154 0.000000
0.000000 0.410160 0.000000
1.008377 0.966068 1.047096
0.941434 1.006711 1.037376
0.823667 0.951448 0.811702
0.750857 0.902721 0.671678
0.681399 0.857424 0.543764
0.610424 0.814508 0.420584
0.537973 0.772552 0.298972
0.464357 0.731198 0.178171
0.389775 0.689945 0.057412
0.314116 0.648758 0.000000
0.236989 0.607334 0.000000
0.157020 0.565037 0.000000
0.070514 0.520977 0.000000
0.000000 0.471486 0.000000
0.000000 0.411395 0.000000
0.000000 0.411136 0.000000
1.016685 0.931879 1.094304
0.997130 0.945104 1.100301
0.881152 1.013461 1.075696
0.730720 0.960808 0.809058
0.648411 0.906247 0.632462
0.573471 0.856655 0.488244
0.502208 0.809867 0.354182
0.432385 0.764804 0.225448
0.361570 0.721249 0.100105
0.289444 0.678687 0.000000
0.215399 0.637457 0.000000
0.138009 0.597517 0.000000
0.053425 0.560054 0.000000
0.000000 0.540961 0.000000
0.000000 0.489623 0.000000
0.000000 0.446804 0.000000
1.024948 0.897552 1.141555
1.013676 0.905212 1.145503
0.957255 0.940284 1.155734
0.818352 1.020338 1.115393
0.649424 0.972808 0.835590
0.553316 0.918606 0.630239
0.474370 0.866674 0.465925
0.398943 0.818363 0.322119
0.324648 0.772941 0.188155
0.252625 0.729765 0.059210
0.180244 0.688864 0.000000
0.104682 0.651381 0.000000
0.019612 0.619844 0.000000
0.000000 0.607030 0.000000
0.000000 0.572879 0.000000
0.000000 0.552096 0.000000
1.033185 0.862797 1.189084
1.025128 0.868300 1.191776
0.988286 0.892067 1.201715
0.902279 0.942359 1.209342
0.751720 1.027429 1.157292
0.572937 0.985191 0.875722
0.463369 0.934679 0.652670
0.377878 0.884226 0.472484
0.299564 0.836450 0.317570
0.222649 0.792220 0.178798
0.144645 0.752435 0.051072
0.064161 0.717170 0.000000
0.000000 0.691300 0.000000
0.000000 0.674483 0.000000
0.000000 0.643129 0.000000
0.000000 0.621567 0.000000
1.041372 0.827867 1.236865
1.034928 0.832142 1.238841
1.006402 0.850493 1.247105
0.944802 0.887583 1.260034
0.836946 0.948100 1.262900
0.678719 1.035008 1.202601
0.494043 0.997961 0.924044
0.373770 0.952797 0.691437
0.279974 0.906259 0.500147
0.195795 0.861927 0.337088
0.112617 0.821862 0.193820
0.020515 0.788889 0.063934
0.000000 0.778150 0.000000
0.000000 0.739872 0.000000
0.000000 0.708820 0.000000
0.000000 0.685145 0.000000
1.049634 0.792260 1.285173
1.044034 0.795962 1.286960
1.019867 0.811220 1.293964
0.969793 0.841771 1.306599
0.885846 0.889426 1.320926
0.759830 0.956027 1.320287
0.593627 1.043620 1.255261
0.403064 1.012540 0.981581
0.271834 0.973726 0.743775
0.165659 0.933381 0.544946
0.062802 0.896555 0.375281
0.000000 0.882858 0.218543
0.000000 0.839849 0.095127
0.000000 0.801485 0.000000
0.000000 0.769636 0.000000
0.000000 0.744243 0.000000
1.057950 0.755908 1.334559
1.052769 0.759138 1.336015
1.030720 0.772977 1.341961
0.986262 0.799875 1.354052
0.914677 0.840593 1.371153
0.809508 0.895372 1.389099
0.661635 0.965961 1.390924
0.473180 1.055403 1.329307
0.255470 1.034050 1.063632
0.055097 1.012498 0.830027
0.000000 0.980686 0.614714
0.000000 0.938883 0.430856
0.000000 0.897889 0.282101
0.000000 0.859891 0.162119
0.000000 0.827153 0.067408
0.000000 0.799486 0.000000
1.066477 0.718172 1.385428
1.061382 0.721240 1.386762
1.039875 0.734589 1.392403
0.997521 0.759801 1.404105
0.931199 0.796823 1.422880
0.835444 0.844900 1.449454
0.693655 0.904978 1.486777
0.449190 0.983184 1.549729
0.298322 1.072074 1.436237
0.132029 1.051726 1.141307
0.021084 1.022188 0.884165
0.000000 0.986829 0.668483
0.000000 0.949694 0.491723
0.000000 0.913480 0.347716
0.000000 0.880681 0.232418
0.000000 0.851720 0.140507
1.075409 0.678046 1.439051
1.069935 0.681492 1.440526
1.047173 0.695257 1.446269
1.003496 0.720547 1.458567
0.936593 0.756075 1.480553
0.837415 0.800651 1.519668
0.647956 0.855434 1.625840
0.554651 0.917472 1.598340
0.438966 0.989167 1.543036
0.298447 1.072487 1.436741
0.143209 1.052213 1.164339
0.035290 1.025064 0.923853
0.000000 0.993544 0.720075
0.000000 0.960631 0.550952
0.000000 0.929161 0.413090
0.000000 0.900043 0.301301
1.085293 0.633130 1.499151
1.078562 0.637171 1.500839
1.051131 0.653376 1.507697
1.000227 0.680932 1.523607
0.919359 0.717233 1.559022
0.779158 0.761016 1.645112
0.712410 0.809822 1.637838
0.634083 0.864745 1.622056
0.540871 0.925953 1.592310
0.429481 0.994988 1.536700
0.298557 1.072794 1.437081
0.153253 1.053084 1.184415
0.049493 1.028315 0.960257
0.000000 1.000214 0.768197
0.000000 0.971304 0.607931
0.000000 0.943429 0.475354
1.099217 0.569363 1.584143
1.084912 0.577636 1.587266
1.032157 0.603892 1.605892
0.938516 0.639641 1.655683
0.886465 0.679732 1.653313
0.829553 0.723207 1.650109
0.767161 0.770018 1.644804
0.697791 0.820304 1.635407
0.618632 0.874792 1.618003
0.527138 0.934464 1.586279
0.420864 1.000140 1.531049
0.298604 1.073052 1.437557
0.162971 1.054259 1.203386
0.063229 1.031633 0.993824
0.000000 1.006743 0.813675
0.000000 0.981213 0.661105
1.112808 0.506622 1.667591
1.112783 0.506710 1.668006
1.112630 0.507025 1.668791
1.002831 0.590825 1.661067
0.935627 0.642419 1.657322
0.875050 0.688854 1.653998
0.814264 0.734969 1.649718
0.750000 0.782456 1.643528
0.680178 0.832435 1.632182
0.602247 0.885573 1.613043
0.513763 0.942938 1.580111
0.412577 1.005181 1.525449
0.298655 1.073205 1.437611
0.171369 1.055465 1.219514
0.076473 1.034951 1.024483
0.007745 1.012677 0.854535
1.112895 0.506648 1.667866
1.112876 0.506714 1.668070
1.112778 0.507022 1.668705
1.112482 0.507571 1.669902
0.984980 0.604922 1.661125
0.915754 0.658036 1.657053
0.854480 0.704648 1.653336
0.793735 0.750367 1.648438
0.730261 0.796831 1.640660
0.661763 0.845169 1.628295
0.586032 0.896080 1.607650
0.501034 0.950637 1.574205
0.405437 1.009489 1.520834
0.298699 1.073284 1.437848
0.179829 1.056739 1.235288
0.089071 1.038127 1.052621
1.112993 0.506676 1.667999
1.112977 0.506726 1.667822
1.112844 0.506963 1.668694
1.112616 0.507441 1.670007
1.038618 0.564120 1.665148
0.950271 0.631760 1.659236
0.887604 0.679677 1.655648
0.829291 0.723726 1.651593
0.770605 0.767480 1.646233
0.709056 0.811934 1.637809
0.642777 0.858028 1.624012
0.569846 0.906741 1.602167
0.488807 0.958394 1.568313
0.398156 1.013858 1.515950
0.298697 1.073390 1.437777
0.186989 1.057910 1.248456
1.113002 0.506682 1.668029
1.112990 0.506719 1.667808
1.112868 0.506903 1.668491
1.112683 0.507350 1.669575
1.112316 0.508007 1.670747
0.977615 0.610832 1.661093
0.913635 0.659704 1.657283
0.857760 0.702359 1.653921
0.803188 0.743398 1.649427
0.747285 0.784518 1.643478
0.688280 0.826666 1.633704
0.624552 0.870496 1.619290
0.554773 0.916511 1.596753
0.477416 0.965352 1.562301
0.392169 1.017507 1.511942
0.298702 1.073402 1.437921
0.918989 0.946225 0.915044
0.915955 0.964100 0.946673
0.945800 0.891129 0.811108
0.827723 0.866987 0.656687
0.733893 0.832995 0.531577
0.648961 0.796181 0.410653
0.567512 0.757875 0.290565
0.488053 0.718847 0.170848
0.409144 0.679229 0.050499
0.331482 0.638462 0.000000
0.254267 0.596687 0.000000
0.175199 0.553245 0.000000
0.091673 0.505863 0.000000
0.000000 0.431299 0.000000
0.000000 0.408317 0.000000
0.000000 0.408331 0.000000
1.003549 0.976692 1.027457
0.933061 0.933063 0.933062
0.829426 0.890302 0.754716
0.758568 0.859218 0.634812
0.688942 0.823748 0.523404
0.617496 0.785915 0.410619
0.544546 0.747009 0.295846
0.470642 0.707682 0.179819
0.395878 0.667473 0.062229
0.320067 0.626905 0.000000
0.243048 0.585500 0.000000
0.163288 0.542632 0.000000
0.077511 0.496513 0.000000
0.000000 0.430712 0.000000
0.000000 0.396202 0.000000
0.000000 0.382788 0.000000
1.028807 0.934175 1.068897
0.984841 0.916013 1.047947
0.878019 0.983351 1.032879
0.730869 0.931020 0.779754
0.650540 0.878498 0.615539
0.577129 0.830547 0.478526
0.507683 0.785097 0.349694
0.438403 0.741053 0.225282
0.367892 0.698288 0.103213
0.295729 0.656253 0.000000
0.221838 0.614996 0.000000
0.144789 0.574586 0.000000
0.061231 0.535685 0.000000
0.000000 0.508337 0.000000
0.000000 0.453627 0.000000
0.000000 0.386757 0.000000
1.033107 0.898847 1.125903
0.995084 0.883468 1.097102
0.944992 0.915552 1.108099
0.816439 0.990211 1.072124
0.652914 0.944440 0.810078
0.558406 0.891605 0.615906
0.479778 0.841126 0.458733
0.404274 0.793896 0.319547
0.330829 0.749013 0.188291
0.259407 0.705897 0.061824
0.187424 0.665060 0.000000
0.112557 0.627163 0.000000
0.029329 0.594688 0.000000
0.000000 0.581762 0.000000
0.000000 0.546777 0.000000
0.000000 0.508961 0.000000
1.039375 0.863902 1.177761
1.001752 0.848657 1.141924
0.968782 0.870194 1.151405
0.890658 0.916652 1.159019
0.751366 0.995598 1.110684
0.578269 0.954980 0.847553
0.470450 0.906225 0.635982
0.385273 0.856798 0.462950
0.307100 0.809952 0.312998
0.230274 0.766259 0.177531
0.152742 0.726490 0.051976
0.073749 0.691040 0.000000
0.000000 0.663645 0.000000
0.000000 0.648443 0.000000
0.000000 0.616920 0.000000
0.000000 0.576551 0.000000
1.046504 0.828741 1.227934
1.008514 0.813402 1.187172
0.982915 0.830043 1.194871
0.926677 0.864445 1.206707
0.827453 0.920440 1.209263
0.680855 1.001596 1.152480
0.501833 0.965804 0.891542
0.383292 0.921903 0.670639
0.290102 0.876340 0.486923
0.206352 0.832602 0.329145
0.124150 0.792967 0.189634
0.035027 0.759375 0.062972
0.000000 0.750606 0.000000
0.000000 0.712123 0.000000
0.000000 0.681079 0.000000
0.000000 0.637151 0.000000
1.054095 0.792962 1.277691
1.015362 0.777381 1.233108
0.993266 0.791574 1.239379
0.947369 0.819870 1.250986
0.870474 0.864058 1.263713
0.754145 0.926364 1.261989
0.600668 1.008180 1.199998
0.416066 0.977626 0.942983
0.286911 0.939887 0.717440
0.182526 0.899925 0.526969
0.083544 0.863080 0.363390
0.000000 0.837160 0.216755
0.000000 0.809852 0.089165
0.000000 0.771698 0.000000
0.000000 0.739878 0.000000
0.000000 0.693027 0.000000
1.062132 0.756605 1.327685
1.022090 0.740659 1.279624
1.002043 0.753457 1.285241
0.961075 0.778272 1.295846
0.895375 0.816271 1.311255
0.798776 0.867599 1.326066
0.664317 0.933576 1.324205
0.496312 1.016707 1.261611
0.294222 0.993889 1.011223
0.135152 0.966254 0.784678
0.000000 0.947410 0.593153
0.000000 0.905985 0.414536
0.000000 0.865214 0.269828
0.000000 0.827657 0.153327
0.000000 0.794864 0.061582
0.000000 0.745077 0.000000
1.070599 0.718878 1.378882
1.028921 0.702797 1.327437
1.009216 0.714905 1.332461
0.970325 0.738372 1.342968
0.909490 0.772880 1.359384
0.822317 0.817826 1.381742
0.698273 0.874137 1.407819
0.493767 0.946359 1.447423
0.287898 1.034548 1.385821
0.127565 1.014927 1.101191
0.020551 0.985967 0.852525
0.000000 0.951249 0.643503
0.000000 0.914341 0.471897
0.000000 0.878474 0.332246
0.000000 0.845726 0.220738
0.000000 0.794118 0.128615
1.079846 0.678952 1.432275
1.035910 0.662680 1.377419
1.015148 0.675427 1.382600
0.975209 0.698709 1.393379
0.914403 0.731945 1.412078
0.826937 0.773814 1.442668
0.676644 0.824791 1.514517
0.533906 0.885079 1.540872
0.422654 0.953579 1.486646
0.287435 1.032899 1.383650
0.137930 1.013224 1.121010
0.033878 0.986394 0.888232
0.000000 0.955395 0.691372
0.000000 0.922864 0.527495
0.000000 0.891582 0.394500
0.000000 0.839375 0.279106
1.090787 0.634259 1.490963
1.043581 0.618454 1.432508
1.018851 0.633174 1.438469
0.973082 0.658714 1.451702
0.903355 0.692770 1.478433
0.748183 0.734095 1.583733
0.684507 0.780473 1.576142
0.609456 0.832525 1.560859
0.519916 0.891013 1.531625
0.412837 0.956702 1.477525
0.286923 1.031069 1.381132
0.147130 1.011719 1.137608
0.047261 0.987318 0.921392
0.000000 0.959443 0.735618
0.000000 0.930934 0.581052
0.000000 0.880163 0.441846
1.109826 0.571932 1.567999
1.053934 0.560352 1.505933
1.012119 0.583708 1.516801
0.927334 0.616712 1.560567
0.850245 0.654693 1.588920
0.796027 0.695763 1.585450
0.736281 0.740209 1.580045
0.669789 0.788148 1.570662
0.593760 0.840048 1.553405
0.506049 0.897060 1.522607
0.403803 0.959389 1.468761
0.286341 1.028890 1.378250
0.156027 1.010368 1.152940
0.060181 0.987863 0.950901
0.000000 0.963503 0.777413
0.000000 0.915529 0.615590
1.112814 0.506513 1.667401
1.067577 0.486093 1.599825
1.067476 0.486321 1.600462
0.961545 0.567164 1.593333
0.897306 0.616292 1.589445
0.839291 0.660718 1.585973
0.780772 0.704641 1.582005
0.719226 0.749995 1.575226
0.652109 0.797507 1.564324
0.577184 0.848045 1.545234
0.492239 0.902754 1.513285
0.395041 0.961911 1.460128
0.285679 1.026565 1.375190
0.163651 1.009004 1.165466
0.072681 0.988760 0.977988
0.006816 0.944977 0.796529
1.112899 0.506571 1.667474
1.065458 0.485085 1.596483
1.065321 0.485330 1.597195
1.065019 0.485828 1.598677
0.944998 0.577283 1.589756
0.877611 0.628755 1.585856
0.818498 0.673652 1.582061
0.759986 0.717266 1.576919
0.698992 0.761687 1.569435
0.633198 0.807580 1.556806
0.560412 0.856071 1.536558
0.478814 0.907927 1.503711
0.387172 0.963661 1.452183
0.284994 1.024124 1.371946
0.171354 1.007669 1.177705
0.082803 0.968859 0.981772
1.112996 0.506616 1.667668
1.063097 0.483945 1.593167
1.062965 0.484124 1.593627
1.062733 0.484623 1.595017
0.999404 0.533099 1.590841
0.909729 0.601489 1.584612
0.848824 0.647748 1.580877
0.792670 0.690057 1.576561
0.736208 0.731637 1.570940
0.677177 0.773981 1.562423
0.613518 0.817936 1.548735
0.543594 0.864019 1.527132
0.466052 0.912919 1.494200
0.379325 0.965273 1.443592
0.284265 1.021531 1.368396
0.174315 0.987313 1.164891
1.113005 0.506636 1.667749
1.038746 0.472923 1.556802
1.038703 0.473103 1.557111
1.038568 0.473462 1.557986
1.038222 0.474103 1.559693
0.915125 0.567980 1.550754
0.854454 0.614507 1.546869
0.801692 0.654630 1.543779
0.750457 0.693174 1.539618
0.698192 0.731616 1.533798
0.642926 0.771082 1.524905
0.583372 0.812147 1.511386
0.518088 0.855221 1.490327
0.445883 0.900804 1.458580
0.366122 0.949694 1.411137
0.278818 1.001881 1.342023
0.837182 0.893562 0.829459
0.844647 0.898317 0.841270
0.832668 0.929271 0.894103
0.983966 0.805246 0.893126
0.895516 0.781825 0.626963
0.770458 0.760965 0.455917
0.662344 0.731953 0.317957
0.566078 0.698296 0.190721
0.476599 0.662100 0.067128
0.391326 0.623921 0.000000
0.309017 0.583988 0.000000
0.228405 0.541565 0.000000
0.149344 0.494104 0.000000
0.068027 0.421119 0.000000
0.000000 0.382723 0.000000
0.000000 0.392253 0.000000
0.858447 0.912040 0.852880
0.807007 0.853717 0.800646
0.819727 0.901771 0.872030
0.955904 0.792090 0.828201
0.846118 0.777291 0.593730
0.730509 0.754421 0.444799
0.631452 0.723772 0.317563
0.541486 0.689366 0.196199
0.456315 0.652335 0.076428
0.374131 0.613741 0.000000
0.293682 0.573596 0.000000
0.214177 0.531116 0.000000
0.135075 0.483997 0.000000
0.051852 0.412976 0.000000
0.000000 0.375472 0.000000
0.000000 0.380690 0.000000
1.007198 0.954375 1.054312
0.977674 0.934769 1.016007
0.866457 0.866458 0.866457
0.748182 0.814902 0.666395
0.658729 0.780227 0.509250
0.585739 0.750056 0.384059
0.516207 0.717398 0.269002
0.446519 0.682353 0.156849
0.375572 0.645240 0.044267
0.302961 0.606681 0.000000
0.228361 0.566792 0.000000
0.150547 0.524957 0.000000
0.065385 0.479260 0.000000
0.000000 0.393534 0.000000
0.000000 0.386885 0.000000
0.000000 0.355451 0.000000
1.056776 0.906232 1.068425
1.020005 0.889760 1.040254
0.939131 0.855555 1.015774
0.812068 0.942970 1.004519
0.639664 0.895701 0.732438
0.547976 0.843946 0.546667
0.470754 0.795940 0.397934
0.398886 0.751014 0.264626
0.330271 0.707473 0.138122
0.261391 0.665284 0.016203
0.190779 0.625022 0.000000
0.116699 0.587019 0.000000
0.034073 0.553373 0.000000
0.000000 0.537448 0.000000
0.000000 0.500134 0.000000
0.000000 0.441002 0.000000
1.060447 0.868738 1.134113
1.022604 0.852999 1.100265
0.969840 0.831546 1.096391
0.894718 0.881081 1.112132
0.749656 0.966838 1.069088
0.570139 0.923823 0.796825
0.464388 0.873008 0.587632
0.380823 0.823032 0.419332
0.303552 0.776240 0.273802
0.227554 0.733150 0.142131
0.152634 0.693445 0.018313
0.076075 0.658035 0.000000
0.000000 0.630416 0.000000
0.000000 0.615256 0.000000
0.000000 0.584853 0.000000
0.000000 0.519910 0.000000
1.064999 0.832618 1.192649
1.026370 0.816796 1.153888
0.981870 0.799515 1.149013
0.927735 0.834811 1.163038
0.829269 0.892401 1.169402
0.681157 0.975765 1.114360
0.499021 0.938621 0.850641
0.381470 0.893402 0.632139
0.289454 0.846920 0.451916
0.206736 0.803060 0.297719
0.125414 0.763521 0.161252
0.038031 0.730022 0.037416
0.000000 0.717198 0.000000
0.000000 0.684267 0.000000
0.000000 0.654118 0.000000
0.000000 0.581742 0.000000
1.070890 0.796441 1.247439
1.031363 0.780464 1.204725
0.989681 0.764658 1.195762
0.945212 0.793120 1.207789
0.869964 0.837740 1.221654
0.755696 0.900250 1.221718
0.603952 0.982371 1.160647
0.418392 0.951218 0.905150
0.290242 0.912535 0.683020
0.187234 0.872380 0.496022
0.090508 0.834994 0.335980
0.000000 0.807293 0.193146
0.000000 0.783750 0.066588
0.000000 0.746339 0.000000
0.000000 0.715536 0.000000
0.000000 0.636769 0.000000
1.077945 0.759828 1.300231
1.037125 0.743618 1.253864
0.996548 0.728580 1.241959
0.956788 0.753582 1.252604
0.892910 0.791559 1.267850
0.799071 0.842735 1.282645
0.668918 0.908444 1.280831
0.507050 0.990581 1.218053
0.308412 0.966904 0.970968
0.156813 0.937621 0.748245
0.000000 0.922719 0.563888
0.000000 0.881311 0.388672
0.000000 0.840878 0.247463
0.000000 0.803766 0.134180
0.000000 0.771842 0.045717
0.000000 0.687014 0.000000
1.086258 0.722268 1.352557
1.043767 0.705782 1.302773
1.003560 0.691211 1.289487
0.965328 0.714867 1.299507
0.906128 0.749434 1.315377
0.822242 0.794414 1.336052
0.704925 0.850135 1.358868
0.533618 0.919469 1.376323
0.281216 1.010478 1.353618
0.121860 0.991247 1.069978
0.016627 0.962305 0.823169
0.000000 0.927634 0.617198
0.000000 0.891066 0.448718
0.000000 0.855552 0.312221
0.000000 0.823598 0.203889
0.000000 0.733962 0.109168
1.096344 0.682714 1.405388
1.051635 0.666040 1.352224
1.010803 0.651865 1.339489
0.971122 0.675814 1.349532
0.912030 0.709431 1.366818
0.829059 0.751310 1.393766
0.704200 0.801477 1.442731
0.525648 0.862171 1.506639
0.415375 0.930349 1.454148
0.280901 1.009488 1.352341
0.132709 0.990155 1.091404
0.030371 0.963599 0.861447
0.000000 0.932580 0.667009
0.000000 0.900617 0.506321
0.000000 0.869839 0.376220
0.000000 0.776998 0.250560
1.109793 0.639059 1.460051
1.061835 0.622611 1.403730
1.018938 0.608517 1.394452
0.972942 0.635595 1.406221
0.906234 0.670601 1.428718
0.803396 0.711948 1.479108
0.674521 0.759045 1.541202
0.600103 0.811041 1.527097
0.511599 0.869131 1.498962
0.405545 0.934571 1.446072
0.280558 1.008228 1.350543
0.142282 0.989286 1.109461
0.043925 0.965161 0.895601
0.000000 0.937683 0.712794
0.000000 0.909591 0.561230
0.000000 0.815449 0.403260
1.135761 0.581734 1.522172
1.080791 0.568045 1.462155
1.029600 0.552829 1.465770
0.956105 0.591758 1.488824
0.841453 0.632390 1.554059
0.786012 0.674781 1.550981
0.726029 0.719633 1.546001
0.659688 0.767590 1.536980
0.584550 0.819396 1.520744
0.497551 0.875975 1.490751
0.396575 0.938049 1.438407
0.280237 1.007034 1.348980
0.151402 0.988887 1.126096
0.057131 0.966664 0.926703
0.000000 0.942799 0.756121
0.000000 0.849042 0.566079
1.159517 0.506012 1.615157
1.104153 0.485618 1.558802
1.044746 0.475572 1.565498
0.970724 0.532243 1.560914
0.891358 0.592966 1.556080
0.830038 0.639941 1.552635
0.770472 0.684919 1.548671
0.708894 0.730440 1.542540
0.642181 0.778059 1.532043
0.568018 0.828439 1.513586
0.484084 0.882570 1.482786
0.387951 0.941278 1.430662
0.279850 1.005596 1.347116
0.159290 0.988321 1.139873
0.069819 0.968403 0.955020
0.004942 0.876774 0.735711
1.112961 0.506249 1.666909
1.065402 0.484740 1.595816
1.043268 0.474943 1.563703
1.043085 0.475531 1.564795
0.945849 0.549778 1.558562
0.869585 0.608017 1.553844
0.808644 0.654565 1.549628
0.749597 0.698717 1.545144
0.688749 0.743091 1.538031
0.623443 0.788985 1.525918
0.551597 0.837306 1.506402
0.470893 0.888687 1.474566
0.380454 0.944108 1.423866
0.279412 1.004057 1.345006
0.167118 0.987891 1.153196
0.075803 0.899201 0.909060
1.113001 0.506366 1.666901
1.063107 0.483705 1.592544
1.041892 0.474391 1.561339
1.041636 0.474756 1.562447
1.041224 0.475485 1.564048
0.903441 0.580528 1.553936
0.839315 0.629368 1.549656
0.782287 0.672519 1.545905
0.725831 0.714409 1.540661
0.667172 0.756611 1.532154
0.604140 0.800200 1.519137
0.535100 0.846001 1.498572
0.458512 0.894537 1.466333
0.372883 0.946528 1.416893
0.278931 1.002316 1.342772
0.161219 0.916398 1.080308
1.113010 0.506375 1.667118
1.038749 0.472648 1.556049
0.964260 0.439031 1.445348
0.964329 0.439466 1.446192
0.963873 0.439976 1.447270
0.862016 0.517838 1.440245
0.800053 0.565315 1.436568
0.749040 0.604145 1.433514
0.700418 0.640773 1.429634
0.651110 0.677241 1.424340
0.599276 0.714314 1.416323
0.543469 0.752695 1.403483
0.482391 0.792927 1.384136
0.414929 0.835857 1.354580
0.340457 0.881323 1.310396
0.258842 0.930269 1.246024
0.755047 0.841436 0.743101
0.760454 0.844071 0.750413
0.770948 0.858402 0.779118
0.749808 0.895488 0.842643
0.912508 0.754281 0.971077
0.963271 0.689887 0.695331
0.850879 0.671911 0.450463
0.726587 0.651409 0.271500
0.613963 0.624316 0.123495
0.512527 0.592304 0.000000
0.420032 0.556621 0.000000
0.334629 0.517121 0.000000
0.256262 0.472197 0.000000
0.184339 0.409848 0.000000
0.125635 0.349930 0.000000
0.094735 0.358096 0.000000
0.769280 0.852207 0.757345
0.709912 0.797833 0.697803
0.744430 0.827349 0.748572
0.740656 0.875491 0.826636
0.905049 0.738622 0.936093
0.929768 0.684112 0.660839
0.815220 0.666697 0.434597
0.695690 0.644818 0.267799
0.587946 0.616529 0.126868
0.490466 0.583675 0.000000
0.400686 0.547314 0.000000
0.317175 0.507449 0.000000
0.239982 0.462399 0.000000
0.168653 0.400416 0.000000
0.110561 0.340904 0.000000
0.078434 0.336900 0.000000
0.805678 0.900494 0.829473
0.790622 0.873561 0.801977
0.732396 0.781215 0.725789
0.735255 0.828093 0.794341
0.899605 0.697831 0.806562
0.833016 0.676803 0.527565
0.711097 0.663646 0.346186
0.603140 0.641108 0.207247
0.507279 0.611849 0.082817
0.419027 0.578215 0.000000
0.335998 0.541307 0.000000
0.257030 0.501115 0.000000
0.181848 0.455040 0.000000
0.108632 0.382395 0.000000
0.054899 0.346906 0.000000
0.026452 0.324819 0.000000
1.011070 0.932892 1.080820
0.982614 0.914065 1.043792
0.932590 0.880331 0.978935
0.799773 0.799774 0.799774
0.678033 0.744704 0.596039
0.572113 0.702675 0.411837
0.487434 0.669826 0.263485
0.412823 0.639144 0.134932
0.341536 0.607294 0.015128
0.270606 0.573304 0.000000
0.198396 0.536965 0.000000
0.122074 0.497367 0.000000
0.035477 0.451628 0.000000
0.000000 0.377359 0.000000
0.000000 0.377179 0.000000
0.000000 0.328023 0.000000
1.084489 0.880570 1.064214
1.046508 0.863473 1.033114
1.005559 0.842192 1.015295
0.879365 0.789604 0.961508
0.744835 0.887732 0.954938
0.555555 0.846542 0.679709
0.451380 0.798309 0.480262
0.367405 0.753055 0.320698
0.290456 0.711018 0.181597
0.218892 0.670848 0.052439
0.148673 0.632827 0.000000
0.075042 0.598259 0.000000
0.000000 0.571301 0.000000
0.000000 0.553873 0.000000
0.000000 0.525290 0.000000
0.000000 0.442750 0.000000
1.090599 0.841471 1.132524
1.051272 0.824633 1.096541
1.013965 0.807026 1.084369
0.929369 0.772954 1.072753
0.836495 0.836836 1.094781
0.680475 0.932200 1.050499
0.486888 0.893937 0.774170
0.370103 0.847271 0.555592
0.279494 0.800756 0.379193
0.197951 0.757369 0.229463
0.117758 0.718526 0.097164
0.032068 0.686089 0.000000
0.000000 0.677368 0.000000
0.000000 0.640699 0.000000
0.000000 0.612674 0.000000
0.000000 0.516088 0.000000
1.096149 0.803970 1.194545
1.055684 0.787110 1.154547
1.018768 0.771031 1.141331
0.954699 0.746128 1.145519
0.880395 0.794743 1.164910
0.764326 0.862504 1.172802
0.606191 0.951728 1.114193
0.412643 0.918823 0.848628
0.284612 0.877892 0.624412
0.183375 0.836439 0.439436
0.089002 0.798387 0.282475
0.000000 0.769691 0.143362
0.000000 0.747602 0.019793
0.000000 0.711136 0.000000
0.000000 0.681821 0.000000
0.000000 0.574233 0.000000
1.102614 0.766756 1.252182
1.060854 0.749946 1.208451
1.023849 0.734391 1.193250
0.968220 0.713496 1.201238
0.903539 0.754421 1.218319
0.809464 0.808888 1.236049
0.678353 0.877825 1.237344
0.515115 0.963138 1.173877
