remotion/public/assets/luts/VM Thermal Crush.cube
LUT_3D_SIZE 16
1.000090 1.000000 1.000000
0.939318 0.994262 0.969683
0.754287 0.972884 0.875610
0.569331 0.945737 0.778021
0.381030 0.913204 0.675960
0.183703 0.873490 0.566141
0.000000 0.824257 0.441425
0.000000 0.753385 0.278308
0.000000 0.612240 0.000000
0.000000 0.618548 0.000000
0.000000 0.623277 0.000000
0.000000 0.626653 0.000000
0.000000 0.628857 0.000000
0.000000 0.629998 0.000000
0.000000 0.630306 0.000000
0.000000 0.630311 0.000000
1.034898 0.979064 1.007581
1.024201 0.993448 0.967883
0.788164 0.976648 0.949222
0.591056 0.950080 0.832322
0.397505 0.917487 0.719045
0.197883 0.878259 0.603750
0.000000 0.829593 0.478540
0.000000 0.762214 0.325974
0.000000 0.611012 0.000000
0.000000 0.617653 0.000000
0.000000 0.622545 0.000000
0.000000 0.626076 0.000000
0.000000 0.628362 0.000000
0.000000 0.629571 0.000000
0.000000 0.630007 0.000000
0.000000 0.630022 0.000000
1.144428 0.908572 1.029271
1.120687 0.917699 1.084168
1.104071 0.971010 0.860319
0.698780 0.959803 1.033941
0.473196 0.930710 0.889459
0.258571 0.894078 0.755312
0.034666 0.848973 0.627283
0.000000 0.789979 0.511085
0.000000 0.684201 0.268880
0.000000 0.613699 0.000000
0.000000 0.619426 0.000000
0.000000 0.623546 0.000000
0.000000 0.626268 0.000000
0.000000 0.627891 0.000000
0.000000 0.628484 0.000000
0.000000 0.628793 0.000000
1.261741 0.825641 1.048818
1.246027 0.832801 1.096346
1.160336 0.869123 1.237585
1.198929 0.942349 0.728686
0.630240 0.942253 1.177776
0.379003 0.911056 1.028943
0.129425 0.872051 0.904819
0.000000 0.818944 0.880931
0.000000 0.761004 0.611556
0.000000 0.605477 0.035975
0.000000 0.612962 0.023410
0.000000 0.618379 0.014166
0.000000 0.622056 0.007232
0.000000 0.624316 0.001912
0.000000 0.625535 0.000000
0.000000 0.626313 0.000000
1.402829 0.714669 1.066922
1.388731 0.723027 1.115827
1.321266 0.756074 1.277131
1.178359 0.815610 1.471552
1.349632 0.892562 0.512009
0.520985 0.910075 1.472587
0.226445 0.875330 1.378456
0.012169 0.848173 1.144306
0.000000 0.809568 0.904633
0.000000 0.753854 0.635939
0.000000 0.602523 0.066464
0.000000 0.609980 0.049507
0.000000 0.615198 0.036565
0.000000 0.618668 0.026496
0.000000 0.620835 0.018605
0.000000 0.622244 0.012307
1.689734 0.456113 1.087603
1.686629 0.454592 1.102707
1.545989 0.563027 1.446298
1.384927 0.648423 1.672580
1.187039 0.741649 1.826371
1.487382 0.846641 0.313502
0.478992 0.895990 1.620467
0.249525 0.872151 1.405894
0.038635 0.844755 1.182371
0.000000 0.808851 0.953963
0.000000 0.760478 0.707703
0.000000 0.675382 0.357400
0.000000 0.605425 0.075498
0.000000 0.610512 0.059553
0.000000 0.614068 0.046874
0.000000 0.616573 0.036638
1.706132 0.460515 1.098075
1.703762 0.459474 1.107887
1.693503 0.455350 1.147474
1.572080 0.533498 1.407694
1.368005 0.653257 1.687338
1.178657 0.747681 1.834864
1.491368 0.849153 0.314368
0.490314 0.898507 1.633268
0.275123 0.872429 1.434072
0.073715 0.845474 1.226134
0.000000 0.813182 1.015992
0.000000 0.773300 0.799394
0.000000 0.719979 0.555345
0.000000 0.599788 0.099904
0.000000 0.604966 0.081910
0.000000 0.608834 0.067146
1.719491 0.464197 1.106771
1.717587 0.463365 1.113538
1.710597 0.460281 1.141580
1.693539 0.455061 1.192544
1.574465 0.524403 1.416039
1.348706 0.661929 1.706385
1.171774 0.753476 1.843345
1.494966 0.851082 0.315112
0.500705 0.902262 1.644925
0.301975 0.874548 1.461975
0.113282 0.848729 1.271805
0.000000 0.820369 1.081862
0.000000 0.788151 0.894482
0.000000 0.750912 0.705940
0.000000 0.704629 0.499605
0.000000 0.599238 0.102857
1.730292 0.467190 1.113909
1.729522 0.466517 1.118842
1.723548 0.464199 1.139355
1.711893 0.459939 1.178166
1.690009 0.454713 1.231684
1.547802 0.539710 1.467870
1.328630 0.672645 1.726482
1.165214 0.759185 1.851959
1.497609 0.852601 0.315669
0.458910 0.925902 1.615243
0.329125 0.877882 1.489655
0.154182 0.853515 1.316439
0.000000 0.828580 1.147039
0.000000 0.802126 0.984298
0.000000 0.774874 0.830137
0.000000 0.744212 0.675808
1.739471 0.469492 1.119531
1.738103 0.469069 1.123207
1.734055 0.467221 1.138863
1.724817 0.463829 1.168880
1.708908 0.459257 1.212041
1.683714 0.454256 1.263389
1.508679 0.564820 1.529365
1.308451 0.684125 1.746018
1.158985 0.764403 1.860162
1.500134 0.853954 0.316166
0.372402 0.967318 1.538148
0.355511 0.881709 1.515680
0.194943 0.858889 1.359431
0.050904 0.836932 1.207825
0.000000 0.815149 1.065542
0.000000 0.792840 0.930248
1.745874 0.471336 1.123822
1.744893 0.470875 1.126680
1.741952 0.469423 1.138901
1.734587 0.466661 1.162544
1.722292 0.462803 1.197680
1.703146 0.458234 1.241318
1.676776 0.453678 1.288243
1.467868 0.590656 1.584429
1.288443 0.695766 1.764507
1.152635 0.769342 1.867576
1.501599 0.854999 0.316519
0.279428 1.012890 1.432567
0.381074 0.885768 1.539896
0.233730 0.864256 1.398726
0.102234 0.844718 1.263515
0.000000 0.825740 1.134718
1.750556 0.472626 1.126837
1.749827 0.472346 1.129085
1.747343 0.471068 1.138879
1.741689 0.468790 1.157964
1.731849 0.465537 1.186779
1.716985 0.461459 1.223591
1.696011 0.457264 1.265706
1.668741 0.453110 1.307557
1.429770 0.614467 1.630914
1.269665 0.706811 1.781431
1.151477 0.772399 1.874147
1.502826 0.855582 0.316785
0.193544 1.058350 1.307023
0.405076 0.889449 1.562696
0.270495 0.869495 1.435112
0.147995 0.851583 1.311476
1.753606 0.473373 1.128793
1.752870 0.473090 1.130649
1.751071 0.472136 1.138604
1.746014 0.470213 1.154323
1.738386 0.467435 1.178060
1.726553 0.463954 1.209359
1.710058 0.460052 1.246163
1.687624 0.456119 1.285172
1.660738 0.452419 1.322181
1.394329 0.636089 1.669855
1.251632 0.717251 1.796926
1.177743 0.767053 1.878756
1.503744 0.855918 0.316937
0.128242 1.096697 1.181271
0.427361 0.893163 1.583139
0.302593 0.874149 1.466199
1.755050 0.473853 1.129805
1.754681 0.473633 1.131241
1.752644 0.472801 1.137805
1.748959 0.471220 1.150880
1.742929 0.468812 1.170823
1.733416 0.465783 1.197547
1.719706 0.462299 1.229677
1.701681 0.458582 1.265145
1.678895 0.454977 1.300736
1.552269 0.532659 1.480155
1.362431 0.654817 1.701663
1.234895 0.726570 1.810343
1.218803 0.757330 1.879478
1.503803 0.856238 0.317041
0.077367 1.131540 1.046335
0.447209 0.896305 1.601637
1.755682 0.473912 1.130007
1.755082 0.473785 1.131388
1.753786 0.473109 1.136866
1.750609 0.471721 1.147826
1.745289 0.469713 1.164887
1.737295 0.467068 1.187597
1.726533 0.463870 1.215640
1.711747 0.460515 1.247511
1.692894 0.457131 1.281003
1.670233 0.453861 1.313460
1.482792 0.580560 1.570804
1.333440 0.671702 1.728927
1.219606 0.735138 1.822267
1.271942 0.744091 1.875181
1.504032 0.856346 0.317068
0.047105 1.157558 0.926990
1.755694 0.473915 1.130011
1.755215 0.473801 1.131092
1.753899 0.473210 1.135825
1.751295 0.472056 1.145120
1.747299 0.470278 1.159629
1.740395 0.468046 1.179421
1.731325 0.465211 1.203912
1.718999 0.462198 1.232338
1.703248 0.458987 1.263062
1.684368 0.455838 1.294217
1.661981 0.452735 1.323320
1.436621 0.610331 1.625094
1.308919 0.685510 1.750452
1.205904 0.742654 1.832348
1.323622 0.731315 1.865976
1.504034 0.856347 0.317068
0.976401 0.973496 1.022307
1.005658 0.979049 0.950584
0.780250 0.972292 0.826386
0.585436 0.946265 0.743145
0.393281 0.913452 0.649282
0.194574 0.873850 0.543957
0.000000 0.824284 0.420638
0.000000 0.753347 0.253291
0.000000 0.612440 0.000000
0.000000 0.618683 0.000000
0.000000 0.623497 0.000000
0.000000 0.626907 0.000000
0.000000 0.629116 0.000000
0.000000 0.630260 0.000000
0.000000 0.630486 0.000000
0.000000 0.630495 0.000000
0.973737 1.005450 0.949484
0.976080 0.976082 0.976082
0.689012 0.963843 0.841402
0.518426 0.937578 0.750730
0.343609 0.905983 0.655346
0.153991 0.867171 0.549383
0.000000 0.817782 0.426078
0.000000 0.744615 0.258960
0.000000 0.612692 0.000000
0.000000 0.618885 0.000000
0.000000 0.623554 0.000000
0.000000 0.626817 0.000000
0.000000 0.628880 0.000000
0.000000 0.629977 0.000000
0.000000 0.630308 0.000000
0.000000 0.630320 0.000000
1.125616 0.923738 0.959560
1.150656 0.904378 1.030420
1.105193 0.970762 0.858760
0.667950 0.956965 1.007015
0.439648 0.925678 0.853946
0.226903 0.887620 0.718579
0.003972 0.841245 0.589696
0.000000 0.779670 0.468301
0.000000 0.627999 0.070189
0.000000 0.614868 0.000000
0.000000 0.620344 0.000000
0.000000 0.624262 0.000000
0.000000 0.626837 0.000000
0.000000 0.628249 0.000000
0.000000 0.628891 0.000000
0.000000 0.629089 0.000000
1.250151 0.836970 0.994931
1.265997 0.822296 1.049485
1.176542 0.861439 1.223860
1.199964 0.941888 0.727273
0.616041 0.940873 1.166373
0.360292 0.908638 1.010373
0.109085 0.868471 0.882806
0.000000 0.814436 0.853016
0.000000 0.753101 0.575183
0.000000 0.606600 0.032209
0.000000 0.613813 0.020338
0.000000 0.619043 0.011638
0.000000 0.622543 0.005135
0.000000 0.624695 0.000153
0.000000 0.625924 0.000000
0.000000 0.626541 0.000000
1.391395 0.726434 1.014438
1.407058 0.711244 1.067375
1.337870 0.747380 1.253479
1.187206 0.810968 1.467572
1.351667 0.891752 0.508880
0.512682 0.909223 1.468169
0.214936 0.874408 1.366619
0.000000 0.846423 1.129009
0.000000 0.806556 0.886729
0.000000 0.748649 0.611500
0.000000 0.603384 0.063827
0.000000 0.610613 0.047263
0.000000 0.615688 0.034653
0.000000 0.619038 0.024859
0.000000 0.621123 0.017199
0.000000 0.622533 0.011049
1.690370 0.457288 1.070629
1.690033 0.456270 1.087858
1.568662 0.548443 1.401363
1.398215 0.642044 1.658684
1.192380 0.739287 1.823171
1.487123 0.846693 0.313496
0.474653 0.895432 1.616657
0.242526 0.871502 1.398913
0.030239 0.843463 1.172818
0.000000 0.806851 0.942176
0.000000 0.757362 0.692382
0.000000 0.664702 0.317596
0.000000 0.605864 0.073842
0.000000 0.610907 0.058103
0.000000 0.614362 0.045591
0.000000 0.616829 0.035473
1.706286 0.461190 1.087028
1.705981 0.460600 1.098240
1.695950 0.456207 1.139230
1.595093 0.516502 1.364226
1.375930 0.649044 1.679500
1.181692 0.746244 1.833060
1.491315 0.849170 0.314374
0.487770 0.898300 1.630875
0.270495 0.871981 1.429706
0.068165 0.844682 1.220031
0.000000 0.812003 1.008375
0.000000 0.771442 0.790026
0.000000 0.716844 0.541682
0.000000 0.600104 0.098650
0.000000 0.605358 0.080792
0.000000 0.609128 0.066102
1.719633 0.464650 1.099094
1.719780 0.464261 1.106895
1.712341 0.460976 1.135503
1.695633 0.455579 1.187870
1.594881 0.509512 1.382184
1.353743 0.659193 1.701588
1.173532 0.752648 1.842154
1.494987 0.851094 0.315115
0.500031 0.901577 1.644308
0.298858 0.874283 1.459220
0.109430 0.848084 1.267714
0.000000 0.819417 1.076779
0.000000 0.786984 0.888564
0.000000 0.749515 0.698741
0.000000 0.702096 0.489219
0.000000 0.599509 0.101954
1.730745 0.467539 1.108345
1.730325 0.467204 1.113958
1.725203 0.464778 1.134851
1.712911 0.460444 1.174310
1.691542 0.455009 1.228799
1.559111 0.531718 1.450925
1.331930 0.670888 1.723438
1.166430 0.758575 1.851290
1.497620 0.852609 0.315669
0.461719 0.924021 1.617656
0.327036 0.877609 1.487668
0.151517 0.853001 1.313636
0.000000 0.828039 1.143630
0.000000 0.801611 0.980307
0.000000 0.773960 0.825785
0.000000 0.743178 0.670318
1.739285 0.469723 1.115246
1.739081 0.469518 1.119574
1.735262 0.467673 1.135408
1.725977 0.464139 1.165839
1.710084 0.459464 1.209661
1.685005 0.454406 1.261744
1.514783 0.560636 1.520829
1.310578 0.682994 1.744206
1.159706 0.764009 1.859357
1.500142 0.853934 0.316166
0.375937 0.965281 1.541628
0.354003 0.881456 1.514242
0.193046 0.858511 1.357395
0.048785 0.836491 1.205435
0.000000 0.814706 1.062806
0.000000 0.792264 0.926976
1.746160 0.471523 1.120512
1.745942 0.471351 1.123794
1.742707 0.469824 1.136160
1.735429 0.466981 1.160110
1.723181 0.463076 1.195502
1.704192 0.458459 1.239676
1.677378 0.453887 1.287287
1.471458 0.588298 1.579915
1.290034 0.694932 1.763559
1.153283 0.769038 1.867026
1.501606 0.854949 0.316520
0.282816 1.011119 1.436975
0.380055 0.885579 1.539005
0.232259 0.864007 1.397295
0.100663 0.844463 1.261731
0.000000 0.825556 1.132639
1.750757 0.472739 1.124133
1.750599 0.472647 1.126850
1.748043 0.471455 1.136693
1.742247 0.469022 1.155983
1.732503 0.465707 1.184896
1.717832 0.461667 1.222151
1.696548 0.457344 1.264536
1.669360 0.453124 1.306796
1.432179 0.613034 1.628053
1.270592 0.706173 1.780819
1.151410 0.772315 1.874141
1.502828 0.855582 0.316785
0.195951 1.056959 1.311037
0.404208 0.889293 1.561905
0.269469 0.869259 1.434066
0.146666 0.851506 1.310246
1.753771 0.473538 1.126629
1.753626 0.473352 1.128799
1.751495 0.472483 1.136709
1.746900 0.470405 1.152522
1.739135 0.467668 1.176557
1.727266 0.464143 1.208028
1.710423 0.460212 1.245082
1.688356 0.456229 1.284485
1.661292 0.452329 1.321705
1.395889 0.635119 1.667899
1.252397 0.716781 1.796216
1.176789 0.767348 1.878620
1.503746 0.855919 0.316937
0.129950 1.095578 1.184967
0.426756 0.893063 1.582921
0.301859 0.873886 1.465638
1.755012 0.473852 1.127872
1.755058 0.473855 1.129807
1.753320 0.472977 1.136416
1.749722 0.471473 1.149492
1.743249 0.469005 1.169533
1.733581 0.465847 1.196327
1.720069 0.462426 1.228649
1.702016 0.458693 1.264312
1.679532 0.455079 1.300447
1.555995 0.529767 1.474584
1.363568 0.654281 1.700611
1.235473 0.726261 1.809654
1.217413 0.757583 1.879488
1.503803 0.856238 0.317041
0.078390 1.130734 1.049649
0.446821 0.896114 1.601148
1.755769 0.474028 1.128600
1.755680 0.473912 1.130007
1.753839 0.473227 1.135541
1.750875 0.471942 1.146614
1.745766 0.469803 1.163639
1.737933 0.467126 1.186562
1.726533 0.464022 1.214746
1.711812 0.460628 1.246748
1.693265 0.457184 1.280275
1.670672 0.453831 1.312881
1.484423 0.579424 1.568602
1.334224 0.671274 1.728058
1.219952 0.734874 1.821927
1.270454 0.744445 1.875471
1.504031 0.856346 0.317068
0.047713 1.156971 0.930017
1.755786 0.474010 1.128813
1.755715 0.473918 1.130017
1.754250 0.473360 1.134756
1.751815 0.472158 1.144069
1.747277 0.470458 1.158704
1.740935 0.468113 1.178578
1.731370 0.465335 1.203089
1.719239 0.462206 1.231514
1.703766 0.458971 1.262543
1.684401 0.455818 1.293900
1.662322 0.452795 1.323102
1.437534 0.609659 1.623988
1.309461 0.685213 1.750197
1.206234 0.742418 1.831942
1.322247 0.731579 1.866336
1.504037 0.856349 0.317069
0.902980 0.891320 1.082983
0.980059 0.875298 1.072311
1.018274 0.911067 0.797134
0.686332 0.933838 0.621363
0.455147 0.910206 0.544348
0.242929 0.872930 0.453125
0.021017 0.823884 0.335574
0.000000 0.752495 0.158846
0.000000 0.614978 0.000000
0.000000 0.620210 0.000000
0.000000 0.624568 0.000000
0.000000 0.627578 0.000000
0.000000 0.629525 0.000000
0.000000 0.630540 0.000000
0.000000 0.630776 0.000000
0.000000 0.630690 0.000000
0.845018 0.932526 1.044202
0.862580 0.847518 1.096940
1.020527 0.891621 0.754638
0.632901 0.928976 0.596696
0.411135 0.904875 0.536743
0.206400 0.867212 0.450683
0.000000 0.817824 0.334427
0.000000 0.744037 0.152859
0.000000 0.615207 0.000000
0.000000 0.620201 0.000000
0.000000 0.624514 0.000000
0.000000 0.627515 0.000000
0.000000 0.629469 0.000000
0.000000 0.630400 0.000000
0.000000 0.630662 0.000000
0.000000 0.630555 0.000000
0.886403 1.021055 0.783104
0.882642 1.021644 0.776070
0.901822 0.901823 0.901823
0.537634 0.892136 0.734113
0.274489 0.873010 0.606378
0.058175 0.839829 0.491424
0.000000 0.789692 0.360264
0.000000 0.694955 0.152289
0.000000 0.614841 0.000000
0.000000 0.620279 0.000000
0.000000 0.624455 0.000000
0.000000 0.627400 0.000000
0.000000 0.629165 0.000000
0.000000 0.630117 0.000000
0.000000 0.630311 0.000000
0.000000 0.630333 0.000000
1.156455 0.893953 0.785115
1.178463 0.882201 0.811893
1.218023 0.814727 1.021181
1.160655 0.929689 0.737343
0.539389 0.928669 1.084974
0.261663 0.894546 0.906868
0.004347 0.848057 0.766477
0.000000 0.787713 0.703960
0.000000 0.698648 0.347258
0.000000 0.611645 0.015287
0.000000 0.617688 0.006703
0.000000 0.622033 0.000518
0.000000 0.624867 0.000000
0.000000 0.626478 0.000000
0.000000 0.627389 0.000000
0.000000 0.627862 0.000000
1.329648 0.773977 0.819063
1.346636 0.762203 0.851911
1.423871 0.696255 1.068760
1.237314 0.786210 1.435833
1.360609 0.888696 0.495812
0.471645 0.905019 1.441344
0.158784 0.869036 1.306965
0.000000 0.836764 1.054696
0.000000 0.790914 0.797367
0.000000 0.718511 0.479698
0.000000 0.606920 0.052096
0.000000 0.613418 0.037361
0.000000 0.617844 0.026266
0.000000 0.620835 0.017734
0.000000 0.622519 0.011101
0.000000 0.623785 0.005653
1.557189 0.572931 0.674508
1.578274 0.556971 0.729390
1.691534 0.456578 1.088671
1.464306 0.608091 1.577857
1.218472 0.726931 1.806896
1.487367 0.846784 0.313546
0.454109 0.893361 1.598697
0.209372 0.867918 1.365303
0.000000 0.837519 1.128300
0.000000 0.797498 0.887226
0.000000 0.741322 0.618186
0.000000 0.601098 0.085398
0.000000 0.607926 0.066552
0.000000 0.612594 0.051726
0.000000 0.615685 0.040027
0.000000 0.618085 0.030473
1.707496 0.464851 1.037800
1.707714 0.464028 1.049049
1.706872 0.460810 1.098786
1.682950 0.452286 1.182362
1.413975 0.628875 1.639040
1.195325 0.739540 1.824142
1.491422 0.849082 0.314398
0.475572 0.896521 1.620184
0.249901 0.869489 1.409120
0.042784 0.840890 1.192062
0.000000 0.806220 0.973695
0.000000 0.762944 0.746619
0.000000 0.700604 0.474180
0.000000 0.601680 0.093231
0.000000 0.606613 0.075902
0.000000 0.610362 0.061612
1.720619 0.466986 1.065332
1.720552 0.466448 1.073080
1.720138 0.464365 1.107265
1.704074 0.458014 1.165596
1.673169 0.450886 1.241659
1.376969 0.646688 1.679040
1.181452 0.748533 1.836669
1.495019 0.851137 0.315126
0.492614 0.900432 1.637860
0.285262 0.872567 1.446099
0.092387 0.845766 1.249367
0.000000 0.815966 1.054207
0.000000 0.782201 0.861947
0.000000 0.742610 0.665919
0.000000 0.689886 0.438937
0.000000 0.600601 0.098080
1.731267 0.469128 1.083787
1.731451 0.468828 1.089461
1.730950 0.467240 1.114292
1.719155 0.462390 1.156857
1.697350 0.456278 1.215845
1.663532 0.450396 1.281276
1.346633 0.662755 1.710172
1.171438 0.755897 1.847578
1.497668 0.852663 0.315676
0.473219 0.916955 1.626269
0.317705 0.876473 1.478604
0.139659 0.851401 1.301460
0.000000 0.825621 1.128567
0.000000 0.798679 0.962972
0.000000 0.770377 0.806177
0.000000 0.737876 0.645940
1.740095 0.470868 1.096735
1.740006 0.470723 1.101070
1.739443 0.469608 1.119725
1.730453 0.465858 1.152018
1.714648 0.460649 1.198339
1.689588 0.455200 1.253868
1.545891 0.539135 1.477499
1.320382 0.677659 1.736071
1.162996 0.762246 1.857343
1.500170 0.853950 0.316143
0.391599 0.957001 1.556709
0.347413 0.880556 1.507912
0.184592 0.857372 1.348769
0.039314 0.834897 1.195030
0.000000 0.812846 1.051012
0.000000 0.789919 0.913375
1.746485 0.472359 1.106155
1.746238 0.472176 1.109404
1.746021 0.471434 1.123936
1.739212 0.468329 1.149004
1.726786 0.464166 1.186067
1.707650 0.459246 1.232452
1.680688 0.454350 1.282220
1.488736 0.577235 1.558502
1.296690 0.691310 1.757865
1.155425 0.767896 1.865510
1.501623 0.854959 0.316523
0.296606 1.003803 1.454296
0.375241 0.884704 1.534735
0.226071 0.863175 1.391108
0.093799 0.843432 1.254447
0.000000 0.824213 1.123944
1.750966 0.473365 1.112686
1.750994 0.473285 1.115452
1.750804 0.472661 1.126857
1.745007 0.470201 1.146953
1.735448 0.466607 1.177027
1.720765 0.462458 1.215633
1.699440 0.457845 1.259569
1.671857 0.453520 1.303744
1.442611 0.606414 1.616298
1.275367 0.703596 1.777053
1.150952 0.772028 1.873030
1.502839 0.855593 0.316786
0.206450 1.050921 1.328303
0.400779 0.888700 1.558551
0.264863 0.868585 1.429773
0.141387 0.850583 1.304580
1.753773 0.474082 1.117301
1.753863 0.473896 1.119444
1.753523 0.473357 1.128768
1.748996 0.471465 1.145006
1.741277 0.468485 1.169818
1.729548 0.464772 1.202216
1.712947 0.460709 1.240447
1.690424 0.456487 1.281265
1.662888 0.452575 1.319554
1.403021 0.630881 1.660831
1.255679 0.714963 1.793665
1.172232 0.768360 1.877775
1.503750 0.855921 0.316938
0.137443 1.090906 1.201336
0.424201 0.892620 1.580398
0.298223 0.873559 1.462069
1.755360 0.474366 1.120291
1.755297 0.474298 1.122062
1.754995 0.473862 1.129819
1.751540 0.472214 1.143268
1.744988 0.469679 1.163835
1.735581 0.466486 1.191283
1.722094 0.462890 1.224463
1.704105 0.458993 1.260998
1.681261 0.455339 1.298033
1.575824 0.515269 1.447030
1.368586 0.651382 1.695879
1.237854 0.725021 1.808078
1.211943 0.758872 1.879527
1.503805 0.856239 0.317041
0.083071 1.127255 1.064209
0.444726 0.895896 1.599219
1.755807 0.474423 1.122190
1.756018 0.474380 1.123648
1.755682 0.473912 1.130007
1.752524 0.472546 1.141320
1.747421 0.470447 1.158759
1.739409 0.467674 1.182076
1.728600 0.464435 1.210990
1.713520 0.460960 1.243476
1.694785 0.457452 1.278044
1.671948 0.454091 1.311413
1.492471 0.574187 1.558809
1.337820 0.669196 1.724802
1.221750 0.733911 1.820433
1.264555 0.745827 1.876010
1.504031 0.856346 0.317068
0.050300 1.154411 0.942547
1.756054 0.474407 1.123368
1.755981 0.474307 1.124676
1.755772 0.473933 1.130041
1.752869 0.472782 1.139485
1.748808 0.470971 1.154300
1.741956 0.468565 1.174397
1.733079 0.465675 1.199450
1.720655 0.462570 1.228558
1.704964 0.459210 1.260000
1.685766 0.456075 1.292114
1.663447 0.452894 1.321726
1.442734 0.606408 1.618087
1.312354 0.683681 1.747626
1.207678 0.741582 1.830915
1.316856 0.732855 1.867620
1.504050 0.856357 0.317071
0.828202 0.808594 1.133618
0.883242 0.796305 1.133976
1.057856 0.769126 1.038211
1.024297 0.837930 0.639952
0.633832 0.877001 0.406345
0.357453 0.858974 0.308237
0.110647 0.815966 0.196295
0.000000 0.745093 0.013490
0.000000 0.613536 0.000000
0.000000 0.621804 0.000000
0.000000 0.626960 0.000000
0.000000 0.629505 0.000000
0.000000 0.631187 0.000000
0.000000 0.631868 0.000000
0.000000 0.631814 0.000000
0.000000 0.631622 0.000000
0.786827 0.837209 1.115156
0.776870 0.751893 1.163093
1.043811 0.729799 1.066864
1.024684 0.823290 0.609057
0.602978 0.872142 0.380398
0.326646 0.854223 0.294001
0.081910 0.810737 0.186031
0.000000 0.736687 0.000000
0.000000 0.614466 0.000000
0.000000 0.622215 0.000000
0.000000 0.626955 0.000000
0.000000 0.629479 0.000000
0.000000 0.631026 0.000000
0.000000 0.631713 0.000000
0.000000 0.631751 0.000000
0.000000 0.631505 0.000000
0.660168 0.946467 0.960012
0.647834 0.926656 0.987667
0.773837 0.754935 1.066098
0.978235 0.796531 0.603437
0.485444 0.854981 0.348816
0.201789 0.834849 0.268267
0.000000 0.786893 0.152963
0.000000 0.686534 0.000000
0.000000 0.617720 0.000000
0.000000 0.623265 0.000000
0.000000 0.626746 0.000000
0.000000 0.629095 0.000000
0.000000 0.630593 0.000000
0.000000 0.631216 0.000000
0.000000 0.631203 0.000000
0.000000 0.631028 0.000000
0.782807 1.035103 0.589387
0.779817 1.035409 0.584019
0.779054 1.010403 0.601801
0.827840 0.827841 0.827841
0.399854 0.822283 0.634087
0.095933 0.788398 0.479780
0.000000 0.736847 0.318282
0.000000 0.588533 0.000000
0.000000 0.603097 0.000000
0.000000 0.613779 0.000000
0.000000 0.621722 0.000000
0.000000 0.628085 0.000000
0.000000 0.629591 0.000000
0.000000 0.630279 0.000000
0.000000 0.630311 0.000000
0.000000 0.630341 0.000000
1.125973 0.876415 0.510347
1.141585 0.868504 0.519807
1.221188 0.828084 0.585151
1.270474 0.709111 0.996729
1.199706 0.868696 0.593315
0.420951 0.870139 1.147524
0.024827 0.825612 1.113117
0.000000 0.788489 0.840265
0.000000 0.725950 0.530343
0.000000 0.600274 0.039703
0.000000 0.610764 0.025738
0.000000 0.619039 0.015684
0.000000 0.622474 0.008204
0.000000 0.624445 0.002548
0.000000 0.625477 0.000000
0.000000 0.626285 0.000000
1.377772 0.682099 0.328900
1.395066 0.673246 0.354402
1.474562 0.628725 0.488919
1.631891 0.440587 1.050504
1.251065 0.672263 1.703116
1.446174 0.823228 0.304838
0.396861 0.867208 1.517793
0.132156 0.843197 1.261438
0.000000 0.810832 1.007387
0.000000 0.764648 0.743089
0.000000 0.682363 0.385399
0.000000 0.606090 0.067230
0.000000 0.612216 0.050830
0.000000 0.616073 0.038143
0.000000 0.618606 0.028262
0.000000 0.620488 0.020269
1.579038 0.567280 0.678216
1.599076 0.552892 0.722742
1.707491 0.469425 0.988195
1.670775 0.451058 1.075434
1.481411 0.561974 1.479716
1.204011 0.709763 1.767994
1.463911 0.833415 0.308594
0.442058 0.879038 1.571097
0.201800 0.852603 1.345303
0.000000 0.823739 1.117299
0.000000 0.787745 0.888128
0.000000 0.739733 0.639666
0.000000 0.620661 0.176573
0.000000 0.604954 0.081670
0.000000 0.609369 0.065565
0.000000 0.612695 0.052435
1.719388 0.473074 0.991822
1.719857 0.472355 0.999562
1.721615 0.469642 1.033784
1.693508 0.457190 1.090105
1.664123 0.447262 1.185269
1.409209 0.607409 1.596379
1.180770 0.728574 1.797551
1.472316 0.838229 0.310328
