remotion/public/assets/luts/VM Thermal Flip.cube
LUT_3D_SIZE 6
1.000000 1.000000 1.000000
1.110915 0.784170 0.784170
1.200679 0.455433 0.455433
1.250006 -0.368392 -0.368392
1.270845 -0.508610 -0.508610
1.273715 -0.524599 -0.524599
0.664321 1.042017 0.664321
1.010886 1.010886 0.603162
1.169510 0.623453 0.302242
1.235863 -0.135548 -0.436912
1.263239 -0.455927 -0.534864
1.269329 -0.495741 -0.539728
-0.511730 1.078663 -0.511730
0.252275 1.068009 -0.540565
1.020755 1.020755 -0.644981
1.172552 0.642408 -0.633351
1.230034 0.269530 -0.631003
1.249873 -0.330455 -0.598662
-0.775436 1.099703 -0.775436
-0.702173 1.094696 -0.783578
0.318991 1.072897 -0.816936
1.026570 1.026570 -0.879332
1.158468 0.709452 -0.780413
1.209128 0.471374 -0.698384
-0.858649 1.108822 -0.858649
-0.825092 1.106044 -0.862522
-0.652769 1.094301 -0.878800
0.502092 1.069853 -0.910693
1.029108 1.029108 -0.958662
1.139784 0.773169 -0.825533
-0.869679 1.110075 -0.869679
-0.850343 1.108421 -0.871957
-0.759669 1.101549 -0.881459
-0.501292 1.087281 -0.900505
0.630778 1.063923 -0.929745
1.029479 1.029479 -0.969248
0.813404 0.813404 1.129043
1.101397 0.768495 1.101397
1.197587 0.443201 0.687609
1.248641 -0.376097 0.241855
1.270066 -0.511349 -0.426070
1.273402 -0.526116 -0.480379
0.644438 1.031590 1.031590
0.827849 0.827849 0.827849
1.148672 0.333552 0.333552
1.240342 -0.420756 -0.420756
1.272380 -0.517022 -0.517022
1.273773 -0.524846 -0.524846
-0.521736 1.075047 0.299311
-0.504645 1.056417 -0.504645
1.002033 1.002033 -0.621785
1.173154 0.583796 -0.615579
1.237530 0.046275 -0.618159
1.254139 -0.374777 -0.587094
-0.778215 1.098010 -0.696033
-0.769809 1.088376 -0.769809
-0.166331 1.064716 -0.804003
1.014647 1.014647 -0.867910
1.163190 0.692703 -0.774223
1.212695 0.447030 -0.691047
-0.859968 1.107859 -0.822348
-0.859474 1.108862 -0.859474
-0.692185 1.096716 -0.876368
0.463729 1.071386 -0.909313
1.028633 1.028633 -0.958365
1.141999 0.766222 -0.822300
-0.870458 1.109474 -0.848799
-0.869972 1.110121 -0.869972
-0.780588 1.103049 -0.879792
-0.530358 1.088479 -0.899268
0.617731 1.064680 -0.929231
1.029491 1.029491 -0.969643
0.560932 0.560932 1.231805
0.740730 0.533617 1.223031
1.184197 0.384562 1.184197
1.242483 -0.406910 0.787927
1.266758 -0.522810 0.469984
1.271407 -0.532722 0.060189
0.459688 0.696688 1.201839
0.422433 0.422433 1.152730
1.144008 0.259695 1.144008
1.234663 -0.444922 0.717694
1.268909 -0.528380 0.383481
1.271881 -0.531592 -0.249828
-0.561996 1.059494 1.059494
-0.548139 1.038535 1.038535
0.605718 0.605718 0.605718
0.994268 -0.345552 -0.345552
1.197778 -0.493257 -0.493257
1.089311 -0.448622 -0.448622
-0.789880 1.090693 0.401885
-0.781615 1.080397 0.219197
-0.681021 0.970536 -0.681021
0.918814 0.918814 -0.771255
1.123497 0.561131 -0.697627
1.051066 0.247994 -0.558340
-0.865543 1.103880 -0.632447
-0.865254 1.104779 -0.676621
-0.820898 1.056792 -0.820898
-0.171183 1.028785 -0.858465
0.981266 0.981266 -0.913986
0.991163 0.629475 -0.692303
-0.873708 1.107165 -0.750092
-0.873406 1.107758 -0.772930
-0.776462 0.991134 -0.776462
-0.575227 0.976932 -0.795855
0.491308 0.953694 -0.825592
0.919177 0.919177 -0.865416
0.248284 0.248284 1.287798
0.454184 0.202383 1.283707
0.831931 -0.253078 1.266389
1.230030 -0.461087 1.230030
1.260155 -0.545132 0.890562
1.267504 -0.545766 0.648104
-0.151312 0.410538 1.274161
-0.243641 -0.243641 1.262760
0.761051 -0.341324 1.255969
1.221838 -0.490187 1.221838
1.261788 -0.550576 0.872214
1.267887 -0.545049 0.625057
-0.519648 0.731484 1.213738
-0.510337 0.677874 1.215303
-0.148019 -0.148019 1.026103
1.034636 -0.430911 1.034636
1.194314 -0.520991 0.724094
1.094908 -0.465380 0.425397
-0.812897 1.075672 1.075672
-0.804919 1.063998 1.063998
-0.713197 0.954224 0.954224
0.383572 0.383572 0.383572
0.757108 -0.311304 -0.311304
0.724046 -0.298204 -0.298204
-0.876802 1.095762 0.571298
-0.876825 1.096367 0.537080
-0.833935 1.047417 0.239504
-0.677575 0.871652 -0.677575
0.830877 0.830877 -0.772403
0.671626 0.352704 -0.428674
-0.880296 1.102436 -0.452909
-0.880101 1.102823 -0.488481
-0.783166 0.986320 -0.554897
-0.544496 0.695009 -0.544496
0.130007 0.674811 -0.571408
0.644576 0.644576 -0.606866
-0.306931 -0.306931 1.311242
0.106422 -0.322765 1.309093
0.584555 -0.380720 1.299815
0.923555 -0.470816 1.280663
1.249294 -0.578328 1.249294
1.261112 -0.565762 0.963938
-0.356404 -0.164745 1.303927
-0.333902 -0.333902 1.314497
0.525906 -0.389648 1.304460
0.907391 -0.477044 1.283821
1.250422 -0.583799 1.250422
1.261441 -0.565531 0.956353
-0.503363 0.491305 1.272263
-0.489425 0.436761 1.280253
-0.295189 -0.295189 1.160033
0.752158 -0.422229 1.188486
1.187217 -0.561387 1.187217
1.104146 -0.491829 0.803666
-0.691679 0.795510 1.204225
-0.685344 0.781042 1.208965
-0.608884 0.662702 1.168669
-0.203340 -0.203340 0.800263
0.855561 -0.404244 0.855561
0.750450 -0.328738 0.474047
-0.894389 1.082670 1.082670
-0.894950 1.082690 1.082690
-0.854176 1.032158 1.032158
-0.711545 0.859819 0.859819
0.161391 0.161391 0.161391
0.283486 -0.116749 -0.116749
-0.890674 1.094693 0.691893
-0.890734 1.094934 0.679581
-0.793611 0.978632 0.550558
-0.553853 0.688278 0.219690
-0.223330 0.285076 -0.223330
0.264305 0.264305 -0.248851
-0.334504 -0.334504 1.314475
-0.246337 -0.342969 1.313302
0.421843 -0.376271 1.307876
0.718570 -0.433603 1.296628
0.989050 -0.507801 1.278574
1.252030 -0.592557 1.252030
-0.361899 -0.275208 1.310284
-0.335375 -0.335375 1.314688
0.369232 -0.370327 1.309112
0.700147 -0.429889 1.297748
0.982339 -0.506297 1.279255
1.252200 -0.593015 1.252200
-0.455523 0.330757 1.291856
-0.438601 0.275590 1.295759
-0.298654 -0.298654 1.173733
0.536761 -0.363706 1.162526
0.847118 -0.442626 1.144392
1.117872 -0.529052 1.117872
-0.590196 0.609628 1.252841
-0.581121 0.592785 1.256304
-0.474258 0.448555 1.135515
-0.209422 -0.209422 0.823042
0.528537 -0.291751 0.807214
0.783894 -0.371002 0.783894
-0.743404 0.851444 1.187048
-0.739808 0.845333 1.189258
-0.642362 0.728279 1.070619
-0.412627 0.452374 0.767901
-0.085896 -0.085896 0.337575
0.321521 -0.152156 0.321521
-0.905214 1.083668 1.083668
-0.905542 1.083703 1.083703
-0.808182 0.967533 0.967533
-0.566738 0.678442 0.678442
-0.232451 0.278276 0.278276
0.000000 0.000000 0.000000
