remotion/public/assets/luts/VM Thermal Royalty.cube
LUT_3D_SIZE 16
1.000090 1.000000 1.000091
0.939310 0.994299 0.971382
0.754267 0.972212 0.881872
0.569303 0.944778 0.789128
0.381027 0.911587 0.691710
0.183670 0.871602 0.586558
0.000000 0.821735 0.466831
0.000000 0.750275 0.309812
0.000000 0.607961 0.018993
0.000000 0.614247 0.019189
0.000000 0.618986 0.019335
0.000000 0.622344 0.019440
0.000000 0.624562 0.019509
0.000000 0.625639 0.019545
0.000000 0.625919 0.019551
0.000000 0.625924 0.019551
1.014560 0.981861 1.037619
0.977591 1.000754 1.033582
0.784641 0.979031 0.934333
0.590670 0.950669 0.827908
0.397761 0.916966 0.723516
0.198273 0.876826 0.615516
0.000000 0.827567 0.496896
0.000000 0.759249 0.351570
0.000000 0.607369 0.018972
0.000000 0.613748 0.019173
0.000000 0.618597 0.019322
0.000000 0.622065 0.019431
0.000000 0.624226 0.019500
0.000000 0.625459 0.019536
0.000000 0.625819 0.019548
0.000000 0.625810 0.019548
1.058680 0.921231 1.156004
1.026186 0.938787 1.153916
0.901921 1.002451 1.144740
0.673812 0.972401 0.984874
0.462825 0.937566 0.852485
0.254335 0.897573 0.732714
0.033143 0.850483 0.617074
0.000000 0.789848 0.511717
0.000000 0.682686 0.280227
0.000000 0.611676 0.019108
0.000000 0.616902 0.019272
0.000000 0.620647 0.019390
0.000000 0.623043 0.019464
0.000000 0.624531 0.019508
0.000000 0.624983 0.019522
0.000000 0.625126 0.019528
1.103248 0.849119 1.283043
1.076773 0.864246 1.282654
0.976481 0.919439 1.280843
0.808819 1.002935 1.277331
0.567938 0.969282 1.093478
0.341170 0.930219 0.951176
0.105154 0.885609 0.841822
0.000000 0.830528 0.829136
0.000000 0.766664 0.580018
0.000000 0.607318 0.018970
0.000000 0.613425 0.019162
0.000000 0.617837 0.019301
0.000000 0.620767 0.019392
0.000000 0.622487 0.019445
0.000000 0.623329 0.019471
0.000000 0.623739 0.019486
1.152856 0.751725 1.436553
1.124565 0.769002 1.437914
1.023762 0.827724 1.443296
0.865217 0.910277 1.455795
0.654676 1.000502 1.489237
0.384822 0.964660 1.334085
0.116111 0.922484 1.235523
0.000000 0.879193 1.030936
0.000000 0.829064 0.818858
0.000000 0.765665 0.572551
0.000000 0.607830 0.018987
0.000000 0.613316 0.019158
0.000000 0.617057 0.019274
0.000000 0.619473 0.019350
0.000000 0.620738 0.019391
0.000000 0.621552 0.019415
1.241607 0.522525 1.750228
1.240353 0.522036 1.748513
1.001254 0.694747 1.746847
0.837377 0.804985 1.735527
0.677668 0.904390 1.714779
0.513515 0.998047 1.683081
0.304015 0.964744 1.454950
0.122359 0.926346 1.245563
0.000000 0.883377 1.043992
0.000000 0.835395 0.840312
0.000000 0.778198 0.616413
0.000000 0.685982 0.284291
0.000000 0.611672 0.019108
0.000000 0.614930 0.019210
0.000000 0.617057 0.019274
0.000000 0.618446 0.019318
1.253601 0.527553 1.767020
1.252656 0.527203 1.765670
1.249034 0.525628 1.760630
1.075217 0.646337 1.753497
0.846188 0.802919 1.741056
0.676461 0.908607 1.719010
0.514920 1.000853 1.687671
0.312040 0.968335 1.466802
0.135602 0.931228 1.263405
0.000000 0.890427 1.070382
0.000000 0.846239 0.880877
0.000000 0.796944 0.685489
0.000000 0.736268 0.460435
0.000000 0.609017 0.019025
0.000000 0.612066 0.019119
0.000000 0.614243 0.019186
1.263431 0.531738 1.781119
1.262699 0.531461 1.780093
1.259995 0.530254 1.776053
1.254080 0.527794 1.767689
1.101739 0.630546 1.758054
0.842094 0.808774 1.744267
0.671983 0.914342 1.722039
0.516106 1.003154 1.691609
0.321791 0.972136 1.480011
0.153125 0.936630 1.285903
0.001910 0.898848 1.104354
0.000000 0.858939 0.931260
0.000000 0.817332 0.762901
0.000000 0.772915 0.592951
0.000000 0.720536 0.403426
0.000000 0.608864 0.019019
1.271623 0.535173 1.792522
1.271108 0.534950 1.791827
1.268707 0.533990 1.788489
1.264322 0.532073 1.782429
1.256871 0.529021 1.771816
1.079065 0.649572 1.760886
0.830561 0.818877 1.746194
0.665777 0.920504 1.724006
0.517074 1.005045 1.694949
0.332688 0.975733 1.494000
0.173014 0.942389 1.310686
0.031528 0.907623 1.141577
0.000000 0.872241 0.985134
0.000000 0.836948 0.839058
0.000000 0.801986 0.702549
0.000000 0.765209 0.564873
1.278104 0.537866 1.801612
1.277574 0.537724 1.800871
1.275695 0.536939 1.798399
1.272263 0.535404 1.793256
1.266425 0.532932 1.785319
1.257935 0.529429 1.773512
1.037057 0.681527 1.762489
0.814908 0.830838 1.747073
0.658501 0.926783 1.725336
0.517853 1.006554 1.697314
0.343895 0.978722 1.507922
0.193670 0.947830 1.335903
0.062574 0.916234 1.179991
0.000000 0.884794 1.038226
0.000000 0.854494 0.910236
0.000000 0.824629 0.790831
1.282874 0.539887 1.808549
1.282549 0.539753 1.807904
1.281287 0.539147 1.805958
1.278261 0.537960 1.801969
1.273472 0.535939 1.795033
1.266689 0.533157 1.785752
1.257781 0.529347 1.772996
0.992874 0.713769 1.762628
0.796825 0.843747 1.747229
0.650580 0.932984 1.725610
0.518455 1.007698 1.699414
0.354835 0.981457 1.521111
0.214719 0.953139 1.361150
0.093078 0.924307 1.217096
0.000000 0.896475 1.088854
0.000000 0.869259 0.971847
1.286261 0.541370 1.813320
1.286075 0.541247 1.812802
1.284907 0.540732 1.811175
1.282486 0.539776 1.807810
1.278728 0.538165 1.802700
1.273233 0.535842 1.794904
1.265905 0.532770 1.784433
1.256661 0.528852 1.771548
0.951431 0.743442 1.761909
0.778570 0.856513 1.745998
0.642607 0.938660 1.725489
0.518852 1.008527 1.700906
0.365978 0.984158 1.534168
0.235050 0.958116 1.385293
0.122683 0.931889 1.252824
0.024237 0.906271 1.133737
1.288638 0.542312 1.816198
1.288240 0.542165 1.815992
1.287309 0.541828 1.814516
1.285284 0.540946 1.811784
1.282244 0.539629 1.807688
1.277767 0.537743 1.801144
1.271648 0.535223 1.792686
1.264006 0.532011 1.782022
1.254745 0.528053 1.768606
0.913002 0.770083 1.760370
0.760197 0.868659 1.744571
0.634316 0.944336 1.725018
0.519122 1.009039 1.701665
0.375957 0.986157 1.545791
0.254407 0.962240 1.407788
0.148915 0.938260 1.284075
1.289789 0.542774 1.818070
1.289454 0.542656 1.817517
1.288688 0.542378 1.816415
1.287122 0.541660 1.814259
1.284329 0.540567 1.810355
1.280660 0.539010 1.805470
1.275714 0.536906 1.798288
1.269511 0.534239 1.789248
1.261616 0.530950 1.778176
1.106256 0.636185 1.768614
0.879011 0.792979 1.757995
0.742527 0.879972 1.742788
0.626758 0.949028 1.724007
0.519271 1.009325 1.702193
0.386283 0.988109 1.557356
0.272033 0.965823 1.427868
1.289971 0.542928 1.818286
1.289897 0.542869 1.818355
1.289164 0.542542 1.817351
1.287812 0.541976 1.815475
1.285555 0.541067 1.812321
1.282410 0.539771 1.807795
1.278327 0.537983 1.801804
1.273061 0.535774 1.794524
1.266621 0.533050 1.785378
1.258764 0.529731 1.774386
1.017493 0.699226 1.766462
0.847721 0.813456 1.755180
0.725861 0.890103 1.740370
0.618851 0.953513 1.722671
0.519334 1.009407 1.702144
0.394771 0.989703 1.566659
1.289977 0.542930 1.818295
1.289942 0.542889 1.818418
1.289246 0.542630 1.817232
1.288105 0.542113 1.815644
1.286219 0.541353 1.813262
1.283599 0.540206 1.809744
1.280222 0.538771 1.804717
1.275594 0.536875 1.798233
1.270225 0.534554 1.790428
1.263536 0.531781 1.781352
1.255804 0.528492 1.770340
0.962149 0.737379 1.764125
0.821619 0.830328 1.752692
0.710886 0.899351 1.738448
0.612284 0.957461 1.721713
0.519335 1.009408 1.702148
0.997521 0.975146 0.943205
0.961180 0.993244 0.938380
0.772421 0.971603 0.854048
0.582761 0.944318 0.768631
0.391862 0.911268 0.674793
0.193547 0.871486 0.571228
0.000000 0.821587 0.450953
0.000000 0.750199 0.288169
0.000000 0.607873 0.018989
0.000000 0.614248 0.019186
0.000000 0.618924 0.019333
0.000000 0.622304 0.019440
0.000000 0.624464 0.019509
0.000000 0.625611 0.019543
0.000000 0.625894 0.019551
0.000000 0.625902 0.019551
1.036996 0.981110 1.004264
0.976080 0.976082 0.976081
0.688986 0.963102 0.849605
0.518448 0.936240 0.763137
0.343566 0.904295 0.672020
0.153940 0.865213 0.570486
0.000000 0.815146 0.452042
0.000000 0.741560 0.291184
0.000000 0.608426 0.019007
0.000000 0.614618 0.019199
0.000000 0.619197 0.019343
0.000000 0.622462 0.019443
0.000000 0.624569 0.019511
0.000000 0.625619 0.019544
0.000000 0.625920 0.019551
0.000000 0.625932 0.019552
1.079365 0.920701 1.126203
1.061191 0.917388 1.162868
0.900741 1.002467 1.146337
0.647202 0.967626 0.960485
0.432314 0.930938 0.823220
0.224385 0.890094 0.702541
0.003472 0.841878 0.585477
0.000000 0.778754 0.474538
0.000000 0.626113 0.087327
0.000000 0.612432 0.019132
0.000000 0.617524 0.019289
0.000000 0.621122 0.019401
0.000000 0.623417 0.019473
0.000000 0.624672 0.019515
0.000000 0.625166 0.019530
0.000000 0.625272 0.019532
1.121091 0.848602 1.258395
1.104846 0.846169 1.287855
0.990489 0.910652 1.284663
0.807801 1.002928 1.278848
0.556027 0.967202 1.082298
0.325322 0.926845 0.935249
0.087244 0.880744 0.823604
0.000000 0.824696 0.805758
0.000000 0.757966 0.547732
0.000000 0.607976 0.018994
0.000000 0.613955 0.019179
0.000000 0.618257 0.019314
0.000000 0.621115 0.019401
0.000000 0.622700 0.019452
0.000000 0.623561 0.019477
0.000000 0.623899 0.019488
1.173021 0.751481 1.409869
1.154341 0.748652 1.441311
1.041102 0.816134 1.446171
0.871953 0.905737 1.458513
0.652431 1.000442 1.492317
0.377518 0.963475 1.329192
0.107550 0.920491 1.225453
0.000000 0.876373 1.018226
0.000000 0.825252 0.803422
0.000000 0.759714 0.550574
0.000000 0.608314 0.019002
0.000000 0.613683 0.019169
0.000000 0.617324 0.019285
0.000000 0.619647 0.019355
0.000000 0.620907 0.019395
0.000000 0.621708 0.019422
1.241189 0.522373 1.749549
1.241854 0.522645 1.750497
1.032419 0.672938 1.748043
0.849148 0.797397 1.736830
0.682134 0.901879 1.715830
0.513531 0.998092 1.683157
0.300406 0.964011 1.451175
0.117016 0.924846 1.239255
0.000000 0.881462 1.035767
0.000000 0.832989 0.830033
0.000000 0.774446 0.602691
0.000000 0.674760 0.245807
0.000000 0.611917 0.019117
0.000000 0.615216 0.019217
0.000000 0.617201 0.019281
0.000000 0.618612 0.019323
1.253153 0.527439 1.766464
1.253803 0.527614 1.767213
1.249870 0.525988 1.761749
1.109842 0.621537 1.753925
0.853714 0.798101 1.741662
0.679258 0.907171 1.719671
0.514931 1.000866 1.687723
0.309741 0.967991 1.464262
0.131980 0.930242 1.259130
0.000000 0.889082 1.064951
0.000000 0.844647 0.874345
0.000000 0.794824 0.677184
0.000000 0.732722 0.447779
0.000000 0.609196 0.019029
0.000000 0.612261 0.019125
0.000000 0.614313 0.019191
1.263212 0.531672 1.780676
1.263662 0.531809 1.781486
1.260873 0.530594 1.777294
1.254902 0.528099 1.768726
1.130931 0.609468 1.757948
0.847071 0.805538 1.745002
0.673789 0.913305 1.722497
0.516113 1.003163 1.691489
0.320342 0.971772 1.478513
0.150630 0.936150 1.283029
0.000000 0.897904 1.100605
0.000000 0.857847 0.926647
0.000000 0.816047 0.757790
0.000000 0.770990 0.586425
0.000000 0.717788 0.393643
0.000000 0.608991 0.019025
1.271506 0.535127 1.792129
1.271662 0.535189 1.792576
1.269531 0.534248 1.789277
1.264710 0.532328 1.783040
1.257374 0.529225 1.772303
1.094279 0.638707 1.761124
0.833797 0.816653 1.746799
0.666983 0.919860 1.724323
0.517078 1.005051 1.694969
0.331543 0.975365 1.492893
0.171299 0.941917 1.308746
0.029413 0.906988 1.139060
0.000000 0.871519 0.982005
0.000000 0.835967 0.835666
0.000000 0.800898 0.698589
0.000000 0.763853 0.559872
1.277909 0.537818 1.801380
1.278076 0.537896 1.801713
1.276244 0.537104 1.798990
1.272547 0.535605 1.793718
1.266685 0.533156 1.785747
1.258376 0.529608 1.773837
1.044900 0.675925 1.762822
0.817033 0.829446 1.747447
0.659362 0.926276 1.725439
0.517857 1.006558 1.697330
0.343109 0.978520 1.506962
0.192461 0.947733 1.334596
0.061040 0.915887 1.178151
0.000000 0.884335 1.036138
0.000000 0.853952 0.907868
0.000000 0.823986 0.788021
1.282766 0.539890 1.808399
1.282918 0.539905 1.808608
1.281458 0.539315 1.806595
1.278444 0.538070 1.802257
1.273733 0.536118 1.795693
1.267019 0.533244 1.786324
1.258078 0.529488 1.773144
0.997324 0.710968 1.762819
0.798466 0.842902 1.747227
0.651207 0.932545 1.725929
0.518422 1.007702 1.699426
0.354305 0.981607 1.520483
0.213811 0.953020 1.360200
0.091875 0.924113 1.215823
0.000000 0.895981 1.087250
0.000000 0.868876 0.970113
1.286111 0.541308 1.813112
1.286282 0.541380 1.813334
1.285124 0.540884 1.811401
1.282793 0.539901 1.808437
1.278948 0.538283 1.802783
1.273493 0.535918 1.794962
1.266080 0.532857 1.784925
1.256832 0.528937 1.771609
0.954081 0.741650 1.762085
0.779772 0.855709 1.746016
0.643071 0.938542 1.725664
0.518852 1.008527 1.700908
0.365558 0.983997 1.533764
0.234314 0.957886 1.384320
0.121827 0.931694 1.251825
0.023171 0.906157 1.132356
1.288511 0.542309 1.816437
1.288648 0.542316 1.816211
1.287549 0.541920 1.815012
1.285519 0.541052 1.812271
1.282328 0.539721 1.807680
1.277989 0.537852 1.801411
1.271954 0.535306 1.793128
1.264302 0.532107 1.782402
1.254904 0.528100 1.768731
0.914883 0.768835 1.760587
0.760999 0.868202 1.744680
0.634656 0.944069 1.725094
0.519123 1.009040 1.701667
0.375678 0.986033 1.545437
0.253911 0.962125 1.407207
0.148298 0.938005 1.283249
1.289549 0.542741 1.817777
1.289792 0.542775 1.818075
1.288855 0.542446 1.816856
1.287230 0.541776 1.814392
1.284573 0.540609 1.810637
1.280839 0.539050 1.805742
1.275806 0.536985 1.798554
1.269650 0.534312 1.789494
1.261752 0.531027 1.778364
1.111445 0.632288 1.768581
0.880051 0.792258 1.758042
0.743196 0.879402 1.742971
0.626993 0.948764 1.724078
0.519271 1.009325 1.702193
0.385954 0.987962 1.556927
0.271641 0.965968 1.427695
1.290065 0.542892 1.818185
1.289970 0.542927 1.818285
1.289286 0.542647 1.817289
1.288061 0.542020 1.815428
1.285786 0.541088 1.812501
1.282675 0.539822 1.808144
1.278376 0.538075 1.802120
1.273170 0.535816 1.794816
1.266579 0.533059 1.785551
1.258773 0.529783 1.774164
1.019667 0.697683 1.766651
0.848656 0.812915 1.755373
0.726317 0.889915 1.740589
0.619030 0.953637 1.722749
0.519334 1.009406 1.702143
0.394513 0.989656 1.566268
1.289978 0.542900 1.818212
1.289988 0.542935 1.818310
1.289391 0.542631 1.817435
1.288226 0.542159 1.815972
1.286307 0.541445 1.813548
1.283707 0.540302 1.809412
1.280251 0.538809 1.804594
1.275688 0.536936 1.798389
1.270307 0.534614 1.790586
1.263722 0.531850 1.781088
1.255791 0.528551 1.770424
0.963417 0.736408 1.764180
0.822297 0.829959 1.752863
0.711196 0.899035 1.738133
0.612407 0.957286 1.721610
0.519336 1.009409 1.702153
0.986374 0.897890 0.772590
0.956500 0.912974 0.768253
0.840043 0.969028 0.748838
0.633281 0.942931 0.689220
0.433328 0.910089 0.609381
0.230646 0.870701 0.512117
0.012252 0.820794 0.391395
0.000000 0.749235 0.214841
0.000000 0.612295 0.000000
0.000000 0.614000 0.019181
0.000000 0.618737 0.019330
0.000000 0.622108 0.019434
0.000000 0.624322 0.019502
0.000000 0.625476 0.019539
0.000000 0.625867 0.019550
0.000000 0.625891 0.019550
1.020172 0.902907 0.821617
0.971106 0.856034 0.692865
0.806154 0.961196 0.696604
0.587426 0.935522 0.667269
0.394094 0.903795 0.597772
0.196942 0.864687 0.504928
0.000000 0.814757 0.385982
0.000000 0.740741 0.205174
0.000000 0.611735 0.000000
0.000000 0.614367 0.019194
0.000000 0.618984 0.019335
0.000000 0.622317 0.019440
0.000000 0.624529 0.019508
0.000000 0.625533 0.019540
0.000000 0.625892 0.019550
0.000000 0.625920 0.019551
1.155036 0.917624 1.016023
1.159948 0.915008 1.016442
0.901821 0.901823 0.901822
0.537601 0.891129 0.744596
0.274452 0.871359 0.624052
0.058131 0.837369 0.514589
0.000000 0.786944 0.388736
0.000000 0.691400 0.188307
0.000000 0.610608 0.019073
0.000000 0.615992 0.019243
0.000000 0.620099 0.019371
0.000000 0.623023 0.019461
0.000000 0.624869 0.019518
0.000000 0.625788 0.019547
0.000000 0.625923 0.019551
0.000000 0.625958 0.019552
1.185957 0.846595 1.167982
1.179661 0.844480 1.183085
1.071518 0.836487 1.237856
0.809539 0.984295 1.231268
0.494597 0.949792 1.007600
0.240379 0.906613 0.848162
0.000000 0.855446 0.727279
0.000000 0.792411 0.679425
0.000000 0.699854 0.338947
0.000000 0.611271 0.019094
0.000000 0.616387 0.019255
0.000000 0.620088 0.019369
0.000000 0.622467 0.019443
0.000000 0.623730 0.019485
0.000000 0.624319 0.019502
0.000000 0.624614 0.019513
1.241605 0.749647 1.318410
1.232414 0.747063 1.336957
1.159568 0.735398 1.459748
0.911056 0.879516 1.471436
0.643067 1.000184 1.504991
0.342949 0.957491 1.301743
0.065408 0.910186 1.175036
0.000000 0.861777 0.956178
0.000000 0.805830 0.726544
0.000000 0.726564 0.430279
0.000000 0.610464 0.019071
0.000000 0.615331 0.019223
0.000000 0.618620 0.019323
0.000000 0.620626 0.019389
0.000000 0.621699 0.019422
0.000000 0.622372 0.019440
1.423933 0.528868 1.503888
1.401756 0.528255 1.534800
1.242866 0.523035 1.752027
0.912739 0.755501 1.742177
0.704191 0.888694 1.719155
0.513534 0.998137 1.683416
0.283594 0.960875 1.432122
0.091523 0.918704 1.208908
0.000000 0.872675 0.997148
0.000000 0.820884 0.782221
0.000000 0.756363 0.535639
0.000000 0.608594 0.019013
0.000000 0.613190 0.019155
0.000000 0.616148 0.019247
0.000000 0.617981 0.019304
0.000000 0.619212 0.019343
1.251910 0.526878 1.764687
1.252376 0.527098 1.765567
1.254350 0.527881 1.768329
1.245979 0.524379 1.756260
0.891235 0.773613 1.745006
0.692109 0.899388 1.721571
0.514966 1.000913 1.687893
0.299255 0.965955 1.452371
0.115765 0.926433 1.239990
0.000000 0.883507 1.039951
0.000000 0.837114 0.843678
0.000000 0.784596 0.638395
0.000000 0.714901 0.384593
0.000000 0.610118 0.019058
0.000000 0.612901 0.019147
0.000000 0.614992 0.019210
1.262384 0.531228 1.779363
1.262588 0.531348 1.779748
1.263979 0.531960 1.781854
1.257865 0.529357 1.773045
1.247884 0.525155 1.758939
0.870132 0.790561 1.747079
0.681941 0.908611 1.723601
0.516125 1.003195 1.691555
0.313443 0.970535 1.470692
0.139689 0.933644 1.270141
0.000000 0.894190 1.083897
0.000000 0.853022 0.906560
0.000000 0.810058 0.733978
0.000000 0.762944 0.556768
0.000000 0.704318 0.346403
0.000000 0.609651 0.019043
1.270526 0.534792 1.790993
1.270868 0.534878 1.791421
1.272051 0.535333 1.792806
1.267237 0.533335 1.786233
1.259544 0.530121 1.775277
1.248657 0.525480 1.759995
0.848805 0.806942 1.748189
0.672396 0.916578 1.725293
0.517094 1.005072 1.695047
0.326830 0.974484 1.487400
0.163650 0.940273 1.299803
0.019937 0.904565 1.127468
0.000000 0.868335 0.968451
0.000000 0.832183 0.820314
0.000000 0.796436 0.681196
0.000000 0.757896 0.537848
1.277359 0.537563 1.800553
1.277469 0.537607 1.800945
1.278370 0.537959 1.801714
1.274445 0.536386 1.796688
1.268534 0.533837 1.787837
1.259936 0.530231 1.775937
1.085328 0.647231 1.763695
0.827221 0.823045 1.748621
0.663116 0.924198 1.726162
0.517866 1.006574 1.697377
0.339701 0.977963 1.503255
0.186921 0.946349 1.328110
0.054277 0.914004 1.169899
0.000000 0.882157 1.026641
0.000000 0.851380 0.897548
0.000000 0.820977 0.775921
1.282232 0.539638 1.807809
1.282276 0.539699 1.807712
1.283005 0.539985 1.808882
1.280062 0.538685 1.804561
1.275276 0.536722 1.797776
1.268404 0.533824 1.787915
1.259132 0.529955 1.774911
1.018044 0.696468 1.763858
0.805407 0.838478 1.748146
0.653755 0.931181 1.726525
0.518428 1.007709 1.699454
0.351770 0.980929 1.517696
0.209753 0.952170 1.355475
0.086869 0.922832 1.209703
0.000000 0.894446 1.080465
0.000000 0.867019 0.962360
1.285783 0.541130 1.812282
1.285999 0.541181 1.812562
1.286257 0.541424 1.813478
1.284073 0.540391 1.809865
1.280163 0.538746 1.804633
1.274480 0.536400 1.796736
1.267106 0.533279 1.786053
1.257688 0.529290 1.772926
0.966239 0.733327 1.762640
0.784572 0.852675 1.747035
0.645000 0.937320 1.726245
0.518856 1.008533 1.700927
0.363725 0.983698 1.531576
0.231348 0.957043 1.380828
0.118101 0.930622 1.247320
0.018981 0.904889 1.127210
1.288026 0.542124 1.815681
1.288079 0.542148 1.815755
1.288595 0.542279 1.816139
1.286600 0.541452 1.813359
1.283289 0.540118 1.809191
1.278912 0.538214 1.802955
1.272813 0.535618 1.794001
1.264937 0.532371 1.783398
1.255506 0.528398 1.769780
0.922793 0.763565 1.761135
0.764460 0.865856 1.745085
0.636131 0.943195 1.725448
0.519124 1.009042 1.701675
0.374371 0.985698 1.544176
0.251652 0.961566 1.404363
0.145330 0.937450 1.279741
1.289289 0.542648 1.817294
1.289315 0.542648 1.817330
1.289812 0.542783 1.818103
1.288077 0.542071 1.815579
1.285326 0.540963 1.811842
1.281547 0.539394 1.806873
1.276466 0.537290 1.799727
1.270210 0.534573 1.790451
1.262251 0.531254 1.779272
1.138212 0.612885 1.768770
0.885491 0.788701 1.758717
0.745545 0.877977 1.743354
0.628056 0.948251 1.724268
0.519272 1.009325 1.702196
0.385020 0.987686 1.555844
0.269760 0.965357 1.425445
1.289771 0.542832 1.818194
1.289776 0.542834 1.818201
1.289971 0.542928 1.818287
1.288601 0.542342 1.816293
1.286290 0.541438 1.813525
1.283197 0.540037 1.808935
1.279226 0.538288 1.802996
1.273702 0.536030 1.795401
1.267167 0.533305 1.786135
1.259309 0.530010 1.775187
1.029452 0.690880 1.767180
0.852401 0.810524 1.755783
0.728190 0.888660 1.740831
0.619860 0.953116 1.722882
0.519334 1.009406 1.702143
0.393707 0.989348 1.565408
1.289767 0.542830 1.818188
1.289851 0.542851 1.818285
1.290027 0.542951 1.818375
1.288864 0.542450 1.816869
1.286981 0.541640 1.814154
1.284276 0.540502 1.810532
1.280705 0.539042 1.805560
1.276269 0.537114 1.799045
1.270779 0.534801 1.791167
1.264023 0.532017 1.782045
1.256260 0.528732 1.770786
0.969583 0.732309 1.764628
0.825234 0.828088 1.752769
0.712743 0.898099 1.738480
0.613118 0.956983 1.721559
0.519350 1.009415 1.702013
0.969742 0.819554 0.607101
0.948607 0.830450 0.603554
0.864135 0.872152 0.588604
0.714478 0.938556 0.556064
0.500476 0.907309 0.498784
0.289907 0.868432 0.413083
0.068172 0.818713 0.295060
0.000000 0.745817 0.106983
0.000000 0.615377 0.000000
0.000000 0.618315 0.000000
0.000000 0.618443 0.019318
0.000000 0.621852 0.019425
0.000000 0.624093 0.019497
0.000000 0.625304 0.019532
0.000000 0.625646 0.019545
0.000000 0.625778 0.019547
0.994690 0.823250 0.641272
0.955927 0.765826 0.497029
0.850486 0.842314 0.520353
0.689764 0.932056 0.518343
0.471997 0.901411 0.477639
0.262931 0.862603 0.398761
0.042260 0.812751 0.282935
0.000000 0.737107 0.087951
0.000000 0.615551 0.000000
0.000000 0.617874 0.000000
0.000000 0.618632 0.019326
0.000000 0.622089 0.019432
0.000000 0.624197 0.019499
0.000000 0.625339 0.019533
0.000000 0.625704 0.019548
0.000000 0.625806 0.019548
1.096183 0.835103 0.778727
1.087574 0.820744 0.741624
0.909241 0.765492 0.562091
0.676156 0.894505 0.521580
0.392437 0.872429 0.450826
0.159673 0.837681 0.363628
0.000000 0.786099 0.237772
0.000000 0.686084 0.000000
0.000000 0.615538 0.000000
0.000000 0.615529 0.019227
0.000000 0.619696 0.019359
0.000000 0.622681 0.019452
0.000000 0.624600 0.019512
0.000000 0.625523 0.019540
0.000000 0.625801 0.019548
0.000000 0.625841 0.019550
1.286074 0.841261 1.025641
1.289756 0.839231 1.025841
1.240585 0.832841 1.001737
0.827840 0.827842 0.827841
0.399835 0.821116 0.646524
0.095882 0.786318 0.500281
0.000000 0.734069 0.346066
0.000000 0.584494 0.018258
0.000000 0.598933 0.018709
0.000000 0.609506 0.019041
0.000000 0.617455 0.019287
0.000000 0.623737 0.019486
0.000000 0.625238 0.019531
0.000000 0.625892 0.019551
0.000000 0.625923 0.019551
0.000000 0.625953 0.019552
1.340832 0.744167 1.186068
1.339533 0.741734 1.193976
1.326013 0.731027 1.237331
1.066635 0.739294 1.298204
0.696675 0.946912 1.300811
0.351054 0.901121 1.046079
0.000000 0.852190 1.017252
0.000000 0.802125 0.778406
0.000000 0.732384 0.492355
0.000000 0.602527 0.018820
0.000000 0.611487 0.019102
0.000000 0.618629 0.019326
0.000000 0.621295 0.019410
0.000000 0.622645 0.019451
0.000000 0.623288 0.019470
0.000000 0.623723 0.019484
1.538351 0.532066 1.343349
1.530538 0.531937 1.355040
1.487382 0.531100 1.418410
1.199108 0.504699 1.690359
0.735110 0.828673 1.673294
0.499240 0.970495 1.636753
0.240483 0.930214 1.355891
0.034434 0.886694 1.118665
0.000000 0.838785 0.893961
0.000000 0.782085 0.656208
0.000000 0.692350 0.319339
0.000000 0.611395 0.019100
0.000000 0.615648 0.019230
0.000000 0.618113 0.019307
0.000000 0.619528 0.019352
0.000000 0.620573 0.019383
1.397584 0.531631 1.565329
1.377478 0.530969 1.593051
1.251521 0.526731 1.764161
1.227661 0.516683 1.730353
0.975630 0.688443 1.716233
0.706985 0.865195 1.692824
0.505476 0.982408 1.656968
0.272541 0.946156 1.404234
0.079516 0.905437 1.181838
0.000000 0.861979 0.974296
0.000000 0.814393 0.768485
0.000000 0.757732 0.541641
0.000000 0.630789 0.094801
0.000000 0.611954 0.019117
0.000000 0.614449 0.019196
0.000000 0.616268 0.019252
1.260280 0.530384 1.776329
1.260737 0.530539 1.777125
1.261885 0.531100 1.778838
1.244381 0.523764 1.754049
1.233761 0.519265 1.739499
0.911058 0.742561 1.724702
0.688612 0.884676 1.700326
0.508335 0.987987 1.666045
