remotion/public/assets/luts/VM Thermal Melt.cube
LUT_3D_SIZE 6
1.000090 1.000000 1.000091
0.775048 0.881747 0.644005
0.549248 0.762559 0.287194
0.320561 0.641188 0.000000
0.074527 0.510119 0.000000
0.000000 0.410160 0.000000
1.024948 0.897552 1.141555
0.818352 1.020338 1.115393
0.474370 0.866674 0.465925
0.252625 0.729765 0.059210
0.019612 0.619844 0.000000
0.000000 0.552096 0.000000
1.049634 0.792260 1.285173
0.969793 0.841771 1.306599
0.593627 1.043620 1.255261
0.165659 0.933381 0.544946
0.000000 0.839849 0.095127
0.000000 0.744243 0.000000
1.075409 0.678046 1.439051
1.003496 0.720547 1.458567
0.647956 0.855434 1.625840
0.298447 1.072487 1.436741
0.000000 0.993544 0.720075
0.000000 0.900043 0.301301
1.112808 0.506622 1.667591
1.002831 0.590825 1.661067
0.814264 0.734969 1.649718
0.602247 0.885573 1.613043
0.298655 1.073205 1.437611
0.007745 1.012677 0.854535
1.113002 0.506682 1.668029
1.112683 0.507350 1.669575
0.913635 0.659704 1.657283
0.747285 0.784518 1.643478
0.554773 0.916511 1.596753
0.298702 1.073402 1.437921
0.755047 0.841436 0.743101
0.749808 0.895488 0.842643
0.850879 0.671911 0.450463
0.512527 0.592304 0.000000
0.256262 0.472197 0.000000
0.094735 0.358096 0.000000
1.011070 0.932892 1.080820
0.799773 0.799774 0.799774
0.487434 0.669826 0.263485
0.270606 0.573304 0.000000
0.035477 0.451628 0.000000
0.000000 0.328023 0.000000
1.096149 0.803970 1.194545
0.954699 0.746128 1.145519
0.606191 0.951728 1.114193
0.183375 0.836439 0.439436
0.000000 0.747602 0.019793
0.000000 0.574233 0.000000
1.121354 0.690167 1.359860
0.985134 0.639235 1.301810
0.727903 0.772302 1.380966
0.274023 0.984714 1.319156
0.000000 0.906585 0.631616
0.000000 0.712432 0.214794
1.241455 0.505164 1.522362
1.018949 0.463848 1.527071
0.765946 0.657358 1.511778
0.560454 0.803808 1.478560
0.272985 0.981005 1.314060
0.001910 0.808167 0.671520
1.113001 0.505962 1.665892
0.890174 0.405225 1.333961
0.752445 0.510909 1.326556
0.606597 0.620911 1.315540
0.448048 0.729973 1.278455
0.238917 0.858402 1.149954
0.506664 0.692769 0.481091
0.534178 0.710272 0.528392
0.509451 0.802684 0.696131
0.960322 0.432877 0.743582
0.778261 0.343857 0.018037
0.524318 0.293711 0.000000
0.592369 0.756392 0.569939
0.416483 0.571994 0.395186
0.468557 0.717160 0.626856
0.885837 0.387484 0.552463
0.638774 0.322879 0.000000
0.359113 0.225933 0.000000
1.023123 0.875607 1.154731
0.934300 0.813186 1.042414
0.599383 0.599384 0.599383
0.242261 0.441909 0.000000
0.000000 0.305745 0.000000
0.000000 0.245869 0.000000
1.187850 0.736525 1.170093
1.078634 0.681203 1.090465
0.817164 0.559889 1.052638
0.235333 0.845700 1.132993
0.000000 0.770984 0.406708
0.000000 0.503070 0.061955
1.236370 0.623621 1.318441
1.124283 0.565341 1.229437
0.921928 0.419634 1.381606
0.560189 0.696450 1.356604
0.249522 0.896667 1.201152
0.000000 0.598900 0.459070
1.325180 0.503073 1.420833
1.042971 0.402738 1.157250
0.667057 0.303716 0.999704
0.489452 0.439648 0.989404
0.352079 0.536599 0.963747
0.179031 0.643387 0.861789
0.263399 0.559974 0.222578
0.286914 0.571767 0.261999
0.337173 0.625018 0.385665
0.297182 0.726425 0.570433
0.740471 0.350333 0.985201
0.959526 0.220202 0.378563
0.338405 0.603443 0.291938
0.138159 0.442594 0.096264
0.262295 0.537401 0.300014
0.268071 0.664536 0.520484
0.717595 0.301349 0.886110
0.756378 0.178756 0.251277
0.494163 0.760306 0.546704
0.442017 0.676914 0.460205
0.194067 0.363267 0.170772
0.232134 0.509170 0.408497
0.713376 0.181156 0.552787
0.490630 0.151461 0.002122
1.033783 0.832496 1.213428
0.948767 0.770092 1.108092
0.798787 0.659694 0.922996
0.399083 0.399084 0.399083
0.033925 0.229965 0.000000
0.000000 0.163696 0.000000
1.243586 0.704572 1.136622
1.136441 0.643910 1.047049
1.029215 0.567251 0.987275
0.641566 0.340287 0.917272
0.185107 0.665216 0.891112
0.000000 0.382485 0.217172
1.266106 0.634224 1.252218
1.013017 0.502757 1.009515
0.763515 0.356928 0.790270
0.444107 0.202208 0.665614
0.265316 0.336418 0.650092
0.119212 0.428402 0.573884
0.061798 0.459597 0.007077
0.082621 0.470117 0.046081
0.145560 0.510715 0.164015
0.195286 0.583868 0.313433
0.151508 0.677322 0.486155
0.499489 0.396961 1.013321
0.135269 0.496191 0.071630
0.003236 0.390132 0.000000
0.092164 0.444840 0.104646
0.164490 0.527030 0.270768
0.134775 0.621417 0.444544
0.417975 0.309555 0.813564
0.324134 0.613401 0.263785
0.265151 0.540431 0.201335
0.000218 0.273803 0.000000
0.100825 0.373514 0.161842
0.094565 0.514752 0.362026
0.381351 0.204296 0.609083
0.451024 0.786559 0.628879
0.408397 0.715870 0.553763
0.317261 0.573249 0.366238
0.023140 0.189452 0.000000
0.072748 0.319917 0.230106
0.361432 0.096141 0.325897
1.040398 0.807792 1.248073
0.951776 0.740360 1.140674
0.864750 0.673107 1.035562
0.620749 0.488078 0.739239
0.198803 0.198803 0.198803
0.000000 0.081540 0.000000
1.254209 0.708193 1.106280
1.003354 0.565008 0.887543
0.753242 0.418245 0.675574
0.503466 0.267362 0.471946
0.221282 0.100733 0.331579
0.059383 0.213410 0.285892
0.000000 0.426277 0.000000
0.006411 0.434218 0.000000
0.058859 0.463852 0.058121
0.122696 0.515115 0.182963
0.155118 0.585491 0.315960
0.110135 0.663627 0.462467
0.048848 0.453309 0.000000
0.000000 0.340871 0.000000
0.039333 0.366205 0.032571
0.095131 0.408703 0.139468
0.123981 0.466628 0.249852
0.088093 0.530755 0.369895
0.210023 0.540022 0.132465
0.146151 0.419077 0.084353
0.000000 0.255505 0.000000
0.058405 0.294489 0.077694
0.092298 0.344012 0.177026
0.066031 0.397758 0.277212
0.361010 0.670090 0.347804
0.283155 0.528019 0.264435
0.185457 0.366110 0.148658
0.000000 0.170126 0.000000
0.057524 0.217664 0.097062
0.043972 0.264880 0.184577
0.475545 0.808630 0.748222
0.375745 0.644858 0.586665
0.267431 0.475428 0.398524
0.160442 0.295430 0.196310
0.000000 0.084743 0.000000
0.021906 0.131931 0.091940
1.042149 0.801706 1.256750
0.833585 0.641092 1.005102
0.624670 0.480474 0.753329
0.415955 0.319963 0.501591
0.207183 0.159383 0.249875
0.000000 0.000000 0.000000
